DanielTruong99/actuator_dynamic_on_gene/src/joint_planner/motion_files/joint_states_eclipse_2.csv
timestamp,L_hip_joint,L_hip2_joint,L_thigh_joint,L_calf_joint,L_toe_joint
0.0,5.232095645624213e-07,2.5518897018628195e-05,2.119113595711042e-08,-1.1670636013150215e-07,-3.504635742501705e-06
0.005,-0.0004092350136488676,-0.00257532624527812,-0.03813548758625984,0.0005162044544704258,0.16988784074783325
0.01,-0.0009397825924679637,-0.005828922148793936,-0.1830475777387619,0.2513338625431061,-0.07996197044849396
0.015,-0.0016258707037195563,-0.006799765396863222,-0.35990652441978455,0.5062689185142517,-0.32877519726753235
0.02,-0.0017799860797822475,-0.005892674904316664,-0.5653461217880249,0.7598505616188049,-0.5788326859474182
0.025,0.0011575906537473202,-0.008032532408833504,-0.8064296841621399,1.003310203552246,-0.3963582217693329
0.03,-0.00492973392829299,-0.007053418550640345,-1.058579683303833,1.248282551765442,-0.1545088291168213
0.035,-0.006863411981612444,-0.0027938580606132746,-1.2983092069625854,1.416420578956604,-0.005460144951939583
0.04,-0.0031331321224570274,0.0016057760221883655,-1.431708812713623,1.2874122858047485,0.026746375486254692
0.045,0.002494887914508581,-0.006386803463101387,-1.5023592710494995,1.2037862539291382,0.03677554428577423
0.05,-0.001707924995571375,-0.0020017665810883045,-1.5726679563522339,1.308671236038208,0.034479036927223206
0.055,-0.0030309059657156467,0.002282090950757265,-1.576905369758606,1.3544059991836548,0.025343917310237885
0.06,-0.0004714741080533713,0.000577897357288748,-1.5108797550201416,1.3097331523895264,0.02110258862376213
0.065,0.0005455026985146105,-0.00738098518922925,-1.4143271446228027,1.2842211723327637,0.031866978853940964
0.07,-0.004943204112350941,-0.004192379768937826,-1.31113862991333,1.2886685132980347,0.04221341013908386
0.075,-0.007208705879747868,-0.001653648796491325,-1.2365608215332031,1.3155661821365356,0.037548620253801346
0.08,-0.0031254575587809086,-0.0018718711799010634,-1.211020588874817,1.3508951663970947,0.023513583466410637
0.085,0.0024540768936276436,-0.008096719160676003,-1.2301709651947021,1.3682780265808105,0.011772194877266884
0.09,-0.0033641187474131584,-0.004462490789592266,-1.2796623706817627,1.3508975505828857,0.014464074745774269
0.095,-0.005690312013030052,0.0010169687448069453,-1.342395305633545,1.3110651969909668,0.02318856492638588
0.1,-0.0008344510570168495,0.00017816064064390957,-1.394557237625122,1.277583122253418,0.033318884670734406
0.105,0.0024833467323333025,-0.00674043083563447,-1.42629873752594,1.2826520204544067,0.03613448515534401
0.11,-0.003051644191145897,-0.002440299605950713,-1.4242159128189087,1.2980700731277466,0.03638794645667076
0.115,-0.005126398988068104,0.0007050271378830075,-1.3905624151229858,1.3061301708221436,0.03485880792140961
0.12,-0.001685024704784155,-0.0008794587338343263,-1.3433581590652466,1.3106560707092285,0.034998223185539246
0.125,0.001549900509417057,-0.007990132085978985,-1.3060029745101929,1.3256419897079468,0.03112194500863552
0.13,-0.004448777996003628,-0.004407797008752823,-1.2899024486541748,1.3403873443603516,0.02631845697760582
0.135,-0.00679172296077013,-0.00031293643405660987,-1.2986129522323608,1.3485926389694214,0.02065860852599144
0.14,-0.0020587702747434378,-0.0008104941807687283,-1.323881983757019,1.3402410745620728,0.021013479679822922
0.145,0.0025941976346075535,-0.007725253235548735,-1.3556615114212036,1.3266983032226562,0.022730551660060883
0.15,-0.0030784851405769587,-0.0034389393404126167,-1.3820499181747437,1.3160064220428467,0.0268839281052351
0.155,-0.005194697994738817,0.00102605065330863,-1.396433711051941,1.318235158920288,0.02754068188369274
0.16,-0.0012237110640853643,-0.0002831188903655857,-1.3936177492141724,1.3230782747268677,0.028345895931124687
0.165,0.0018715554615482688,-0.007575865834951401,-1.3780440092086792,1.3309364318847656,0.02639959566295147
0.17,-0.003864218480885029,-0.0037043967749923468,-1.3568495512008667,1.3369331359863281,0.025659264996647835
0.17500000000000002,-0.006184961646795273,0.00011695947614498436,-1.3409759998321533,1.3466070890426636,0.022019999101758003
0.18,-0.0019759293645620346,-0.0008885494316928089,-1.3350286483764648,1.3527109622955322,0.01999042183160782
0.185,0.002190815983340144,-0.008081350475549698,-1.3412171602249146,1.3568109273910522,0.016616279259324074
0.19,-0.003699518973007798,-0.004048582166433334,-1.354630470275879,1.3532778024673462,0.01705399714410305
0.195,-0.00600604759529233,0.0006458345451392233,-1.3710781335830688,1.3503334522247314,0.016467297449707985
0.2,-0.0015477485721930861,-0.0004052107105962932,-1.3838969469070435,1.3471198081970215,0.018257636576890945
0.20500000000000002,0.0022136736661195755,-0.0077761150896549225,-1.3906270265579224,1.3499500751495361,0.017305556684732437
0.21,-0.0034681453835219145,-0.0035627195611596107,-1.3886851072311401,1.3524292707443237,0.017895568162202835
0.215,-0.005759395658969879,0.000723494216799736,-1.381678819656372,1.3586617708206177,0.01565723679959774
0.22,-0.0016306715551763773,-0.0005383109673857689,-1.3725022077560425,1.3631327152252197,0.015096100978553295
0.225,0.002094678580760956,-0.008110007271170616,-1.3667373657226562,1.3699729442596436,0.011864117346704006
0.23,-0.0038436620961874723,-0.004091148264706135,-1.3653526306152344,1.3727953433990479,0.011111575178802013
0.23500000000000001,-0.006311585195362568,0.0005236864672042429,-1.369903564453125,1.3760501146316528,0.008413638919591904
0.24,-0.001836900133639574,-0.0005394343752413988,-1.3773536682128906,1.375240683555603,0.008756094612181187
0.245,0.0022483861539512873,-0.00816040113568306,-1.3862485885620117,1.3765300512313843,0.007033989764750004
0.25,-0.00352634210139513,-0.0038802525959908962,-1.3924483060836792,1.3759276866912842,0.007943031378090382
0.255,-0.005899933632463217,0.000920304621104151,-1.3957557678222656,1.3792966604232788,0.0061352988705039024
0.26,-0.0015691656153649092,-0.0003396637621335685,-1.394819974899292,1.3814787864685059,0.0064418432302773
0.265,0.0021903638262301683,-0.00818586628884077,-1.3922996520996094,1.3869322538375854,0.003827789332717657
0.27,-0.003697400214150548,-0.004014801699668169,-1.388693928718567,1.389810562133789,0.0035976634826511145
0.275,-0.006238205824047327,0.0007503033266402781,-1.387280821800232,1.3949202299118042,0.0006468354258686304
0.28,-0.0018303869292140007,-0.0004647677415050566,-1.3878127336502075,1.3969149589538574,0.00040092665585689247
0.28500000000000003,0.002222869312390685,-0.008416111581027508,-1.3914850950241089,1.4005396366119385,-0.002338235266506672
0.29,-0.0036687212996184826,-0.004143667407333851,-1.3957957029342651,1.4007768630981445,-0.0020097868982702494
0.295,-0.006193326786160469,0.000954477465711534,-1.4007455110549927,1.4035221338272095,-0.004274561535567045
0.3,-0.0016955611063167453,-0.00029081932734698057,-1.4039409160614014,1.404348373413086,-0.0038007053080946207
0.305,0.002275446429848671,-0.008409425616264343,-1.4061082601547241,1.4083919525146484,-0.006281538400799036
0.31,-0.0036015952937304974,-0.0040887705981731415,-1.4058854579925537,1.41018545627594,-0.0060524707660079
0.315,-0.006201919633895159,0.0010176909854635596,-1.4054133892059326,1.4148634672164917,-0.008846466429531574
0.32,-0.0017591217765584588,-0.00030004431027919054,-1.404462218284607,1.4172050952911377,-0.008917035534977913
0.325,0.0022550798021256924,-0.00859701819717884,-1.405138611793518,1.4218708276748657,-0.01196693442761898
0.33,-0.0037007052451372147,-0.004280237015336752,-1.4062844514846802,1.423355221748352,-0.011927052401006222
0.335,-0.006369188893586397,0.0010494949528947473,-1.4090725183486938,1.4270142316818237,-0.014758999459445477
0.34,-0.001803361694328487,-0.00024139537708833814,-1.4117738008499146,1.4281150102615356,-0.01451113075017929
0.34500000000000003,0.002315390622243285,-0.008681444451212883,-1.4150227308273315,1.431840419769287,-0.01729133166372776
0.35000000000000003,-0.003605863079428673,-0.004272581543773413,-1.4168426990509033,1.4330146312713623,-0.016952786594629288
0.355,-0.006301074288785458,0.0012047309428453445,-1.4184117317199707,1.437059760093689,-0.01977909915149212
0.36,-0.0017573849763721228,-0.00015772688493598253,-1.4187344312667847,1.4389787912368774,-0.019625088199973106
0.365,0.0023212458472698927,-0.008796265348792076,-1.4195058345794678,1.443587064743042,-0.0227415282279253
0.37,-0.0036635277792811394,-0.004390962887555361,-1.4197092056274414,1.4453768730163574,-0.0226521547883749
0.375,-0.006449182517826557,0.0012240788200870156,-1.4209965467453003,1.4495834112167358,-0.02577638253569603
0.38,-0.0018419967964291573,-0.00013868382666260004,-1.4222972393035889,1.451244831085205,-0.025664087384939194
0.385,0.002351151080802083,-0.00893867202103138,-1.4247181415557861,1.4553251266479492,-0.028814192861318588
0.39,-0.003633116837590933,-0.004468085244297981,-1.4265186786651611,1.4565787315368652,-0.028553389012813568
0.395,-0.006451675668358803,0.0013523995876312256,-1.428717017173767,1.4604573249816895,-0.031614743173122406
0.4,-0.001808619243092835,-4.34463145211339e-05,-1.4299967288970947,1.4621011018753052,-0.03138578310608864
0.405,0.0023866298142820597,-0.009037417359650135,-1.4315907955169678,1.4664555788040161,-0.034624963998794556
0.41000000000000003,-0.0036284339148551226,-0.004538387060165405,-1.4321924448013306,1.468130111694336,-0.0344315730035305
0.41500000000000004,-0.0065234871581196785,0.001419994980096817,-1.433315396308899,1.4723933935165405,-0.037718139588832855
0.42,-0.0018568472005426884,-4.2851606849581e-06,-1.434046983718872,1.4742673635482788,-0.037595342844724655
0.425,0.002402837388217449,-0.009185823611915112,-1.4357279539108276,1.4786239862442017,-0.04101038724184036
0.43,-0.003638689173385501,-0.004649188369512558,-1.436930775642395,1.4801334142684937,-0.04080894589424133
0.435,-0.006587556097656488,0.001508888672105968,-1.438828945159912,1.484145998954773,-0.04414868727326393
0.44,-0.0018657534383237362,7.223676948342472e-05,-1.440191388130188,1.4858134984970093,-0.04393792524933815
0.445,0.0024447820615023375,-0.009302197024226189,-1.4421075582504272,1.4900816679000854,-0.04738792032003403
0.45,-0.0036130943335592747,-0.004721581004559994,-1.443118691444397,1.491654634475708,-0.0471465140581131
0.455,-0.006624720524996519,0.001606831094250083,-1.4445103406906128,1.4958361387252808,-0.05060272291302681
0.46,-0.0018822322599589825,0.00013802402827423066,-1.4453001022338867,1.4977117776870728,-0.05043075606226921
0.465,0.0024667007382959127,-0.009441741742193699,-1.4467841386795044,1.502135992050171,-0.05404539033770561
0.47000000000000003,-0.0036245426163077354,-0.004831006750464439,-1.4476550817489624,1.5037837028503418,-0.053842660039663315
0.47500000000000003,-0.006702358368784189,0.0016851534601300955,-1.4491784572601318,1.507930874824524,-0.057424210011959076
0.48,-0.0019112471491098404,0.00020432680321391672,-1.4502884149551392,1.5097204446792603,-0.057233139872550964
0.485,0.0025042137131094933,-0.009576969780027866,-1.4520959854125977,1.5140364170074463,-0.06092124432325363
0.49,-0.003605219069868326,-0.0049229576252400875,-1.4531694650650024,1.515623688697815,-0.060675524175167084
0.495,-0.006742770317941904,0.0017867194255813956,-1.4546821117401123,1.5197679996490479,-0.06433651596307755
0.5,-0.0019209261517971754,0.00028245706926099956,-1.455609917640686,1.5216232538223267,-0.0641331747174263
0.505,0.0025352570228278637,-0.009713800624012947,-1.4571315050125122,1.5260289907455444,-0.06794006377458572
0.51,-0.003604533616453409,-0.00502757215872407,-1.4579459428787231,1.5277152061462402,-0.06771379709243774
0.515,-0.006810907740145922,0.0018714212346822023,-1.4592925310134888,1.5319139957427979,-0.07150479406118393
0.52,-0.0019501515198498964,0.0003516844008117914,-1.4602065086364746,1.53379225730896,-0.0713110864162445
0.525,0.0025691818445920944,-0.009858658537268639,-1.4618148803710938,1.5381665229797363,-0.07522489130496979
0.53,-0.003594211768358946,-0.005134528037160635,-1.4627715349197388,1.5398168563842773,-0.07498128712177277
0.535,-0.006863447837531567,0.001968205440789461,-1.464215874671936,1.5439748764038086,-0.0788605585694313
0.54,-0.001964977476745844,0.0004327896749600768,-1.4651578664779663,1.545849323272705,-0.07864540815353394
0.545,0.0026061430107802153,-0.010000405833125114,-1.4666906595230103,1.5502383708953857,-0.08265653252601624
0.55,-0.003584887832403183,-0.005241365637630224,-1.4675160646438599,1.5519376993179321,-0.08240976929664612
0.555,-0.006922200787812471,0.002060326747596264,-1.4687989950180054,1.5561374425888062,-0.08640266954898834
0.56,-0.001989114098250866,0.0005095969536341727,-1.4696260690689087,1.5580594539642334,-0.08619382977485657
0.5650000000000001,0.0026406212709844112,-0.010150022804737091,-1.4710934162139893,1.5624594688415527,-0.0903187021613121
0.5700000000000001,-0.003577705705538392,-0.0053564016707241535,-1.471924901008606,1.564165711402893,-0.09007037431001663
0.5750000000000001,-0.006981430575251579,0.0021542406175285578,-1.4732348918914795,1.5683445930480957,-0.09416353702545166
0.58,-0.0020092222839593887,0.0005921748233959079,-1.4741023778915405,1.570258617401123,-0.09394203871488571
0.585,0.00268006999976933,-0.010298696346580982,-1.475568175315857,1.574642300605774,-0.09816211462020874
0.59,-0.0035655454266816378,-0.0054701147601008415,-1.4763662815093994,1.5763633251190186,-0.09790395945310593
0.595,-0.007037383504211903,0.002250105608254671,-1.4775909185409546,1.580553650856018,-0.10209943354129791
0.6,-0.0020304513163864613,0.0006755511276423931,-1.478369951248169,1.582499623298645,-0.10187585651874542
0.605,0.0027174160350114107,-0.010452145710587502,-1.4797435998916626,1.5868968963623047,-0.10620475560426712
0.61,-0.0035571560729295015,-0.005590323358774185,-1.4804856777191162,1.5886396169662476,-0.10594580322504044
0.615,-0.007097682449966669,0.0023442888632416725,-1.481667160987854,1.5928236246109009,-0.11024640500545502
0.62,-0.0020527387969195843,0.0007610150496475399,-1.4824391603469849,1.5947753190994263,-0.1100166067481041
0.625,0.0027583930641412735,-0.010607253760099411,-1.4837989807128906,1.5991568565368652,-0.11444546282291412
0.63,-0.0035446975380182266,-0.005711385980248451,-1.48452889919281,1.6009031534194946,-0.11417796462774277
0.635,-0.007154308725148439,0.002441196935251355,-1.4856644868850708,1.6050803661346436,-0.11857733875513077
0.64,-0.002073675626888871,0.0008492288761772215,-1.4863868951797485,1.6070479154586792,-0.1183413490653038
0.645,0.0027990720700472593,-0.010765173472464085,-1.4876729249954224,1.611427664756775,-0.12287245690822601
0.65,-0.003533999901264906,-0.005836391821503639,-1.4883415699005127,1.6131925582885742,-0.12260202318429947
0.655,-0.0072136144153773785,0.002536797896027565,-1.4894087314605713,1.6173673868179321,-0.1271057426929474
0.66,-0.002095842733979225,0.0009381463751196861,-1.4900907278060913,1.6193463802337646,-0.12686532735824585
0.665,0.0028421012684702873,-0.010925840586423874,-1.4913346767425537,1.6237128973007202,-0.13149817287921906
0.67,-0.0035213669762015343,-0.0059638358652591705,-1.4919790029525757,1.6254831552505493,-0.13122202455997467
0.675,-0.007271479349583387,0.0026338137686252594,-1.493003010749817,1.629643440246582,-0.13582418859004974
0.68,-0.00211734464392066,0.0010296334512531757,-1.4936493635177612,1.6316295862197876,-0.13557735085487366
0.685,0.0028855795972049236,-0.01108856126666069,-1.4948359727859497,1.635985016822815,-0.1403099000453949
0.6900000000000001,-0.003508979454636574,-0.0060940091498196125,-1.4954289197921753,1.6377652883529663,-0.14002878963947296
0.6950000000000001,-0.0073300437070429325,0.002730285283178091,-1.496383547782898,1.6419172286987305,-0.14473159611225128
0.7000000000000001,-0.002139170654118061,0.0011219021398574114,-1.4969797134399414,1.6439146995544434,-0.144480362534523
0.705,0.0029310157988220453,-0.011254137381911278,-1.49810791015625,1.6482553482055664,-0.14931423962116241
0.71,-0.0034957225434482098,-0.006226597353816032,-1.4986612796783447,1.6500412225723267,-0.14902839064598083
0.715,-0.007388402242213488,0.002827326999977231,-1.4995617866516113,1.6541757583618164,-0.15383018553256989
0.72,-0.0021607205271720886,0.0012160621117800474,-1.5001198053359985,1.6561779975891113,-0.15357354283332825
0.725,0.002977698342874646,-0.011421596631407738,-1.5011937618255615,1.6605019569396973,-0.15850567817687988
0.73,-0.0034818886779248714,-0.006361506879329681,-1.5017014741897583,1.6622912883758545,-0.15821436047554016
0.735,-0.007446753326803446,0.002924299566075206,-1.5025358200073242,1.6664090156555176,-0.16311468183994293
0.74,-0.0021823467686772346,0.0013112165033817291,-1.503043532371521,1.668418288230896,-0.16285263001918793
0.745,0.0030258118640631437,-0.01159154623746872,-1.5040538311004639,1.672723650932312,-0.16788393259048462
0.75,-0.00346761173568666,-0.006498593837022781,-1.5045135021209717,1.674515962600708,-0.16758838295936584
0.755,-0.007505129091441631,0.003021263750270009,-1.5052844285964966,1.6786147356033325,-0.17258653044700623
0.76,-0.002203551586717367,0.0014075160725042224,-1.5057467222213745,1.680626630783081,-0.17231950163841248
0.765,0.0030759621877223253,-0.011763457208871841,-1.5066972970962524,1.6849077939987183,-0.1774483621120453
0.77,-0.0034523489885032177,-0.006637478247284889,-1.5071104764938354,1.6867010593414307,-0.177147775888443
0.775,-0.007563299499452114,0.003118175780400634,-1.5078158378601074,1.6907784938812256,-0.18224288523197174
0.78,-0.0022248378954827785,0.0015045698964968324,-1.508228063583374,1.6927932500839233,-0.18197055160999298
0.785,0.003127465723082423,-0.011937910690903664,-1.5091136693954468,1.6970504522323608,-0.18719656765460968
0.79,-0.003436820115894079,-0.00677832867950201,-1.5094753503799438,1.6988431215286255,-0.18689163029193878
0.795,-0.0076218401081860065,0.0032151544000953436,-1.5101114511489868,1.7028957605361938,-0.1920829564332962
0.8,-0.0022458068560808897,0.001602470874786377,-1.5104730129241943,1.7049111127853394,-0.19180577993392944
0.805,0.0031810493674129248,-0.012113980017602444,-1.5112940073013306,1.7091416120529175,-0.1971280723810196
0.81,-0.0034203988034278154,-0.006920528598129749,-1.5116055011749268,1.710931658744812,-0.19681797921657562
0.8150000000000001,-0.0076801832765340805,0.003311771433800459,-1.5121725797653198,1.7149574756622314,-0.20210497081279755
0.8200000000000001,-0.002266636583954096,0.0017006669659167528,-1.5124815702438354,1.7169702053070068,-0.2018222063779831
0.8250000000000001,0.0032362218480557203,-0.01229215506464243,-1.5132349729537964,1.7211719751358032,-0.20724071562290192
0.8300000000000001,-0.0034035758581012487,-0.0070640332996845245,-1.5134928226470947,1.7229583263397217,-0.20692585408687592
0.835,-0.007738589774817228,0.0034080001059919596,-1.513987421989441,1.7269548177719116,-0.21230754256248474
0.84,-0.0022871827241033316,0.0017991559579968452,-1.5142426490783691,1.7289655208587646,-0.21201971173286438
0.845,0.003293702844530344,-0.012472247704863548,-1.5149271488189697,1.7331345081329346,-0.21753224730491638
0.85,-0.0033856939990073442,-0.007208643946796656,-1.5151305198669434,1.7349141836166382,-0.21721366047859192
0.855,-0.00779698695987463,0.003504148917272687,-1.5155519247055054,1.7388797998428345,-0.22268837690353394
0.86,-0.00230731931515038,0.0018976025748997927,-1.515751838684082,1.7408860921859741,-0.22239594161510468
0.865,0.0033532753586769104,-0.012654045596718788,-1.5163657665252686,1.7450206279754639,-0.22800213098526
0.87,-0.0033673783764243126,-0.007353959139436483,-1.5165132284164429,1.7467926740646362,-0.22767895460128784
0.875,-0.00785568356513977,0.0035996721126139164,-1.5168591737747192,1.7507238388061523,-0.2332461178302765
0.88,-0.002327318536117673,0.0019956999458372593,-1.517001986503601,1.7527244091033936,-0.23294875025749207
0.885,0.0034150928258895874,-0.012837503105401993,-1.5175431966781616,1.7568225860595703,-0.2386482059955597
0.89,-0.0033481731079518795,-0.007499863393604755,-1.517633080482483,1.758583903312683,-0.23832020163536072
0.895,-0.007914370857179165,0.0036945869214832783,-1.5179026126861572,1.7624794244766235,-0.24397903680801392
0.9,-0.0023469591978937387,0.002093344694003463,-1.5179871320724487,1.7644718885421753,-0.24367696046829224
0.905,0.0034792348742485046,-0.01302230916917324,-1.5184543132781982,1.7685303688049316,-0.2494683414697647
0.91,-0.00332825118675828,-0.00764592457562685,-1.5184848308563232,1.7702805995941162,-0.24913540482521057
0.915,-0.00797328632324934,0.0037889087107032537,-1.5186749696731567,1.7741376161575317,-0.25488483905792236
0.92,-0.0023663693573325872,0.0021903221495449543,-1.5186991691589355,1.7761204242706299,-0.25457820296287537
0.925,0.0035460481885820627,-0.013208522461354733,-1.5190906524658203,1.7801367044448853,-0.2604597508907318
0.93,-0.0033070528879761696,-0.007792187854647636,-1.5190608501434326,1.7818729877471924,-0.26012250781059265
0.935,-0.008032036945223808,0.0038825366646051407,-1.5191713571548462,1.7856894731521606,-0.26596125960350037
0.9400000000000001,-0.002385314553976059,0.002286500297486782,-1.519134521484375,1.787660837173462,-0.2656496465206146
0.9450000000000001,0.003615534631535411,-0.013395985588431358,-1.5194487571716309,1.791633129119873,-0.2716207206249237
0.9500000000000001,-0.0032853088341653347,-0.00793804693967104,-1.5193568468093872,1.7933543920516968,-0.2712794840335846
0.9550000000000001,-0.008091362193226814,0.003975280560553074,-1.5193849802017212,1.7971267700195312,-0.2772056758403778
0.96,-0.002403851132839918,0.002380925929173827,-1.5192848443984985,1.7990853786468506,-0.2768896520137787
0.965,0.0036879933904856443,-0.013584432192146778,-1.5195198059082031,1.8030112981796265,-0.2829491198062897
0.97,-0.003262333106249571,-0.008083110675215721,-1.519364595413208,1.804714322090149,-0.28260335326194763
0.975,-0.008150853216648102,0.004067208152264357,-1.519309401512146,1.8084408044815063,-0.28861621022224426
0.98,-0.0024223648943006992,0.002474233042448759,-1.5191450119018555,1.8103845119476318,-0.28829556703567505
0.985,0.003763142041862011,-0.013773782178759575,-1.5193004608154297,1.8142623901367188,-0.2944414019584656
0.99,-0.0032386016100645065,-0.008227640762925148,-1.5190811157226562,1.8159468173980713,-0.2940913438796997
0.995,-0.008210944011807442,0.004158125724643469,-1.5189409255981445,1.8196232318878174,-0.30018946528434753
1.0,-0.0024404602590948343,0.002565596718341112,-1.5187112092971802,1.821550965309143,-0.2998639941215515
1.0050000000000001,0.0038418967742472887,-0.013964070938527584,-1.5187846422195435,1.8253775835037231,-0.30609527230262756
1.01,-0.0032132910564541817,-0.008370744064450264,-1.518498182296753,1.827039361000061,-0.30574095249176025
1.0150000000000001,-0.008271059021353722,0.004248067270964384,-1.5182709693908691,1.8306660652160645,-0.311922550201416
1.02,-0.0024582832120358944,0.0026551601476967335,-1.5179741382598877,1.8325772285461426,-0.311592698097229
1.025,0.0039236098527908325,-0.014154549688100815,-1.517964482307434,1.8363491296768188,-0.3179077208042145
1.03,-0.00318716187030077,-0.00851270742714405,-1.5176115036010742,1.8379874229431152,-0.3175486922264099
1.035,-0.008331958204507828,0.004336406476795673,-1.517297387123108,1.8415608406066895,-0.32381194829940796
1.04,-0.00247591407969594,0.002742310520261526,-1.5169328451156616,1.8434512615203857,-0.3234778344631195
1.045,0.004009017255157232,-0.014345255680382252,-1.5168384313583374,1.8471665382385254,-0.3298740088939667
1.05,-0.003159425687044859,-0.008652794174849987,-1.5164165496826172,1.8487805128097534,-0.32951146364212036
1.055,-0.008393045514822006,0.004423227161169052,-1.5160127878189087,1.8522981405258179,-0.3358544409275055
1.06,-0.00249323807656765,0.0028267204761505127,-1.5155787467956543,1.8541676998138428,-0.3355156481266022
1.065,0.00409792922437191,-0.014536064118146896,-1.5153988599777222,1.8578238487243652,-0.34199246764183044
1.07,-0.0031305174343287945,-0.008790861815214157,-1.514907717704773,1.859410285949707,-0.34162530303001404
1.075,-0.008454740047454834,0.004508768208324909,-1.5144140720367432,1.8628697395324707,-0.34804588556289673
1.08,-0.002510196529328823,0.0029087229631841183,-1.513910174369812,1.8647172451019287,-0.3477032482624054
1.085,0.0041908747516572475,-0.01472631935030222,-1.5136436223983765,1.8683116436004639,-0.3542575240135193
1.09,-0.0031001102179288864,-0.008926600217819214,-1.5130815505981445,1.8698683977127075,-0.35388630628585815
1.095,-0.008517298847436905,0.004592458717525005,-1.5124962329864502,1.8732678890228271,-0.36038288474082947
1.1,-0.0025273789651691914,0.002987728687003255,-1.5119202136993408,1.87509024143219,-0.36003577709198
1.105,0.004287749528884888,-0.014916114509105682,-1.5115652084350586,1.8786205053329468,-0.3666657507419586
1.11,-0.0030678980983793736,-0.009059902280569077,-1.5109320878982544,1.8801469802856445,-0.3662903606891632
1.115,-0.008580152876675129,0.0046742451377213,-1.5102548599243164,1.8834830522537231,-0.3728601336479187
1.12,-0.0025440966710448265,0.003063407028093934,-1.509606957435608,1.8852792978286743,-0.37250909209251404
1.125,0.004388667643070221,-0.01510491780936718,-1.5091633796691895,1.8887431621551514,-0.37921205163002014
1.1300000000000001,-0.0030343574471771717,-0.009190401993691921,-1.5084577798843384,1.8902370929718018,-0.37883302569389343
1.135,-0.008644144982099533,0.004754117224365473,-1.507686734199524,1.8935068845748901,-0.3854732811450958
1.1400000000000001,-0.0025610849261283875,0.0031360494904220104,-1.5069650411605835,1.8952752351760864,-0.38511812686920166
1.145,0.004494169261306524,-0.015292573720216751,-1.5064316987991333,1.8986709117889404,-0.39189180731773376
1.1500000000000001,-0.002998559270054102,-0.009317929856479168,-1.5056531429290771,1.9001306295394897,-0.3915084898471832
1.155,-0.008708333596587181,0.004831471014767885,-1.5047882795333862,1.9033317565917969,-0.3982168436050415
1.16,-0.002577583771198988,0.0032047720160335302,-1.503993034362793,1.905070424079895,-0.3978583812713623
1.165,0.004603746812790632,-0.015478160232305527,-1.5033692121505737,1.908394694328308,-0.4046996533870697
1.17,-0.0029615508392453194,-0.009442116133868694,-1.5025169849395752,1.9098186492919922,-0.4043130576610565
1.175,-0.008773968555033207,0.004906177520751953,-1.5015571117401123,1.9129494428634644,-0.4110861122608185
1.18,-0.0025945515371859074,0.0032696204725652933,-1.5006864070892334,1.914656400680542,-0.4107235074043274
1.185,0.0047180019319057465,-0.015662044286727905,-1.4999713897705078,1.917906641960144,-0.41762983798980713
1.19,-0.0029222946614027023,-0.009562693536281586,-1.4990451335906982,1.9192934036254883,-0.41723957657814026
1.195,-0.008839982561767101,0.004978520330041647,-1.497990608215332,1.9223511219024658,-0.42407429218292236
1.2,-0.002611040137708187,0.0033308491110801697,-1.4970455169677734,1.9240257740020752,-0.4237082898616791
1.205,0.004837204702198505,-0.015843264758586884,-1.4962396621704102,1.927199363708496,-0.43067604303359985
1.21,-0.0028810622170567513,-0.009679724462330341,-1.4952389001846313,1.9285463094711304,-0.4302819073200226
1.215,-0.008907253853976727,0.005047702230513096,-1.4940884113311768,1.9315288066864014,-0.43717554211616516
1.22,-0.002628212794661522,0.0033879431430250406,-1.493066430091858,1.9331691265106201,-0.4368058741092682
1.225,0.004960899706929922,-0.01602175086736679,-1.4921677112579346,1.9362635612487793,-0.4438316524028778
1.23,-0.002837826032191515,-0.00979288574308157,-1.4910919666290283,1.9375699758529663,-0.4434342682361603
1.235,-0.00897530373185873,0.005113684106618166,-1.4898457527160645,1.9404747486114502,-0.45038262009620667
1.24,-0.0026450809091329575,0.003440845524892211,-1.48874831199646,1.9420790672302246,-0.45001035928726196
1.245,0.005089751444756985,-0.01619640737771988,-1.487757921218872,1.945092797279358,-0.45709049701690674
1.25,-0.002792246639728546,-0.009901877492666245,-1.4866070747375488,1.9463560581207275,-0.4566894471645355
1.2550000000000001,-0.009044359438121319,0.0051762815564870834,-1.485264778137207,1.9491801261901855,-0.4636891484260559
1.26,-0.0026623159646987915,0.003489291062578559,-1.4840911626815796,1.9507477283477783,-0.463313490152359
1.2650000000000001,0.005223508458584547,-0.01636766828596592,-1.483008861541748,1.9536782503128052,-0.470443993806839
1.27,-0.002744540572166443,-0.010006631724536419,-1.481783151626587,1.9548966884613037,-0.4700399935245514
1.2750000000000001,-0.009114489890635014,0.005235344171524048,-1.4803444147109985,1.9576369524002075,-0.4770866632461548
1.28,-0.0026798860635608435,0.003533576615154743,-1.4790940284729004,1.9591665267944336,-0.4767080843448639
1.285,0.00536214467138052,-0.01653415895998478,-1.477919340133667,1.962011456489563,-0.48388516902923584
1.29,-0.0026945327408611774,-0.010107064619660378,-1.4766188859939575,1.9631848335266113,-0.48347821831703186
1.295,-0.00918537750840187,0.005290040746331215,-1.4750852584838867,1.9658405780792236,-0.49056747555732727
1.3,-0.0026974650099873543,0.0035731964744627476,-1.4737591743469238,1.9673292636871338,-0.49018627405166626
1.305,0.005506007466465235,-0.016695909202098846,-1.4724928140640259,1.9700855016708374,-0.4974048435688019
1.31,-0.002642069011926651,-0.010203178972005844,-1.4711178541183472,1.9712119102478027,-0.4969950020313263
1.315,-0.009257441386580467,0.005340834613889456,-1.4694888591766357,1.9737803936004639,-0.504122793674469
1.32,-0.0027155373245477676,0.0036085753235965967,-1.4680861234664917,1.9752273559570312,-0.5037394762039185
1.325,0.0056549846194684505,-0.016852278262376785,-1.4667285680770874,1.9778939485549927,-0.5109949111938477
1.33,-0.0025873109698295593,-0.01029446441680193,-1.4652796983718872,1.9789719581604004,-0.5105827450752258
1.335,-0.0093306303024292,0.005387230776250362,-1.463556170463562,1.9814504384994507,-0.5177439451217651
1.34,-0.0027339195366948843,0.003639103379100561,-1.4620780944824219,1.982855200767517,-0.5173584222793579
1.345,0.00580903934314847,-0.01700291782617569,-1.4606298208236694,1.9854286909103394,-0.5246462821960449
1.35,-0.0025299335829913616,-0.010381338186562061,-1.4591071605682373,1.9864565134048462,-0.5242316126823425
1.355,-0.00940463412553072,0.005428910721093416,-1.4572898149490356,1.9888441562652588,-0.5314215421676636
1.36,-0.002752643311396241,0.0036654609721153975,-1.4557369947433472,1.9902050495147705,-0.5310331583023071
1.365,0.005968194454908371,-0.01714697666466236,-1.4541995525360107,1.9926837682724,-0.5383486151695251
1.37,-0.0024699405767023563,-0.010463705286383629,-1.4526052474975586,1.9936610460281372,-0.5379318594932556
1.375,-0.009479540400207043,0.005465379916131496,-1.4506953954696655,1.995953917503357,-0.5451440215110779
1.3800000000000001,-0.0027719284407794476,0.0036871791817247868,-1.4490677118301392,1.997268795967102,-0.5447549223899841
1.385,0.006132134702056646,-0.017284097149968147,-1.4474403858184814,1.9996509552001953,-0.5520918369293213
1.3900000000000001,-0.002407550346106291,-0.010541174560785294,-1.4457732439041138,2.000576972961426,-0.5516731142997742
1.395,-0.009555435739457607,0.005496945232152939,-1.443771481513977,2.0027737617492676,-0.5589030981063843
1.4000000000000001,-0.002791557228192687,0.0037046747747808695,-1.4420706033706665,2.004041910171509,-0.5585124492645264
1.405,0.006301139947026968,-0.017413634806871414,-1.4403570890426636,2.0063257217407227,-0.5658647418022156
1.41,-0.002342450898140669,-0.010614030063152313,-1.4386205673217773,2.0071983337402344,-0.565444827079773
1.415,-0.009632191620767117,0.005522896535694599,-1.4365293979644775,2.0092973709106445,-0.5726863145828247
1.42,-0.002811822574585676,0.0037175691686570644,-1.434755563735962,2.0105175971984863,-0.5722950100898743
1.425,0.006474544294178486,-0.01753508858382702,-1.432955026626587,2.0127007961273193,-0.5796568989753723
1.43,-0.0022748508490622044,-0.01068214513361454,-1.431148648262024,2.0135200023651123,-0.579235315322876
1.435,-0.009709649719297886,0.005543375387787819,-1.4289690256118774,2.015519142150879,-0.586483359336853
1.44,-0.002832404337823391,0.003726350609213114,-1.4271248579025269,2.016690731048584,-0.586090624332428
1.445,0.006652805022895336,-0.017648128792643547,-1.4252406358718872,2.018771171569824,-0.5934568047523499
1.45,-0.0022045692894607782,-0.010745611041784286,-1.423366665840149,2.0195350646972656,-0.593034565448761
1.455,-0.009787826798856258,0.005557832308113575,-1.4211004972457886,2.0214335918426514,-0.6002812385559082
1.46,-0.002853695536032319,0.0037309026811271906,-1.419185757637024,2.022555351257324,-0.5998888611793518
1.465,0.006835305597633123,-0.01775217056274414,-1.4172183275222778,2.0245308876037598,-0.607252299785614
1.47,-0.002131581772118807,-0.010804612189531326,-1.4152785539627075,2.025239944458008,-0.6068296432495117
1.475,-0.009866459295153618,0.0055662281811237335,-1.4129281044006348,2.0270347595214844,-0.6140686273574829
1.48,-0.002875428181141615,0.003731450065970421,-1.4109455347061157,2.0281054973602295,-0.6136763095855713
1.485,0.007021901197731495,-0.01784662716090679,-1.4088979959487915,2.029975652694702,-0.6210304498672485
1.49,-0.0020559956319630146,-0.010859120637178421,-1.4068938493728638,2.030627965927124,-0.6206075549125671
1.495,-0.009945588186383247,0.005568362772464752,-1.4044607877731323,2.032317638397217,-0.6278333067893982
1.5,-0.0028978765476495028,0.003728110808879137,-1.4024114608764648,2.033336639404297,-0.6274410486221313
1.5050000000000001,0.0072122844867408276,-0.017931178212165833,-1.4002856016159058,2.035100221633911,-0.6347794532775879
1.51,-0.0019778322894126177,-0.0109091280028224,-1.3982197046279907,2.0356967449188232,-0.6343564391136169
1.5150000000000001,-0.010024992749094963,0.005564090795814991,-1.395707368850708,2.0372800827026367,-0.6415616869926453
1.52,-0.0029207863844931126,0.003721104469150305,-1.393593668937683,2.03824520111084,-0.6411703824996948
1.5250000000000001,0.007406296674162149,-0.018005214631557465,-1.3913918733596802,2.039900541305542,-0.6484848260879517
1.53,-0.001896949834190309,-0.010954752564430237,-1.3892654180526733,2.0404396057128906,-0.6480621695518494
1.5350000000000001,-0.010104605928063393,0.005553338676691055,-1.3866761922836304,2.0419156551361084,-0.6552403569221497
1.54,-0.002944508334621787,0.0037102987989783287,-1.3845000267028809,2.0428285598754883,-0.6548503637313843
1.545,0.007603355683386326,-0.01806897483766079,-1.3822253942489624,2.0443742275238037,-0.6621348857879639
1.55,-0.0018135099671781063,-0.010996438562870026,-1.380041241645813,2.0448548793792725,-0.6617133617401123
1.555,-0.0101840291172266,0.00553597416728735,-1.3773777484893799,2.0462212562561035,-0.6688558459281921
1.56,-0.0029684510082006454,0.003696185303851962,-1.3751416206359863,2.0470802783966064,-0.6684677004814148
1.565,0.0078033991158008575,-0.018121229484677315,-1.3727962970733643,2.048515558242798,-0.6757148504257202
1.57,-0.001727707334794104,-0.011033612303435802,-1.3705565929412842,2.048938035964966,-0.6752941608428955
1.575,-0.010263601318001747,0.005511862225830555,-1.3678221702575684,2.0501952171325684,-0.6823951005935669
1.58,-0.0029933357145637274,0.0036785979755222797,-1.3655283451080322,2.050999641418457,-0.6820088624954224
1.585,0.0080057168379426,-0.018162546679377556,-1.363115668296814,2.0523223876953125,-0.6892110109329224
1.59,-0.0016394553240388632,-0.011067066341638565,-1.3608232736587524,2.0526864528656006,-0.6887922883033752
1.595,-0.010342775844037533,0.005480984691530466,-1.3580214977264404,2.0538330078125,-0.6958433389663696
1.6,-0.003018885850906372,0.0036582888569682837,-1.355672836303711,2.054582357406616,-0.6954597234725952
1.605,0.008209967985749245,-0.018191833049058914,-1.3531956672668457,2.0557920932769775,-0.7026092410087585
1.61,-0.0015486376360058784,-0.01109660416841507,-1.3508529663085938,2.056098461151123,-0.7021928429603577
1.615,-0.010421261191368103,0.00544328335672617,-1.3479868173599243,2.0571343898773193,-0.7091870903968811
1.62,-0.003044829238206148,0.0036348735447973013,-1.3455853462219238,2.0578277111053467,-0.7088063359260559
1.625,0.008415943011641502,-0.018209408968687057,-1.3430474996566772,2.058924913406372,-0.7158957123756409
1.6300000000000001,-0.001455433201044798,-0.011122339405119419,-1.3406574726104736,2.0591719150543213,-0.7154821753501892
1.635,-0.010499004274606705,0.005398783832788467,-1.3377307653427124,2.0600948333740234,-0.7224122285842896
1.6400000000000001,-0.003071598242968321,0.00360889732837677,-1.3352806568145752,2.0607333183288574,-0.7220340371131897
1.645,0.008622704073786736,-0.018214916810393333,-1.3326857089996338,2.0617177486419678,-0.7290566563606262
1.6500000000000001,-0.0013599777594208717,-0.011144649237394333,-1.3302513360977173,2.061906099319458,-0.7286456227302551
1.655,-0.01057560183107853,0.005347214639186859,-1.3272675275802612,2.0627167224884033,-0.7355038523674011
1.6600000000000001,-0.00309885386377573,0.0035803699865937233,-1.3247706890106201,2.063298225402832,-0.735129714012146
1.665,0.008830142207443714,-0.01820814050734043,-1.322121262550354,2.0641682147979736,-0.7420768141746521
1.67,-0.0012621679343283176,-0.011163320392370224,-1.3196455240249634,2.064298152923584,-0.7416685819625854
1.675,-0.010651091113686562,0.005289135500788689,-1.3166089057922363,2.0649971961975098,-0.7484477758407593
1.68,-0.003126754192635417,0.0035494223702698946,-1.3140689134597778,2.0655229091644287,-0.7480781078338623
1.685,0.00903741642832756,-0.018189338967204094,-1.3113691806793213,2.066277503967285,-0.7549427151679993
1.69,-0.0011624335311353207,-0.011178923770785332,-1.3088551759719849,2.066349983215332,-0.7545388340950012
1.695,-0.010725205764174461,0.005224232561886311,-1.3057689666748047,2.0669360160827637,-0.7612308859825134
1.7,-0.0031553120352327824,0.0035166877787560225,-1.3031890392303467,2.0674049854278564,-0.7608654499053955
1.705,0.009244372136890888,-0.01815791055560112,-1.3004440069198608,2.068047046661377,-0.767639696598053
1.71,-0.0010603403206914663,-0.011191037483513355,-1.297895073890686,2.0680603981018066,-0.7672401070594788
1.715,-0.010797481052577496,0.005152914673089981,-1.2947640419006348,2.068533420562744,-0.773837685585022
1.72,-0.0031844782643020153,0.003481798805296421,-1.2921470403671265,2.0689473152160645,-0.7734777331352234
1.725,0.009450025856494904,-0.01811448484659195,-1.2893588542938232,2.0694756507873535,-0.7801546454429626
1.73,-0.0009566373191773891,-0.01120019145309925,-1.2867779731750488,2.0694313049316406,-0.7797595262527466
1.735,-0.010868048295378685,0.005074868910014629,-1.2836064100265503,2.069791793823242,-0.7862561345100403
1.74,-0.0032142663840204477,0.003445068607106805,-1.2809566259384155,2.0701491832733154,-0.7859011292457581
1.745,0.009654060937464237,-0.01805860921740532,-1.278130292892456,2.070563554763794,-0.792473316192627
1.75,-0.000850653275847435,-0.011206408962607384,-1.275521159172058,2.070462703704834,-0.7920832633972168
1.7550000000000001,-0.010935923084616661,0.0049905297346413136,-1.2723126411437988,2.070711612701416,-0.7984712719917297
1.76,-0.0032444754615426064,0.003407033160328865,-1.26963210105896,2.0710113048553467,-0.7981221079826355
1.7650000000000001,0.009855667129158974,-0.017990633845329285,-1.2668557167053223,2.0712637901306152,-0.8000000715255737
1.77,-0.0007535857148468494,-0.011206838302314281,-1.2639713287353516,2.071110725402832,-0.8000000715255737
1.7750000000000001,-0.011040395125746727,0.004898924846202135,-1.260445475578308,2.071105718612671,-0.8000002503395081
1.78,-0.003310374915599823,0.0033661893103271723,-1.2571152448654175,2.071396827697754,-0.8000002503395081
1.7850000000000001,0.01009378582239151,-0.017904799431562424,-1.2537188529968262,2.071462392807007,-0.8000004291534424
1.79,-0.0006254531908780336,-0.01120157539844513,-1.250441312789917,2.071286678314209,-0.8000004291534424
1.795,-0.011199446395039558,0.0048178816214203835,-1.246840238571167,2.071162462234497,-0.8000006079673767
1.8,-0.003422829322516918,0.0033204664941877127,-1.2437275648117065,2.0713603496551514,-0.8000006079673767
1.805,0.010332762263715267,-0.017830459401011467,-1.240651249885559,2.0712783336639404,-0.800000786781311
1.81,-0.0004881136119365692,-0.011201960034668446,-1.2376245260238647,2.071014642715454,-0.800000786781311
1.815,-0.011332162655889988,0.004749995190650225,-1.2340763807296753,2.070782423019409,-0.8000009655952454
1.82,-0.003516628872603178,0.0032879707869142294,-1.2308430671691895,2.0709431171417236,-0.8000009655952454
1.825,0.010563906282186508,-0.017739631235599518,-1.2275522947311401,2.0707876682281494,-0.8000010848045349
1.83,-0.0003551775589585304,-0.011200583539903164,-1.2243492603302002,2.0704874992370605,-0.8000010848045349
1.835,-0.011476511135697365,0.004662259481847286,-1.2207212448120117,2.070152997970581,-0.8000012636184692
1.84,-0.0036203775089234114,0.0032453483436256647,-1.2175313234329224,2.0702474117279053,-0.8000012636184692
1.845,0.010795529931783676,-0.01763671450316906,-1.2143455743789673,2.069974184036255,-0.8000014424324036
1.85,-0.00021583563648164272,-0.011195422150194645,-1.2112537622451782,2.0696046352386475,-0.8000014424324036
1.855,-0.01160662341862917,0.00457342341542244,-1.2076716423034668,2.0691606998443604,-0.8000015616416931
1.86,-0.003717891639098525,0.003204879816621542,-1.2044639587402344,2.069202184677124,-0.8000015616416931
1.865,0.011015612632036209,-0.017521532252430916,-1.2012076377868652,2.0688388347625732,-0.8000017404556274
1.87,-7.925904355943203e-05,-0.011188703589141369,-1.1980489492416382,2.0684237480163574,-0.8000017404556274
1.875,-0.011735967360436916,0.004472375847399235,-1.1944231986999512,2.0678818225860596,-0.8000019192695618
1.8800000000000001,-0.0038170129992067814,0.003160321619361639,-1.1912214756011963,2.0678648948669434,-0.8000019192695618
1.885,0.011232665739953518,-0.017393311485648155,-1.1879991292953491,2.0673959255218506,-0.8000020384788513
1.8900000000000001,6.000208668410778e-05,-0.011178688146173954,-1.1848918199539185,2.066920518875122,-0.8000020384788513
1.895,-0.011857004836201668,0.004365733824670315,-1.1812968254089355,2.066274642944336,-0.8000022172927856
1.9000000000000001,-0.003913762513548136,0.003114760387688875,-1.1781058311462402,2.0662014484405518,-0.8000022172927856
1.905,0.011439534835517406,-0.017253829166293144,-1.1748679876327515,2.065638780593872,-0.8000023365020752
1.9100000000000001,0.00019866623915731907,-0.011166109703481197,-1.1717455387115479,2.0651133060455322,-0.8000023365020752
1.915,-0.011972084641456604,0.0042507825419306755,-1.168136715888977,2.06437087059021,-0.8000025153160095
1.92,-0.004009046126157045,0.00306710135191679,-1.1649519205093384,2.0642426013946533,-0.8000025153160095
1.925,0.011640197597444057,-0.01710258051753044,-1.161730170249939,2.0635826587677,-0.8000026345252991
1.93,0.00033780327066779137,-0.011150996200740337,-1.1586377620697021,2.063001871109009,-0.8000026345252991
1.935,-0.012080545537173748,0.004129108507186174,-1.1550524234771729,2.062159776687622,-0.8000028133392334
1.94,-0.00410297280177474,0.0030175577849149704,-1.151888132095337,2.061976432800293,-0.8000028133392334
1.945,0.01183081604540348,-0.016940994188189507,-1.1486738920211792,2.061223030090332,-0.8000028729438782
1.95,0.0004765009507536888,-0.011132953688502312,-1.1455910205841064,2.0605921745300293,-0.800002932548523
1.955,-0.012181328609585762,0.0040009841322898865,-1.1420124769210815,2.0596559047698975,-0.8000029921531677
1.96,-0.004194729030132294,0.0029668074566870928,-1.1388630867004395,2.0594184398651123,-0.8000030517578125
1.965,0.012013101018965244,-0.016768837347626686,-1.135665774345398,2.05857253074646,-0.800003170967102
1.97,0.0006150500848889351,-0.011112533509731293,-1.1326099634170532,2.0578908920288086,-0.800003170967102
1.975,-0.012274748645722866,0.003866461105644703,-1.1290563344955444,2.0568606853485107,-0.8000033497810364
1.98,-0.004284849390387535,0.002914251759648323,-1.1259325742721558,2.0565688610076904,-0.8000033497810364
1.985,0.012185127474367619,-0.016587689518928528,-1.1227538585662842,2.0556328296661377,-0.8000034093856812
1.99,0.0007526001427322626,-0.011089351028203964,-1.1197201013565063,2.0549025535583496,-0.8000034689903259
1.995,-0.012360233813524246,0.0037266698200255632,-1.116186499595642,2.053781509399414,-0.8000035881996155
2.0,-0.0043722400441765785,0.002860561478883028,-1.1130867004394531,2.0534369945526123,-0.8000035881996155
2.005,0.012347725220024586,-0.01639741286635399,-1.109930396080017,2.052412986755371,-0.8000036478042603
2.0100000000000002,0.0008892386686056852,-0.011063451878726482,-1.1069263219833374,2.0516347885131836,-0.800003707408905
2.015,-0.01243781391531229,0.0035814589355140924,-1.1034220457077026,2.0504252910614014,-0.8000038266181946
2.02,-0.004457744304090738,0.0028053568676114082,-1.1003538370132446,2.0500292778015137,-0.8000038266181946
2.025,0.012499366886913776,-0.016199171543121338,-1.0972248315811157,2.048919200897217,-0.8000038862228394
2.0300000000000002,0.0010243351571261883,-0.011034823022782803,-1.094251036643982,2.0480940341949463,-0.8000039458274841
2.035,-0.012506850063800812,0.0034317788667976856,-1.0907758474349976,2.046797037124634,-0.8000040054321289
2.04,-0.0045399172231554985,0.002748881932348013,-1.0877386331558228,2.0463504791259766,-0.8000040650367737
2.045,0.012640943750739098,-0.01599341817200184,-1.0846385955810547,2.0451574325561523,-0.8000041246414185
2.05,0.0011579631827771664,-0.01100335456430912,-1.0816988945007324,2.0442862510681152,-0.8000041842460632
2.055,-0.012567468918859959,0.0032777972519397736,-1.0782595872879028,2.042905330657959,-0.800004243850708
2.06,-0.00461965799331665,0.0026909909211099148,-1.0752599239349365,2.042409658432007,-0.8000043034553528
2.065,0.012771204113960266,-0.015781287103891373,-1.0721933841705322,2.0411345958709717,-0.8000043630599976
2.07,0.001289320643991232,-0.01096929982304573,-1.0692903995513916,2.040220022201538,-0.8000043630599976
2.075,-0.012619641609489918,0.0031203534454107285,-1.0658880472183228,2.0387580394744873,-0.8000044822692871
2.08,-0.004696050193160772,0.0026321138720959425,-1.062926173210144,2.0382139682769775,-0.8000044822692871
2.085,0.012890893965959549,-0.015563023276627064,-1.0598949193954468,2.036860704421997,-0.8000045418739319
2.09,0.001418519765138626,-0.010932136327028275,-1.057030439376831,2.035902738571167,-0.8000046014785767
2.095,-0.012663009576499462,0.0029599720146507025,-1.0536690950393677,2.034360408782959,-0.8000046610832214
2.1,-0.004769202321767807,0.0025721495039761066,-1.05074942111969,2.0337703227996826,-0.8000047206878662
2.105,0.012999376282095909,-0.015339772216975689,-1.047757625579834,2.0323407649993896,-0.800004780292511
2.11,0.0015450154896825552,-0.010892609134316444,-1.0449349880218506,2.031342029571533,-0.800004780292511
2.115,-0.012697769328951836,0.002796579385176301,-1.041617751121521,2.0297229290008545,-0.8000048398971558
2.12,-0.004838971886783838,0.002510915044695139,-1.0387413501739502,2.0290873050689697,-0.8000048995018005
2.125,0.013096661306917667,-0.01511189341545105,-1.0357903242111206,2.0275843143463135,-0.8000049591064453
2.13,0.0016685817390680313,-0.010849911719560623,-1.0330109596252441,2.0265448093414307,-0.8000049591064453
2.1350000000000002,-0.012723729014396667,0.0026314619462937117,-1.0297398567199707,2.0248517990112305,-0.8000050187110901
2.14,-0.004904927685856819,0.0024487567134201527,-1.026910662651062,2.0241734981536865,-0.8000050187110901
2.145,0.01318283285945654,-0.014880343340337276,-1.0240037441253662,2.0225980281829834,-0.8000051975250244
2.15,0.0017887232825160027,-0.010804496705532074,-1.0212700366973877,2.0215206146240234,-0.8000051975250244
2.1550000000000002,-0.012741020880639553,0.002464643679559231,-1.0180484056472778,2.0197572708129883,-0.8000051975250244
2.16,-0.004966945853084326,0.002385586965829134,-1.0152677297592163,2.0190353393554688,-0.8000052571296692
2.165,0.013257846236228943,-0.014645637944340706,-1.0124069452285767,2.0173912048339844,-0.800005316734314
2.17,0.001905266661196947,-0.010756265372037888,-1.0097209215164185,2.016277551651001,-0.800005316734314
2.1750000000000003,-0.012749879620969296,0.002296892926096916,-1.0065503120422363,2.0144448280334473,-0.800005316734314
2.18,-0.005025121383368969,0.0023216456174850464,-1.0038199424743652,2.0136823654174805,-0.8000053763389587
2.185,0.013321980834007263,-0.014408789575099945,-1.0010069608688354,2.0119717121124268,-0.8000054359436035
2.19,0.002018021186813712,-0.010705588385462761,-0.9983705282211304,2.0108234882354736,-0.8000054359436035
2.195,-0.01275030430406332,0.0021284250542521477,-0.9952539801597595,2.008924961090088,-0.8000055551528931
2.2,-0.005079010501503944,0.0022567922715097666,-0.9925767779350281,2.008122444152832,-0.8000055551528931
2.205,0.013375316746532917,-0.014170020818710327,-0.9898143410682678,2.0063490867614746,-0.8000056147575378
2.21,0.0021265563555061817,-0.010651742108166218,-0.9872288107872009,2.005166530609131,-0.8000056147575378
2.215,-0.012742278166115284,0.0019600114319473505,-0.9841676950454712,2.0032057762145996,-0.8000056743621826
2.22,-0.005128444638103247,0.0021910942159593105,-0.9815443754196167,2.0023646354675293,-0.8000056743621826
2.225,0.013417930342257023,-0.01393046323210001,-0.9788332581520081,2.0005292892456055,-0.8000057339668274
2.23,0.002230536425486207,-0.01059566531330347,-0.9763002991676331,1.9993162155151367,-0.8000057339668274
2.235,-0.012726482935249805,0.001791941816918552,-0.9732962846755981,1.997294306755066,-0.8000057935714722
2.24,-0.005173510871827602,0.0021248217672109604,-0.9707293510437012,1.9964174032211304,-0.8000057935714722
2.245,0.013450277037918568,-0.01369040459394455,-0.9680724740028381,1.9945242404937744,-0.8000058531761169
2.25,0.002330007264390588,-0.010536904446780682,-0.9655940532684326,1.993281364440918,-0.8000058531761169
2.255,-0.012702563777565956,0.0016245702281594276,-0.9626492857933044,1.991201400756836,-0.8000059127807617
2.2600000000000002,-0.005214022938162088,0.00205788342282176,-0.9601394534111023,1.9902889728546143,-0.8000059127807617
2.265,0.013472337275743484,-0.013450541533529758,-0.9575368762016296,1.9883402585983276,-0.8000059723854065
2.27,0.0024245453532785177,-0.010475636459887028,-0.9551132321357727,1.9870686531066895,-0.8000059723854065
2.275,-0.012670956552028656,0.0014584832824766636,-0.9522285461425781,1.9849334955215454,-0.8000060319900513
2.2800000000000002,-0.0052495491690933704,0.0019903189968317747,-0.9497774839401245,1.983988642692566,-0.8000060319900513
2.285,0.013484615832567215,-0.013211483135819435,-0.9472313523292542,1.9819865226745605,-0.800006091594696
2.29,0.0025137101765722036,-0.010412013158202171,-0.9448646903038025,1.9806878566741943,-0.800006091594696
2.295,-0.012632149271667004,0.0012939323205500841,-0.9420422315597534,1.978500485420227,-0.8000061511993408
2.3000000000000003,-0.005280273966491222,0.0019223488634452224,-0.9396517872810364,1.9775248765945435,-0.8000061511993408
2.305,0.013487515971064568,-0.012973632663488388,-0.9371631741523743,1.975472331047058,-0.8000062108039856
2.31,0.002597825601696968,-0.010346063412725925,-0.9348534345626831,1.9741476774215698,-0.8000062108039856
2.315,-0.012586207129061222,0.0011313885916024446,-0.9320931434631348,1.9719105958938599,-0.8000062704086304
2.32,-0.005306284874677658,0.0018539573065936565,-0.9297629594802856,1.9709053039550781,-0.8000062704086304
2.325,0.01348102930933237,-0.012737697921693325,-0.9273325204849243,1.968805193901062,-0.8000063300132751
2.33,0.0026762124616652727,-0.010278145782649517,-0.9250816702842712,1.967457890510559,-0.8000063300132751
2.335,-0.012533528730273247,0.0009709157748147845,-0.9223857522010803,1.9651737213134766,-0.8000063300132751
2.34,-0.005327207967638969,0.00178519485052675,-0.9201179146766663,1.9641388654708862,-0.8000063896179199
2.345,0.01346582267433405,-0.012503884732723236,-0.9177469611167908,1.9619935750961304,-0.8000063896179199
2.35,0.0027491615619510412,-0.010207940824329853,-0.9155554175376892,1.9606244564056396,-0.8000063300132751
2.355,-0.012474349699914455,0.0008134763338603079,-0.9129237532615662,1.9582955837249756,-0.8000064492225647
2.36,-0.0053431205451488495,0.0017164773307740688,-0.9107181429862976,1.957234501838684,-0.8000065088272095
2.365,0.013442457653582096,-0.01227295957505703,-0.9084073305130005,1.9550468921661377,-0.8000065684318542
2.37,0.0028163623064756393,-0.010136138647794724,-0.9062758684158325,1.9536573886871338,-0.8000065088272095
2.375,-0.012409341521561146,0.0006587284151464701,-0.903709888458252,1.9512871503829956,-0.8000065088272095
2.38,-0.005354263354092836,0.0016475861193612218,-0.9015677571296692,1.9502006769180298,-0.8000065684318542
2.3850000000000002,0.013410937041044235,-0.012045038864016533,-0.8993178606033325,1.9479721784591675,-0.8000065684318542
2.39,0.0028778593987226486,-0.010062425397336483,-0.897247314453125,1.9465643167495728,-0.8000065684318542
2.395,-0.012338290922343731,0.0005073154461570084,-0.8947477340698242,1.9441556930541992,-0.8000065088272095
2.4,-0.005360190290957689,0.0015787695301696658,-0.8926695585250854,1.9430454969406128,-0.8000065684318542
2.4050000000000002,0.013371874578297138,-0.011820608749985695,-0.8904804587364197,1.9407787322998047,-0.8000065684318542
2.41,0.0029333203565329313,-0.009987232275307178,-0.8884708285331726,1.9393543004989624,-0.8000065684318542
2.415,-0.012262124568223953,0.00035921926610171795,-0.8860374093055725,1.9369086027145386,-0.8000066876411438
2.42,-0.005361272022128105,0.0015100095188245177,-0.8840237259864807,1.9357765913009644,-0.800006628036499
2.4250000000000003,0.013325662352144718,-0.011599958874285221,-0.8818968534469604,1.9334747791290283,-0.8000066876411438
2.43,0.002983052982017398,-0.009910617023706436,-0.8799494504928589,1.9320346117019653,-0.800006628036499
2.435,-0.012180815450847149,0.00021477992413565516,-0.8775831460952759,1.92955482006073,-0.800006628036499
2.44,-0.005357505287975073,0.0014415036421269178,-0.8756342530250549,1.9284026622772217,-0.800006628036499
2.445,0.013272804208099842,-0.01138351671397686,-0.873569667339325,1.9260684251785278,-0.8000066876411438
2.45,0.0030268996488302946,-0.009832721203565598,-0.8716843128204346,1.9246138334274292,-0.8000066876411438
2.455,-0.012095062993466854,7.439614273607731e-05,-0.8693850040435791,1.9221020936965942,-0.8000067472457886
2.46,-0.00534889567643404,0.0013734096428379416,-0.867501437664032,1.9209322929382324,-0.800006628036499
2.465,0.013213705271482468,-0.011171601712703705,-0.8654996156692505,1.9185680150985718,-0.800006628036499
2.47,0.003064708784222603,-0.009753931313753128,-0.8636764287948608,1.9170997142791748,-0.8000066876411438
2.475,-0.01200511958450079,-6.224395474418998e-05,-0.8614440560340881,1.914557933807373,-0.8000066876411438
2.48,-0.005335569381713867,0.001305693993344903,-0.8596256375312805,1.913371205329895,-0.8000066876411438
2.485,0.013148678466677666,-0.010963939130306244,-0.8576865196228027,1.91097891330719,-0.8000066876411438
2.49,0.003096973290666938,-0.009673927910625935,-0.855926513671875,1.9094997644424438,-0.8000066876411438
2.495,-0.011910942383110523,-0.0001946489792317152,-0.8537622094154358,1.9069311618804932,-0.800006628036499
2.5,-0.005317608825862408,0.0012384242145344615,-0.852009654045105,1.9057289361953735,-0.8000068068504333
2.505,0.013078141957521439,-0.010761568322777748,-0.8501336574554443,1.9033113718032837,-0.8000066876411438
2.5100000000000002,0.0031232512556016445,-0.009593506343662739,-0.8484362959861755,1.9018216133117676,-0.8000067472457886
2.515,-0.011813415214419365,-0.00032276223646476865,-0.8463391661643982,1.899227499961853,-0.8000066876411438
2.52,-0.005294930189847946,0.0011719922767952085,-0.8446520566940308,1.8980116844177246,-0.800006628036499
2.525,0.013002668507397175,-0.010563693009316921,-0.842838704586029,1.895570158958435,-0.8000067472457886
2.5300000000000002,0.0031439331360161304,-0.009512039832770824,-0.8412043452262878,1.8940720558166504,-0.8000067472457886
2.535,-0.011712661013007164,-0.00044641830027103424,-0.8391748666763306,1.8914564847946167,-0.8000067472457886
2.54,-0.005268136039376259,0.0011061771074309945,-0.8375534415245056,1.8902279138565063,-0.8000067472457886
2.545,0.01292235404253006,-0.010371377691626549,-0.8358036279678345,1.8877649307250977,-0.800006628036499
2.5500000000000003,0.0031588871497660875,-0.00943070463836193,-0.8342329859733582,1.8862600326538086,-0.8000066876411438
2.555,-0.011609137989580631,-0.0005660459282808006,-0.8322710394859314,1.8836228847503662,-0.8000066876411438
2.56,-0.0052370307967066765,0.0010411604307591915,-0.8307151198387146,1.8823827505111694,-0.8000066876411438
2.565,0.012837943620979786,-0.01018389780074358,-0.8290280103683472,1.87990140914917,-0.8000066876411438
2.57,0.0031686509028077126,-0.0093483692035079,-0.8275201320648193,1.8783907890319824,-0.8000066876411438
2.575,-0.011502813547849655,-0.0006805821321904659,-0.8256250619888306,1.8757350444793701,-0.800006628036499
2.58,-0.005201595835387707,0.000977190094999969,-0.8241345286369324,1.8744856119155884,-0.800006628036499
2.585,0.012749745510518551,-0.010002125054597855,-0.8225107192993164,1.8719877004623413,-0.8000066876411438
2.59,0.003172905882820487,-0.009266525506973267,-0.8210658431053162,1.8704712390899658,-0.800006628036499
2.595,-0.011394675821065903,-0.0007912524160929024,-0.8192378878593445,1.867798924446106,-0.800006628036499
2.6,-0.00516272708773613,0.0009138545719906688,-0.8178126215934753,1.8665417432785034,-0.8000065684318542
2.605,0.012657731771469116,-0.009825709275901318,-0.8162513971328735,1.8640282154083252,-0.800006628036499
2.61,0.0031721859704703093,-0.00918428786098957,-0.8148695826530457,1.8625085353851318,-0.8000065684318542
2.615,-0.011284067295491695,-0.0008968804031610489,-0.813108503818512,1.859822154045105,-0.8000065684318542
2.62,-0.005119584035128355,0.0008520452538505197,-0.8117485046386719,1.8585577011108398,-0.800006628036499
2.625,0.012562865391373634,-0.009654524736106396,-0.8102498054504395,1.8560303449630737,-0.8000065684318542
2.63,0.003166339360177517,-0.009102292358875275,-0.8089312314987183,1.8545094728469849,-0.8000065088272095
2.6350000000000002,-0.011172221042215824,-0.000998353585600853,-0.8072371482849121,1.8518115282058716,-0.8000064492225647
2.64,-0.005073293577879667,0.000790931168012321,-0.805941641330719,1.850540041923523,-0.8000064492225647
2.645,0.012464788742363453,-0.009489167481660843,-0.8045055270195007,1.8480027914047241,-0.8000065088272095
2.65,0.0031555930618196726,-0.009020688943564892,-0.8032492995262146,1.8464800119400024,-0.8000064492225647
2.6550000000000002,-0.011058825999498367,-0.0010953309247270226,-0.801620602607727,1.8437707424163818,-0.8000064492225647
2.66,-0.005023447796702385,0.0007311865338124335,-0.8003894686698914,1.842495083808899,-0.8000063896179199
2.665,0.012364382855594158,-0.009328965097665787,-0.7990157604217529,1.8399481773376465,-0.8000063896179199
2.67,0.0031403247267007828,-0.008939091116189957,-0.7978222966194153,1.8384246826171875,-0.8000063896179199
2.6750000000000003,-0.010944376699626446,-0.0011875513009727001,-0.7962599396705627,1.835707187652588,-0.8000063896179199
2.68,-0.004970412701368332,0.0006726283463649452,-0.7950931191444397,1.8344289064407349,-0.8000063300132751
2.685,0.012261719442903996,-0.009174540638923645,-0.7937809824943542,1.8318748474121094,-0.8000062704086304
2.69,0.0031205047853291035,-0.00885834265500307,-0.7926493287086487,1.8303519487380981,-0.8000062704086304
2.695,-0.010829289443790913,-0.0012755749048665166,-0.7911521196365356,1.8276267051696777,-0.8000062704086304
2.7,-0.004914599936455488,0.0006155041046440601,-0.7900494337081909,1.8263466358184814,-0.8000062704086304
2.705,0.012157294899225235,-0.009025298990309238,-0.7887992262840271,1.8237864971160889,-0.8000062704086304
2.71,0.003096767468377948,-0.008777919225394726,-0.7877296805381775,1.8222652673721313,-0.8000062108039856
2.715,-0.010713343508541584,-0.001359103131107986,-0.7862972617149353,1.8195343017578125,-0.8000061511993408
2.72,-0.004856023006141186,0.0005595864495262504,-0.7852573990821838,1.8182523250579834,-0.8000061511993408
2.725,0.012050884775817394,-0.008881661109626293,-0.7840684056282043,1.8156893253326416,-0.8000060319900513
2.73,0.0030686643440276384,-0.008698280900716782,-0.7830601334571838,1.8141705989837646,-0.800006091594696
2.735,-0.010596951469779015,-0.0014384582173079252,-0.7816920280456543,1.8114359378814697,-0.800006091594696
2.74,-0.004794600419700146,0.0005049424944445491,-0.7807153463363647,1.810154914855957,-0.8000060319900513
2.745,0.011943042278289795,-0.00874331220984459,-0.7795870304107666,1.8075884580612183,-0.8000060319900513
2.75,0.0030366431456059217,-0.008619396947324276,-0.7786400318145752,1.8060729503631592,-0.8000059723854065
2.755,-0.010480412282049656,-0.001513657858595252,-0.7773362398147583,1.8033369779586792,-0.8000059723854065
2.7600000000000002,-0.004731009714305401,0.000451773579698056,-0.7764221429824829,1.8020563125610352,-0.8000059127807617
2.765,0.01183406263589859,-0.008610137738287449,-0.7753546237945557,1.7994887828826904,-0.8000059127807617
2.77,0.003001183271408081,-0.008541176095604897,-0.7744686603546143,1.7979785203933716,-0.8000059127807617
2.775,-0.010363728739321232,-0.0015845256857573986,-0.773227870464325,1.795241117477417,-0.8000058531761169
2.7800000000000002,-0.004665067419409752,0.0003999809850938618,-0.7723754048347473,1.7939624786376953,-0.8000058531761169
2.785,0.01172408927232027,-0.008482305333018303,-0.7713677287101746,1.791395664215088,-0.8000057935714722
2.79,0.002962101949378848,-0.008464000187814236,-0.7705416679382324,1.7898894548416138,-0.8000057935714722
2.795,-0.010247249156236649,-0.0016516504110768437,-0.7693642377853394,1.7871545553207397,-0.8000057339668274
2.8000000000000003,-0.004597393795847893,0.0003494810371194035,-0.7685732245445251,1.7858790159225464,-0.8000057339668274
2.805,0.011613202281296253,-0.008359602652490139,-0.767625093460083,1.7833131551742554,-0.8000056743621826
2.81,0.0029199246782809496,-0.008387792855501175,-0.7668593525886536,1.781813383102417,-0.8000056743621826
2.815,-0.010130987502634525,-0.001714685233309865,-0.7657445073127747,1.7790803909301758,-0.8000056147575378
2.82,-0.004527713172137737,0.00030055479146540165,-0.7650145292282104,1.777808427810669,-0.8000055551528931
2.825,0.011501834727823734,-0.008241808041930199,-0.7641257643699646,1.7752466201782227,-0.8000054955482483
2.83,0.002874620258808136,-0.00831249076873064,-0.7634192109107971,1.7737535238265991,-0.8000054955482483
2.835,-0.010015247389674187,-0.0017740203766152263,-0.7623656988143921,1.7710232734680176,-0.8000054359436035
2.84,-0.004456433467566967,0.00025272092898376286,-0.7616955041885376,1.7697550058364868,-0.8000054359436035
2.845,0.011389948427677155,-0.00812914315611124,-0.7608652114868164,1.767198085784912,-0.8000053763389587
2.85,0.002826510462909937,-0.008238282054662704,-0.7602176070213318,1.7657122611999512,-0.8000053763389587
2.855,-0.00990003440529108,-0.0018294015899300575,-0.7592255473136902,1.7629865407943726,-0.800005316734314
2.86,-0.00438386294990778,0.00020681627211160958,-0.7586155533790588,1.7617243528366089,-0.800005316734314
2.865,0.011277863755822182,-0.008020957931876183,-0.7578436732292175,1.759173035621643,-0.800005316734314
2.87,0.0027759778313338757,-0.008165039122104645,-0.7572542428970337,1.7576946020126343,-0.8000052571296692
2.875,-0.009785456582903862,-0.001881271949969232,-0.75632244348526,1.7549751996994019,-0.8000051975250244
2.88,-0.004310129210352898,0.0001619723771000281,-0.7557710409164429,1.7537189722061157,-0.8000051379203796
2.8850000000000002,0.011165481992065907,-0.007917872630059719,-0.7550567984580994,1.751174807548523,-0.8000050783157349
2.89,0.0027227026876062155,-0.008093162439763546,-0.7545253038406372,1.7497047185897827,-0.8000050783157349
2.895,-0.009671877138316631,-0.0019297560211271048,-0.753653883934021,1.746992588043213,-0.8000050187110901
2.9,-0.0042353104799985886,0.00011855820775963366,-0.7531613111495972,1.7457432746887207,-0.8000050187110901
2.9050000000000002,0.011053036898374557,-0.007819161750376225,-0.7525040507316589,1.7432063817977905,-0.8000049591064453
2.91,0.002667404478415847,-0.0080222487449646,-0.7520297169685364,1.7417458295822144,-0.8000049591064453
2.915,-0.009558705613017082,-0.0019748201593756676,-0.7512173056602478,1.7390421628952026,-0.8000048995018005
2.92,-0.004159368108958006,7.653613283764571e-05,-0.750782310962677,1.7378002405166626,-0.8000048398971558
2.9250000000000003,0.01094081625342369,-0.007724969647824764,-0.7501816749572754,1.735272765159607,-0.800004780292511
2.93,0.002609772840514779,-0.007952485233545303,-0.7497640252113342,1.7338210344314575,-0.800004780292511
2.935,-0.009446959011256695,-0.002016596496105194,-0.7490107417106628,1.731126308441162,-0.8000047206878662
2.94,-0.004082856699824333,3.5820790799334645e-05,-0.7486331462860107,1.7298921346664429,-0.8000047206878662
2.945,0.010828672908246517,-0.007635113317519426,-0.7480884194374084,1.7273743152618408,-0.8000046610832214
2.95,0.0025503274518996477,-0.007883795537054539,-0.7477265000343323,1.7259329557418823,-0.8000046014785767
2.955,-0.009336113929748535,-0.002055130898952484,-0.7470307946205139,1.7232483625411987,-0.8000045418739319
2.96,-0.004005748312920332,-3.447174094617367e-06,-0.7467092871665955,1.7220231294631958,-0.8000045418739319
2.965,0.0107169970870018,-0.007549462839961052,-0.7462199330329895,1.7195171117782593,-0.8000044822692871
2.97,0.0024893053341656923,-0.007816292345523834,-0.7459133267402649,1.7180851697921753,-0.8000044226646423
2.975,-0.00922618992626667,-0.0020906743593513966,-0.74527508020401,1.7154113054275513,-0.8000043630599976
2.98,-0.0039281705394387245,-4.1436360334046185e-05,-0.7450098395347595,1.7141960859298706,-0.8000043630599976
2.985,0.010605577379465103,-0.007467970717698336,-0.7445756793022156,1.7117021083831787,-0.8000043034553528
2.99,0.0024268466513603926,-0.007750175893306732,-0.7443237900733948,1.7102805376052856,-0.8000043034553528
2.995,-0.009117495268583298,-0.002123498357832432,-0.7437422871589661,1.707618236541748,-0.800004243850708
3.0,-0.003850409062579274,-7.828816887922585e-05,-0.7435322403907776,1.706412672996521,-0.800004243850708
3.005,0.010494434274733067,-0.007390463259071112,-0.7431519031524658,1.703930139541626,-0.8000041842460632
3.0100000000000002,0.0023625041358172894,-0.007684970740228891,-0.7429537177085876,1.702519416809082,-0.8000041246414185
3.015,-0.009009943343698978,-0.002153410343453288,-0.7424280047416687,1.6998705863952637,-0.8000040650367737
3.02,-0.0037721130065619946,-0.00011382109369151294,-0.7422719597816467,1.6986746788024902,-0.8000040650367737
3.025,0.01038403995335102,-0.007316614501178265,-0.7419453263282776,1.6962063312530518,-0.8000040054321289
3.0300000000000002,0.002296933438628912,-0.00762072391808033,-0.741800844669342,1.6948072910308838,-0.8000039458274841
3.035,-0.008903814479708672,-0.0021805348806083202,-0.741330623626709,1.692171573638916,-0.8000038862228394
3.04,-0.00369405560195446,-0.00014821701915934682,-0.7412282228469849,1.6909856796264648,-0.8000038862228394
3.045,0.010274054482579231,-0.007246822118759155,-0.740954577922821,1.688531517982483,-0.8000038266181946
3.0500000000000003,0.002230498008430004,-0.0075581129640340805,-0.7408626675605774,1.6871445178985596,-0.8000037670135498
3.055,-0.008798981085419655,-0.0022052954882383347,-0.7404468059539795,1.684522271156311,-0.800003707408905
3.06,-0.0036162587348371744,-0.00018131037359125912,-0.740397572517395,1.6833484172821045,-0.800003707408905
3.065,0.010165005922317505,-0.0071804579347372055,-0.7401762008666992,1.6809086799621582,-0.8000036478042603
3.0700000000000003,0.0021631564013659954,-0.00749621819704771,-0.7401360273361206,1.6795318126678467,-0.8000035881996155
3.075,-0.00869521964341402,-0.002227395074442029,-0.7397738099098206,1.6769245862960815,-0.8000035285949707
3.08,-0.0035382728092372417,-0.00021344661945477128,-0.7397769093513489,1.6757627725601196,-0.8000035285949707
3.085,0.010056229308247566,-0.007117711007595062,-0.7396070957183838,1.6733380556106567,-0.8000034689903259
3.09,0.0020948040764778852,-0.00743576604872942,-0.7396180033683777,1.6719733476638794,-0.8000034093856812
3.095,-0.008592771366238594,-0.002247409662231803,-0.7393088340759277,1.6693811416625977,-0.8000033497810364
3.1,-0.003460605861619115,-0.00024431594647467136,-0.7393628358840942,1.6682298183441162,-0.8000033497810364
3.105,0.009948402643203735,-0.007057896349579096,-0.739243745803833,1.6658204793930054,-0.8000032305717468
3.11,0.002025701804086566,-0.007375817280262709,-0.7393051385879517,1.6644682884216309,-0.8000032305717468
3.115,-0.008491721004247665,-0.0022648784797638655,-0.7390482425689697,1.6618915796279907,-0.800003170967102
3.12,-0.0033834069035947323,-0.0002742774086073041,-0.7391533255577087,1.6607531309127808,-0.8000031113624573
3.125,0.009841108694672585,-0.007001831196248531,-0.7390845417976379,1.6583597660064697,-0.8000030517578125
3.13,0.001955744344741106,-0.007317494601011276,-0.7391954660415649,1.6570194959640503,-0.8000030517578125
3.1350000000000002,-0.008392234332859516,-0.002280598971992731,-0.7389901876449585,1.6544595956802368,-0.8000029921531677
3.14,-0.0033065280877053738,-0.00030337899806909263,-0.739145040512085,1.6533329486846924,-0.800002932548523
3.145,0.009734726510941982,-0.006948660593479872,-0.7391257286071777,1.650956153869629,-0.8000028729438782
3.15,0.0018856660462915897,-0.00725987832993269,-0.7392858862876892,1.649628758430481,-0.8000028729438782
3.1550000000000002,-0.008293678052723408,-0.0022939720656722784,-0.7391312718391418,1.6470849514007568,-0.8000027537345886
3.16,-0.0032302294857800007,-0.00033118698047474027,-0.7393350601196289,1.6459704637527466,-0.8000027537345886
3.165,0.00962921604514122,-0.006898483261466026,-0.7393642663955688,1.6436101198196411,-0.8000026941299438
3.17,0.0018150334944948554,-0.007203368004411459,-0.7395725250244141,1.6422953605651855,-0.8000026345252991
3.1750000000000003,-0.0081968167796731,-0.0023056510835886,-0.7394682168960571,1.6397695541381836,-0.8000025749206543
3.18,-0.003154524601995945,-0.00035843809018842876,-0.7397202849388123,1.6386667490005493,-0.8000025749206543
3.185,0.009524358436465263,-0.00685132946819067,-0.7397972941398621,1.6363226175308228,-0.8000024557113647
3.19,0.0017438881332054734,-0.00714778620749712,-0.740053117275238,1.6350212097167969,-0.8000024557113647
3.1950000000000003,-0.008101161569356918,-0.00231537944637239,-0.7399974465370178,1.6325113773345947,-0.80000239610672
3.2,-0.0030794329941272736,-0.00038451998261734843,-0.7402967214584351,1.631421685218811,-0.8000023365020752
3.205,0.009420398622751236,-0.006806729827076197,-0.7404210567474365,1.6290960311889648,-0.8000022768974304
3.21,0.0016728068003430963,-0.007093124557286501,-0.7407236099243164,1.6278069019317627,-0.8000022172927856
3.215,-0.008006765507161617,-0.0023235147818922997,-0.7407167553901672,1.6253153085708618,-0.8000021576881409
3.22,-0.0030051758512854576,-0.00041001872159540653,-0.7410626411437988,1.6242376565933228,-0.8000021576881409
3.225,0.009317071177065372,-0.006765030324459076,-0.7412333488464355,1.6219290494918823,-0.8000020384788513
3.23,0.001601243275217712,-0.007039418909698725,-0.7415816783905029,1.6206532716751099,-0.8000020384788513
3.235,-0.007913981564342976,-0.002329915529116988,-0.7416218519210815,1.618178367614746,-0.8000019788742065
3.24,-0.0029316353611648083,-0.0004345845081843436,-0.7420134544372559,1.6171140670776367,-0.8000019192695618
3.245,0.009214789606630802,-0.006725764833390713,-0.7422295808792114,1.6148232221603394,-0.800001859664917
3.25,0.0015296810306608677,-0.006986488588154316,-0.7426226139068604,1.6135597229003906,-0.8000018000602722
3.255,-0.007822361774742603,-0.00233477889560163,-0.7427095770835876,1.6111029386520386,-0.8000017404556274
3.2600000000000002,-0.002858770312741399,-0.00045840919483453035,-0.7431464791297913,1.6100518703460693,-0.8000017404556274
3.265,0.009113388136029243,-0.006688915193080902,-0.7434076070785522,1.607778549194336,-0.8000016212463379
3.27,0.0014581907307729125,-0.0069343349896371365,-0.7438451647758484,1.6065282821655273,-0.8000016212463379
3.275,-0.007731958758085966,-0.002338158432394266,-0.7439778447151184,1.6040891408920288,-0.8000015020370483
3.2800000000000002,-0.002786876866593957,-0.0004815167631022632,-0.7444586157798767,1.6030504703521729,-0.8000015020370483
3.285,0.009012646973133087,-0.006654495373368263,-0.7447635531425476,1.6007952690124512,-0.8000014424324036
3.29,0.0013866786612197757,-0.00688320305198431,-0.7452441453933716,1.5995573997497559,-0.8000013828277588
3.295,-0.007643028162419796,-0.002340358681976795,-0.7454217672348022,1.5971356630325317,-0.800001323223114
3.3000000000000003,-0.002715924521908164,-0.000504090276081115,-0.7459463477134705,1.5961112976074219,-0.8000012636184692
3.305,0.008912840858101845,-0.006622334010899067,-0.746294379234314,1.5938729047775269,-0.8000012040138245
3.31,0.0013153398176655173,-0.006832680199295282,-0.7468176484107971,1.5926480293273926,-0.8000012040138245
3.315,-0.0075553408823907375,-0.002341096755117178,-0.747039258480072,1.5902447700500488,-0.8000010251998901
3.3200000000000003,-0.002645899774506688,-0.0005258704768493772,-0.7476056218147278,1.5892318487167358,-0.8000010251998901
3.325,0.008813786320388317,-0.006592193618416786,-0.7479955554008484,1.5870108604431152,-0.8000009655952454
3.33,0.001244231010787189,-0.006782916374504566,-0.7485606074333191,1.5858004093170166,-0.8000009655952454
3.335,-0.007468835916370153,-0.002340728882700205,-0.7488254308700562,1.5834152698516846,-0.8000008463859558
3.34,-0.002576997270807624,-0.0005471303011290729,-0.7494333982467651,1.5824155807495117,-0.8000008463859558
3.345,0.008715486153960228,-0.006564243230968714,-0.749864935874939,1.5802124738693237,-0.8000007271766663
3.35,0.0011733408318832517,-0.006733980495482683,-0.7504708170890808,1.5790131092071533,-0.8000007271766663
3.355,-0.007383319083601236,-0.002339377300813794,-0.7507782578468323,1.576645851135254,-0.8000006675720215
3.36,-0.0025088381953537464,-0.0005678218440152705,-0.7514275312423706,1.575660228729248,-0.8000006079673767
3.365,0.00861794501543045,-0.006538073997944593,-0.7518994212150574,1.5734736919403076,-0.8000005483627319
3.37,0.0011026510037481785,-0.00668561365455389,-0.7525451183319092,1.5722875595092773,-0.8000004887580872
3.375,-0.007299498189240694,-0.0023368257097899914,-0.7528930902481079,1.5699368715286255,-0.8000004291534424
3.38,-0.0024417834356427193,-0.000588023685850203,-0.7535816431045532,1.5689642429351807,-0.8000003695487976
3.3850000000000002,0.00852163415402174,-0.0065138801001012325,-0.7540932893753052,1.5667961835861206,-0.8000003099441528
3.39,0.0010323106544092298,-0.006637698505073786,-0.7547780871391296,1.5656219720840454,-0.8000002503395081
3.395,-0.007216533645987511,-0.002333211014047265,-0.7551670670509338,1.563289761543274,-0.8000001907348633
3.4,-0.00237559387460351,-0.0006077172001823783,-0.7558949589729309,1.5623300075531006,-0.8000001311302185
3.4050000000000002,0.00842564832419157,-0.006491423584520817,-0.7564453482627869,1.5601781606674194,-0.8000000715255737
3.41,0.0009623399237170815,-0.006590733770281076,-0.757168710231781,1.5590171813964844,-0.800000011920929
3.415,-0.0071348571218550205,-0.0023290379904210567,-0.7576278448104858,1.5566965341567993,-0.798344075679779
3.42,-0.002313517965376377,-0.0006257400382310152,-0.7583086490631104,1.5556443929672241,-0.798308789730072
3.4250000000000003,0.008329515345394611,-0.006468052975833416,-0.758866012096405,1.553446888923645,-0.7939515113830566
3.43,0.0008853058097884059,-0.006541718263179064,-0.7593274116516113,1.5520942211151123,-0.7939496636390686
3.435,-0.007078018970787525,-0.0023295199498534203,-0.7595400214195251,1.549673080444336,-0.789490818977356
3.44,-0.002272174693644047,-0.0006539371679536998,-0.759918212890625,1.5486153364181519,-0.789534866809845
3.4450000000000003,0.008235967718064785,-0.006446332670748234,-0.7602558732032776,1.5463835000991821,-0.7851335406303406
3.45,0.0008151729125529528,-0.006496432237327099,-0.7606920599937439,1.5450825691223145,-0.7851391434669495
3.455,-0.007030535023659468,-0.0023269199300557375,-0.7610407471656799,1.542663812637329,-0.7806355953216553
3.46,-0.002235069638118148,-0.000673977134283632,-0.7616429924964905,1.5415546894073486,-0.780681848526001
3.465,0.008148028515279293,-0.006422016769647598,-0.7622207999229431,1.5393085479736328,-0.7762256860733032
3.47,0.0007462693611159921,-0.00644670519977808,-0.7628217339515686,1.5380064249038696,-0.7762255668640137
3.475,-0.006982072722166777,-0.002318465616554022,-0.7632222175598145,1.535603642463684,-0.771668016910553
3.48,-0.0021979399025440216,-0.0006969358655624092,-0.7637712955474854,1.5345185995101929,-0.771713137626648
3.485,0.008056232705712318,-0.006406325381249189,-0.7642459869384766,1.5323106050491333,-0.7672092914581299
3.49,0.0006743654375895858,-0.006402047351002693,-0.7647513747215271,1.5310343503952026,-0.7672148942947388
3.495,-0.006936929188668728,-0.002313147531822324,-0.7651165127754211,1.5286494493484497,-0.762613832950592
3.5,-0.00216200714930892,-0.0007175526116043329,-0.7657029032707214,1.5275636911392212,-0.7626638412475586
3.505,0.007969367317855358,-0.006385937333106995,-0.7662783265113831,1.5253551006317139,-0.75811368227005
3.5100000000000002,0.0006054432597011328,-0.006354811135679483,-0.76690673828125,1.5240685939788818,-0.7581195831298828
3.515,-0.006891677621752024,-0.00230436772108078,-0.767382800579071,1.521685004234314,-0.7534691691398621
3.52,-0.0021265666000545025,-0.0007385695353150368,-0.7680346965789795,1.520604133605957,-0.7535179853439331
3.525,0.00787957850843668,-0.0063711004331707954,-0.7686271667480469,1.5184133052825928,-0.7489204406738281
3.5300000000000002,0.0005339658819139004,-0.006309173069894314,-0.7692341208457947,1.5171419382095337,-0.7489268779754639
3.535,-0.006847236771136522,-0.002295728074386716,-0.769681453704834,1.5147817134857178,-0.7442331314086914
3.54,-0.0020916215144097805,-0.0007586329593323171,-0.7703163027763367,1.5137126445770264,-0.7442855834960938
3.545,0.007792262360453606,-0.006355076562613249,-0.770923912525177,1.5115339756011963,-0.7396451830863953
3.5500000000000003,0.00046412518713623285,-0.00626369658857584,-0.7715762853622437,1.5102646350860596,-0.7396543025970459
3.555,-0.00680409325286746,-0.0022864616475999355,-0.7720920443534851,1.5079082250595093,-0.7349163293838501
3.56,-0.00205767760053277,-0.0007784730987623334,-0.772795557975769,1.5068387985229492,-0.7349697351455688
3.565,0.007704638876020908,-0.0063412608578801155,-0.7734606266021729,1.5046697854995728,-0.7302851676940918
3.5700000000000003,0.00039383210241794586,-0.006218256428837776,-0.7741466164588928,1.5034064054489136,-0.7302942872047424
3.575,-0.0067611439153552055,-0.0022757386323064566,-0.7746782302856445,1.5010652542114258,-0.7255141139030457
3.58,-0.0020243562757968903,-0.0007975584012456238,-0.7753837704658508,1.5000070333480835,-0.7255691289901733
3.585,0.007617316208779812,-0.00632831733673811,-0.7760524749755859,1.4978528022766113,-0.7208434343338013
3.59,0.00032353249844163656,-0.006173440255224705,-0.7767502069473267,1.4965959787368774,-0.7208549380302429
3.595,-0.006719460245221853,-0.0022651480976492167,-0.7773105502128601,1.4942654371261597,-0.716033935546875
3.6,-0.0019917842000722885,-0.0008164955070242286,-0.7780547738075256,1.4932106733322144,-0.7160912156105042
3.605,0.007530746050179005,-0.006316129118204117,-0.7787694334983826,1.4910640716552734,-0.7113248109817505
3.61,0.00025355140678584576,-0.006128555163741112,-0.7795102000236511,1.4898122549057007,-0.7113378047943115
3.615,-0.006678384728729725,-0.0022532253060489893,-0.7801073789596558,1.4874898195266724,-0.7064758539199829
3.62,-0.001960102003067732,-0.0008347283583134413,-0.7808764576911926,1.486440658569336,-0.7065344452857971
3.625,0.007444305345416069,-0.0063053034245967865,-0.7816096544265747,1.4843076467514038,-0.7017284631729126
3.63,0.00018363865092396736,-0.00608398113399744,-0.7823633551597595,1.4830617904663086,-0.701742947101593
3.6350000000000002,-0.006637887097895145,-0.0022409427911043167,-0.7829779982566833,1.4807523488998413,-0.6968436241149902
3.64,-0.0019289064221084118,-0.0008526009041815996,-0.783767819404602,1.4797102212905884,-0.6969040036201477
3.645,0.0073585184291005135,-0.006294989958405495,-0.7845289707183838,1.477586030960083,-0.6920608878135681
3.65,0.00011416664347052574,-0.006039825268089771,-0.7853145599365234,1.4763456583023071,-0.6920769214630127
3.6550000000000002,-0.0065981438383460045,-0.0022283419966697693,-0.7859643697738647,1.4740444421768188,-0.6871404647827148
3.66,-0.0018986904760822654,-0.0008702681516297162,-0.7867848873138428,1.4730055332183838,-0.6872020363807678
3.665,0.007272929884493351,-0.006285883951932192,-0.7875744104385376,1.470892310142517,-0.6823222637176514
3.67,4.4617801904678345e-05,-0.005995625630021095,-0.7883820533752441,1.4696578979492188,-0.6823397278785706
3.6750000000000003,-0.006558904889971018,-0.0022148906718939543,-0.7890521883964539,1.4673658609390259,-0.6773670315742493
3.68,-0.001869005267508328,-0.0008872742764651775,-0.7898909449577332,1.4663347005844116,-0.6774309873580933
3.685,0.007187632843852043,-0.006277131848037243,-0.7907009124755859,1.4642324447631836,-0.6725165247917175
3.69,-2.4624750949442387e-05,-0.005951601080596447,-0.7915297746658325,1.4630011320114136,-0.6725348234176636
3.6950000000000003,-0.006520438939332962,-0.002201262628659606,-0.7922267317771912,1.4607188701629639,-0.6675286889076233
3.7,-0.0018403108697384596,-0.0009042052552103996,-0.7930924296379089,1.4596930742263794,-0.6675937175750732
3.705,0.007102782838046551,-0.006269470322877169,-0.7939296960830688,1.4575988054275513,-0.6626452803611755
3.71,-9.350001346319914e-05,-0.005907849874347448,-0.7947835922241211,1.4563730955123901,-0.6626659035682678
3.715,-0.006482381373643875,-0.002186959609389305,-0.7955043315887451,1.4540992975234985,-0.6576263308525085
3.72,-0.0018120496533811092,-0.0009204517118632793,-0.7963901162147522,1.4530789852142334,-0.6576930284500122
3.725,0.007018367759883404,-0.006262071896344423,-0.7972474098205566,1.4509947299957275,-0.6527125835418701
3.73,-0.0001618316164240241,-0.005864058621227741,-0.7981202602386475,1.4497747421264648,-0.6527341604232788
3.735,-0.00644494267180562,-0.0021723334211856127,-0.7988624572753906,1.4475091695785522,-0.6476632356643677
3.74,-0.0017849099822342396,-0.0009364855941385031,-0.7997696399688721,1.4464941024780273,-0.6477314829826355
3.745,0.006934014149010181,-0.006255483720451593,-0.8006500601768494,1.4444185495376587,-0.6427204012870789
3.75,-0.00023020710796117783,-0.005820576101541519,-0.8015456199645996,1.4432039260864258,-0.6427434682846069
3.755,-0.006408010143786669,-0.002157490700483322,-0.802311360836029,1.4409456253051758,-0.6376420259475708
3.7600000000000002,-0.0017581261927261949,-0.0009522289037704468,-0.8032394051551819,1.4399347305297852,-0.6377118825912476
3.765,0.006850280798971653,-0.006249226629734039,-0.8041400909423828,1.4378671646118164,-0.6326704025268555
3.77,-0.00029796420130878687,-0.005776720121502876,-0.8050543069839478,1.4366581439971924,-0.6326953172683716
3.775,-0.006371242925524712,-0.0021420130506157875,-0.8058398962020874,1.434409737586975,-0.6275654435157776
3.7800000000000002,-0.0017320598708465695,-0.0009674809407442808,-0.8067865371704102,1.4334040880203247,-0.6276366710662842
3.785,0.006766802165657282,-0.00624358095228672,-0.8077070713043213,1.4313448667526245,-0.6225678324699402
3.79,-0.00036555109545588493,-0.005733362399041653,-0.8086404204368591,1.430139183998108,-0.6225932836532593
3.795,-0.006335356738418341,-0.0021266359835863113,-0.8094469904899597,1.4278981685638428,-0.6174365282058716
3.8000000000000003,-0.0017070772591978312,-0.0009826063178479671,-0.8104135394096375,1.426898717880249,-0.6175088882446289
3.805,0.006683461368083954,-0.006238334812223911,-0.8113535046577454,1.4248467683792114,-0.6124134659767151
3.81,-0.00043261004611849785,-0.005689870100468397,-0.8123054504394531,1.4236470460891724,-0.6124407052993774
3.815,-0.006299708504229784,-0.0021107059437781572,-0.8131304383277893,1.421412467956543,-0.6072577834129333
3.8200000000000003,-0.0016824991907924414,-0.0009972125990316272,-0.8141144514083862,1.4204179048538208,-0.6073315143585205
3.825,0.006600477732717991,-0.006233280524611473,-0.8150721192359924,1.4183743000030518,-0.6022109389305115
3.83,-0.0004993453621864319,-0.005646417383104563,-0.8160412311553955,1.4171794652938843,-0.6022396087646484
3.835,-0.0062645007856190205,-0.0020947710145264864,-0.8168843388557434,1.4149518013000488,-0.5970324277877808
3.84,-0.0016587283462285995,-0.0010117560159415007,-0.8178860545158386,1.4139639139175415,-0.5971080660820007
3.845,0.006517988163977861,-0.006228867918252945,-0.818860650062561,1.4119261503219604,-0.5919628739356995
3.85,-0.0005654318956658244,-0.005603112280368805,-0.8198465704917908,1.410735845565796,-0.5919929146766663
3.855,-0.006229591555893421,-0.002078516175970435,-0.8207075595855713,1.4085158109664917,-0.5867624878883362
3.86,-0.0016355870757251978,-0.0010257551912218332,-0.8217260837554932,1.4075332880020142,-0.5868402123451233
3.865,0.006435795221477747,-0.006224461365491152,-0.8227171897888184,1.405502200126648,-0.5816726088523865
3.87,-0.0006310469470918179,-0.0055596791207790375,-0.8237186670303345,1.4043164253234863,-0.5817038416862488
3.875,-0.006194977089762688,-0.0020622024312615395,-0.8245963454246521,1.402104377746582,-0.5764520168304443
3.88,-0.0016134835314005613,-0.0010395433055236936,-0.8256301879882812,1.4011268615722656,-0.5765310525894165
3.8850000000000002,0.006353549659252167,-0.00622045760974288,-0.8266366720199585,1.399102807044983,-0.5713430047035217
3.89,-0.0006962406914681196,-0.005516592413187027,-0.8276535272598267,1.3979226350784302,-0.5713754892349243
3.895,-0.0061608608812093735,-0.0020459408406168222,-0.8285464644432068,1.3957149982452393,-0.566102921962738
3.9,-0.0015919632278382778,-0.0010531193111091852,-0.8295952677726746,1.394742727279663,-0.5661835670471191
3.9050000000000002,0.00627174973487854,-0.006216548848897219,-0.8306166529655457,1.3927268981933594,-0.5609762072563171
3.91,-0.0007609856547787786,-0.00547320581972599,-0.831648051738739,1.3915519714355469,-0.5610100030899048
3.915,-0.0061270021833479404,-0.00202933419495821,-0.8325555920600891,1.3893508911132812,-0.5557191967964172
3.92,-0.0015710648149251938,-0.0010662483982741833,-0.8336188197135925,1.3883839845657349,-0.5558011531829834
3.9250000000000003,0.006190559361129999,-0.0062128701247274876,-0.8346538543701172,1.3863736391067505,-0.5505756735801697
3.93,-0.0008249058155342937,-0.005429992452263832,-0.8356989622116089,1.3852041959762573,-0.5506110191345215
3.935,-0.006093423347920179,-0.0020127701573073864,-0.8366208672523499,1.3830105066299438,-0.545303225517273
3.94,-0.0015509590739384294,-0.0010791519889608026,-0.8376977443695068,1.3820488452911377,-0.5453866124153137
3.9450000000000003,0.006109549198299646,-0.006209331564605236,-0.8387464284896851,1.3800463676452637,-0.5401454567909241
3.95,-0.000888353562913835,-0.005386782344430685,-0.8398046493530273,1.3788816928863525,-0.5401819348335266
3.955,-0.006060303188860416,-0.0019961006473749876,-0.8407391309738159,1.3766920566558838,-0.5348581671714783
3.96,-0.0015314971096813679,-0.0010918156476691365,-0.8418291211128235,1.3757376670837402,-0.5349433422088623
3.9650000000000003,0.006028774194419384,-0.006205844227224588,-0.842889666557312,1.3737411499023438,-0.5296865701675415
3.97,-0.0009513263357803226,-0.005343517754226923,-0.8439599871635437,1.372581958770752,-0.5297249555587769
3.975,-0.006027575582265854,-0.001979402033612132,-0.8449072241783142,1.3703997135162354,-0.5243872404098511
3.98,-0.0015129315434023738,-0.001104137860238552,-0.8460092544555664,1.3694496154785156,-0.5244733691215515
3.985,0.005948463920503855,-0.006202542223036289,-0.8470816612243652,1.3674601316452026,-0.5192041397094727
3.99,-0.001013678265735507,-0.005300311371684074,-0.8481639623641968,1.366306185722351,-0.5192431807518005
3.995,-0.005994963925331831,-0.0019627506844699383,-0.8491230010986328,1.3641306161880493,-0.5138937830924988
4.0,-0.001494880998507142,-0.001116152503527701,-0.8502362370491028,1.363186001777649,-0.51398104429245
4.005,0.0058682928793132305,-0.006198999471962452,-0.8513190150260925,1.3612034320831299,-0.5087003111839294
4.01,-0.0010751101654022932,-0.00525708170607686,-0.8524118661880493,1.3600552082061768,-0.5087403059005737
4.015,-0.005962355528026819,-0.0019461577758193016,-0.853381872177124,1.3578869104385376,-0.5033807754516602
4.0200000000000005,-0.0014775488525629044,-0.0011278769234195352,-0.8545063138008118,1.3569483757019043,-0.5034691691398621
4.025,0.005788744892925024,-0.006195784546434879,-0.8555997014045715,1.3549721240997314,-0.49817854166030884
4.03,-0.001136253820732236,-0.005213996861129999,-0.8567030429840088,1.353829264640808,-0.4982203245162964
4.035,-0.00593047309666872,-0.0019296600949019194,-0.8576829433441162,1.3516660928726196,-0.4928509294986725
4.04,-0.0014608970377594233,-0.0011394054163247347,-0.858817994594574,1.3507357835769653,-0.49294111132621765
4.045,0.005709442775696516,-0.006192341912537813,-0.8599207997322083,1.3487669229507446,-0.48764216899871826
4.05,-0.0011965993326157331,-0.005170692224055529,-0.8610332012176514,1.3476275205612183,-0.48768460750579834
4.055,-0.00589863583445549,-0.0019130659056827426,-0.862022876739502,1.345471739768982,-0.4823080003261566
4.0600000000000005,-0.0014449821319431067,-0.0011505531147122383,-0.8631675243377686,1.3445475101470947,-0.4823992848396301
4.065,0.005630400497466326,-0.006188974250108004,-0.8642792105674744,1.3425874710083008,-0.47709476947784424
4.07,-0.0012562384363263845,-0.0051277559250593185,-0.8654007315635681,1.3414547443389893,-0.4771381914615631
4.075,-0.005867096595466137,-0.0018969075754284859,-0.8663994669914246,1.3393064737319946,-0.47175630927085876
4.08,-0.001429786323569715,-0.0011616310803219676,-0.8675535917282104,1.338389277458191,-0.4718490540981293
4.085,0.005551970563828945,-0.006185699719935656,-0.86867356300354,1.3364351987838745,-0.4665388762950897
4.09,-0.001315118046477437,-0.005084671545773745,-0.8698036670684814,1.3353079557418823,-0.46658360958099365
4.095,-0.0058359247632324696,-0.001880407566204667,-0.8708106875419617,1.333166241645813,-0.4611974060535431
4.1,-0.0014152603689581156,-0.0011720103211700916,-0.8719728589057922,1.3322551250457764,-0.46129119396209717
4.105,0.0054737902246415615,-0.00618197163566947,-0.8731000423431396,1.3303096294403076,-0.4559783637523651
4.11,-0.001373380539007485,-0.005041550844907761,-0.8742378950119019,1.3291903734207153,-0.45602431893348694
4.115,-0.0058048623614013195,-0.0018643246730789542,-0.8752527832984924,1.3270576000213623,-0.4506366550922394
4.12,-0.0014012919273227453,-0.0011824872344732285,-0.8764228224754333,1.3261529207229614,-0.45073169469833374
4.125,0.005395988002419472,-0.006178476382046938,-0.8775575160980225,1.3242157697677612,-0.4454176425933838
4.13,-0.0014309423277154565,-0.004998688120394945,-0.8787030577659607,1.3231021165847778,-0.44546422362327576
4.135,-0.005774242803454399,-0.001848317333497107,-0.8797252178192139,1.3209762573242188,-0.4400756061077118
4.14,-0.0013881698250770569,-0.0011924460995942354,-0.8809029459953308,1.3200794458389282,-0.4401719868183136
4.1450000000000005,0.0053187827579677105,-0.006174746435135603,-0.8820443153381348,1.3181525468826294,-0.4348590672016144
4.15,-0.0014873844338580966,-0.004955835174769163,-0.8831964135169983,1.3170467615127563,-0.4349074065685272
4.155,-0.005743479356169701,-0.0018324261764064431,-0.8842246532440186,1.3149285316467285,-0.4295195937156677
4.16,-0.001375608379021287,-0.0012019798159599304,-0.8854086995124817,1.314037799835205,-0.42961686849594116
4.165,0.005241882521659136,-0.0061707878485322,-0.8865565061569214,1.3121211528778076,-0.4243060052394867
4.17,-0.0015433059306815267,-0.004913064651191235,-0.887715220451355,1.3110222816467285,-0.4243554174900055
4.175,-0.005713459569960833,-0.0018167475936934352,-0.8887501358985901,1.308914065361023,-0.41897159814834595
4.18,-0.0013637205120176077,-0.001211595255881548,-0.8899407386779785,1.3080310821533203,-0.4190695285797119
4.1850000000000005,0.005165532231330872,-0.006167071871459484,-0.8910941481590271,1.3061246871948242,-0.41376376152038574
4.19,-0.0015985489590093493,-0.004870416596531868,-0.8922582268714905,1.3050318956375122,-0.41381335258483887
4.195,-0.005683541297912598,-0.0018011050997301936,-0.8932986855506897,1.3029335737228394,-0.40843474864959717
4.2,-0.0013524421956390142,-0.001220481120981276,-0.8944953680038452,1.3020597696304321,-0.40853437781333923
4.205,0.005089856218546629,-0.0061628855764865875,-0.8956536650657654,1.300162672996521,-0.4032338559627533
4.21,-0.0016525655519217253,-0.004827931523323059,-0.8968233466148376,1.299078106880188,-0.40328487753868103
4.215,-0.005654027685523033,-0.0017857523635029793,-0.8978698253631592,1.2969919443130493,-0.39791372418403625
4.22,-0.001342192990705371,-0.0012292995816096663,-0.8990716934204102,1.2961246967315674,-0.3980138301849365
4.225,0.00501429894939065,-0.006158878561109304,-0.9002348184585571,1.2942390441894531,-0.39272189140319824
4.23,-0.001706147682853043,-0.004785620607435703,-0.9014090895652771,1.2931627035140991,-0.3927733898162842
4.235,-0.00562454154714942,-0.0017706130165606737,-0.9024602770805359,1.2910877466201782,-0.3874112069606781
4.24,-0.0013320408761501312,-0.0012376930098980665,-0.9036672115325928,1.29023015499115,-0.3875129520893097
4.245,0.004939699079841375,-0.006154441740363836,-0.9048351645469666,1.2883578538894653,-0.3822309672832489
4.25,-0.001758932019583881,-0.004743048921227455,-0.9060138463973999,1.2872885465621948,-0.3822833299636841
4.255,-0.005595637485384941,-0.001755424658767879,-0.9070702791213989,1.2852263450622559,-0.3769325017929077
4.26,-0.0013229015748947859,-0.0012457793345674872,-0.9082825779914856,1.2843785285949707,-0.37703514099121094
4.265,0.004865383729338646,-0.006150203291326761,-0.9094544053077698,1.2825173139572144,-0.3717646896839142
4.2700000000000005,-0.0018107432406395674,-0.004701246973127127,-0.9106369614601135,1.2814571857452393,-0.3718186020851135
4.275,-0.005567070562392473,-0.0017407776322215796,-0.9116975665092468,1.2794088125228882,-0.3664797246456146
4.28,-0.0013142629759386182,-0.0012536949943751097,-0.9129128456115723,1.278567910194397,-0.36658287048339844
4.285,0.004791649524122477,-0.006145652383565903,-0.9140893816947937,1.276724100112915,-0.3613279461860657
4.29,-0.001861601136624813,-0.004659334197640419,-0.9152757525444031,1.2756730318069458,-0.36138203740119934
4.295,-0.0055385977029800415,-0.0017260363092646003,-0.9163404703140259,1.2736377716064453,-0.35605859756469727
4.3,-0.0013062228681519628,-0.0012609742116183043,-0.917560338973999,1.2728084325790405,-0.35616299510002136
4.305,0.004718469921499491,-0.006140834651887417,-0.9187405109405518,1.2709788084030151,-0.3509238362312317
4.3100000000000005,-0.001911747269332409,-0.004617615602910519,-0.9199296236038208,1.269934892654419,-0.3509783446788788
4.315,-0.0055106086656451225,-0.001711648190394044,-0.9209985136985779,1.2679157257080078,-0.34567171335220337
4.32,-0.0012989093083888292,-0.001268089865334332,-0.922221839427948,1.2670965194702148,-0.34577712416648865
4.325,0.004646070767194033,-0.006136161740869284,-0.923405647277832,1.2652840614318848,-0.3405561149120331
4.33,-0.0019609248265624046,-0.004576175473630428,-0.9245975613594055,1.2642499208450317,-0.34061145782470703
4.335,-0.005483018700033426,-0.0016972325975075364,-0.9256702661514282,1.262247085571289,-0.335324227809906
4.34,-0.0012920844601467252,-0.0012746935244649649,-0.9268966317176819,1.2614374160766602,-0.3354302942752838
4.345,0.004574320279061794,-0.006131195463240147,-0.9280839562416077,1.2596427202224731,-0.3302294909954071
4.3500000000000005,-0.002009432762861252,-0.0045348540879786015,-0.9292786121368408,1.258618950843811,-0.33028551936149597
4.355,-0.005455926060676575,-0.001683200360275805,-0.9303552508354187,1.2566348314285278,-0.32501962780952454
4.36,-0.0012860135175287724,-0.0012812500353902578,-0.9315841794013977,1.2558351755142212,-0.3251262605190277
4.365,0.004503155127167702,-0.0061264666728675365,-0.9327751398086548,1.2540600299835205,-0.3199484050273895
4.37,-0.0020570396445691586,-0.0044939154759049416,-0.9339720606803894,1.2530465126037598,-0.3200047016143799
4.375,-0.0054291314445436,-0.0016691854689270258,-0.9350523948669434,1.2510815858840942,-0.3147626221179962
4.38,-0.0012801423436030746,-0.0012872968800365925,-0.9362841248512268,1.250293493270874,-0.31486976146698
4.385,0.004432750400155783,-0.006121303886175156,-0.9374786615371704,1.2485392093658447,-0.3097168505191803
4.39,-0.002103456761687994,-0.004453297704458237,-0.9386770725250244,1.2475345134735107,-0.3097729980945587
4.3950000000000005,-0.005402608774602413,-0.0016555145848542452,-0.9397611618041992,1.2455905675888062,-0.3045569956302643
4.4,-0.0012751673348248005,-0.0012929807417094707,-0.9409951567649841,1.2448142766952515,-0.30466410517692566
4.405,0.004362925421446562,-0.00611620768904686,-0.9421926736831665,1.2430810928344727,-0.2995377779006958
4.41,-0.0021495246328413486,-0.004412795417010784,-0.9433929920196533,1.2420883178710938,-0.29959484934806824
4.415,-0.005376799497753382,-0.0016419613966718316,-0.9444808959960938,1.2401667833328247,-0.294406533241272
4.42,-0.0012707486748695374,-0.001298380782827735,-0.9457169771194458,1.2394026517868042,-0.2945150136947632
4.425,0.004293955396860838,-0.006111115217208862,-0.9469178915023804,1.2376928329467773,-0.2894171476364136
4.43,-0.002194106113165617,-0.004372837021946907,-0.9481196999549866,1.2367111444473267,-0.2894746959209442
4.4350000000000005,-0.005351193714886904,-0.001628431724384427,-0.9492114782333374,1.234813928604126,-0.2843163013458252
4.44,-0.0012669016141444445,-0.0013031637063249946,-0.9504489302635193,1.2340604066848755,-0.28442445397377014
4.445,0.004225746728479862,-0.00610596826300025,-0.9516538381576538,1.2323771715164185,-0.2793589234352112
4.45,-0.0022381043527275324,-0.00433322275057435,-0.9528571963310242,1.2314077615737915,-0.27941620349884033
4.455,-0.005326417740434408,-0.0016151092713698745,-0.953952431678772,1.2295347452163696,-0.2742902934551239
4.46,-0.001263526501134038,-0.001307845115661621,-0.9551920294761658,1.2287956476211548,-0.27439969778060913
4.465,0.004158383700996637,-0.00610086414963007,-0.9564000964164734,1.2271374464035034,-0.2693667411804199
4.47,-0.002281252294778824,-0.004293766338378191,-0.9576042294502258,1.2261804342269897,-0.2694249153137207
4.4750000000000005,-0.005301736295223236,-0.0016019471222534776,-0.9587035775184631,1.2243355512619019,-0.26433318853378296
4.48,-0.00126046990044415,-0.0013120933435857296,-0.9599444270133972,1.223609447479248,-0.2644427418708801
4.485,0.004091620445251465,-0.006095580291002989,-0.9611560702323914,1.221979022026062,-0.25944554805755615
4.49,-0.0023233816027641296,-0.004254904575645924,-0.9623615145683289,1.2210355997085571,-0.2595042884349823
4.495,-0.005277707241475582,-0.00158899265807122,-0.9634649753570557,1.2192187309265137,-0.2544490396976471
4.5,-0.001258203061297536,-0.001315893023274839,-0.96470707654953,1.2185057401657104,-0.25455912947654724
4.505,0.004025686532258987,-0.00609032204374671,-0.9659236073493958,1.2169084548950195,-0.24960066378116608
4.51,-0.002364859916269779,-0.004216224420815706,-0.9671299457550049,1.2159786224365234,-0.24965961277484894
4.515,-0.005254435818642378,-0.0015759653178974986,-0.9682375192642212,1.214191198348999,-0.2446434199810028
4.5200000000000005,-0.0012563075870275497,-0.0013194961939007044,-0.9694808125495911,1.2134921550750732,-0.24475336074829102
4.525,0.003960714675486088,-0.00608537532389164,-0.9707013964653015,1.2119264602661133,-0.23983502388000488
4.53,-0.0024052883964031935,-0.004178209695965052,-0.971907913684845,1.2110093832015991,-0.23989370465278625
4.535,-0.005231579765677452,-0.00156314461492002,-0.9730201363563538,1.209255576133728,-0.23491936922073364
4.54,-0.00125501723960042,-0.0013225101865828037,-0.9742642641067505,1.2085717916488647,-0.23502975702285767
