DanielTruong99/actuator_dynamic_on_gene/src/joint_planner/motion_files/joint_states_eclipse_1.csv
timestamp,L_hip_joint,L_hip2_joint,L_thigh_joint,L_calf_joint,L_toe_joint
0.0,5.232095645624213e-07,2.5518897018628195e-05,2.119113595711042e-08,-1.1670636013150215e-07,-3.504635742501705e-06
0.005,-0.00043106143129989505,-0.002570629119873047,-0.03315267711877823,-4.594628990162164e-05,0.0461600199341774
0.01,-0.0011431170860305429,-0.0058055962435901165,-0.07403762638568878,-0.00023810347192920744,0.2961798906326294
0.015,-0.001195665798150003,-0.006756347604095936,-0.07618493586778641,0.00045086044701747596,0.5462874174118042
0.02,-0.0024371319450438023,-0.005455606617033482,-0.18146675825119019,0.25299981236457825,0.2972760498523712
0.025,-0.0003827225009445101,-0.005919282790273428,-0.3231515884399414,0.5085647702217102,0.049776215106248856
0.03,-0.00277538038790226,-0.006448005326092243,-0.4968135952949524,0.7632664442062378,-0.20033183693885803
0.035,-0.0031523099169135094,-0.005020606331527233,-0.7015166282653809,1.016730785369873,-0.4503720998764038
0.04,-0.0020984108559787273,-0.002152137691155076,-0.9429915547370911,1.2670574188232422,-0.4096619784832001
0.045,0.0023602324072271585,-0.005516178905963898,-1.1916781663894653,1.5163809061050415,-0.2743440270423889
0.05,-0.003973157145082951,-0.0033946058247238398,-1.3727580308914185,1.5607224702835083,-0.21885795891284943
0.055,-0.005123048555105925,0.0010899986373260617,-1.452348232269287,1.4613916873931885,-0.21503077447414398
0.06,-0.0007101584342308342,0.0001563337427796796,-1.5016716718673706,1.484386920928955,-0.21092014014720917
0.065,0.001817188342101872,-0.00825029332190752,-1.5076982975006104,1.551140308380127,-0.2136012315750122
0.07,-0.0033933850936591625,-0.003959705587476492,-1.4420796632766724,1.5352996587753296,-0.21853208541870117
0.075,-0.006179740186780691,0.001331685925833881,-1.3408715724945068,1.5013434886932373,-0.2132795751094818
0.08,-0.0014697224833071232,-0.0005087288445793092,-1.2520333528518677,1.5116925239562988,-0.20814308524131775
0.085,0.004271056968718767,-0.009291638620197773,-1.2021324634552002,1.544304609298706,-0.21583198010921478
0.09,-0.0032322416082024574,-0.006203487515449524,-1.2006062269210815,1.5648961067199707,-0.22621828317642212
0.095,-0.008371165953576565,0.00028664161800406873,-1.2392443418502808,1.558440089225769,-0.22962471842765808
0.1,-0.002703428268432617,0.00010340016160625964,-1.296368956565857,1.5276333093643188,-0.22371618449687958
0.105,0.00420593423768878,-0.00940648838877678,-1.3482146263122559,1.5013614892959595,-0.21667201817035675
0.11,-0.0022524206433445215,-0.0049688322469592094,-1.3789150714874268,1.4999867677688599,-0.21178166568279266
0.115,-0.005975797772407532,0.0018730617593973875,-1.378921627998352,1.5131827592849731,-0.21123556792736053
0.12,-0.0014847476268187165,0.0004761146556120366,-1.349122166633606,1.519465446472168,-0.21150624752044678
0.125,0.0035048937425017357,-0.009301268495619297,-1.307417392730713,1.5241658687591553,-0.21280910074710846
0.13,-0.0031994502060115337,-0.005707348231226206,-1.2736904621124268,1.532640814781189,-0.21492983400821686
0.135,-0.007736540865153074,0.0003622362273745239,-1.260895013809204,1.5434731245040894,-0.21938452124595642
0.14,-0.002559604123234749,-0.0002677523298189044,-1.269798755645752,1.545670509338379,-0.22183126211166382
0.145,0.004254783038049936,-0.009645335376262665,-1.2936946153640747,1.5390902757644653,-0.22224974632263184
0.15,-0.0026005026884377003,-0.005717572756111622,-1.3207664489746094,1.5280286073684692,-0.21948246657848358
0.155,-0.006837100256234407,0.0014560471754521132,-1.341481328010559,1.5235942602157593,-0.21744659543037415
0.16,-0.0017773068975657225,0.0004089623689651489,-1.3487673997879028,1.5249559879302979,-0.21573589742183685
0.165,0.0037011485546827316,-0.009297492913901806,-1.3420145511627197,1.5301084518432617,-0.2160726636648178
0.17,-0.002788851037621498,-0.005260871723294258,-1.3254631757736206,1.5340311527252197,-0.2163642942905426
0.17500000000000002,-0.006988843437284231,0.0010712533257901669,-1.3084110021591187,1.5396419763565063,-0.21817529201507568
0.18,-0.0020950352773070335,-2.4456094251945615e-06,-1.297879934310913,1.5442376136779785,-0.21967120468616486
0.185,0.0040162852965295315,-0.009681510739028454,-1.2977898120880127,1.5478005409240723,-0.22190488874912262
0.19,-0.0029472573660314083,-0.005882135592401028,-1.3060688972473145,1.54645836353302,-0.22217966616153717
0.195,-0.007388131693005562,0.0010824775090441108,-1.3189371824264526,1.5440460443496704,-0.22234539687633514
0.2,-0.0021496207918971777,0.00020576536189764738,-1.3307278156280518,1.5411549806594849,-0.22109541296958923
0.20500000000000002,0.00391044607385993,-0.009558575227856636,-1.337917447090149,1.5417038202285767,-0.22093257308006287
0.21,-0.0026461249217391014,-0.005394372157752514,-1.3380208015441895,1.5428961515426636,-0.22028647363185883
0.215,-0.006835623644292355,0.001415895763784647,-1.3328633308410645,1.5463391542434692,-0.22106677293777466
0.22,-0.0019144252873957157,0.0002805899130180478,-1.3253027200698853,1.549198031425476,-0.22143369913101196
0.225,0.003925818018615246,-0.009686130098998547,-1.3196684122085571,1.553105354309082,-0.22303339838981628
0.23,-0.0029511647298932076,-0.005806449335068464,-1.3176451921463013,1.5547939538955688,-0.2236083596944809
0.23500000000000001,-0.007426054682582617,0.0010910071432590485,-1.3202952146530151,1.5563198328018188,-0.22483424842357635
0.24,-0.002256590873003006,0.00015804350550752133,-1.325795292854309,1.5557252168655396,-0.2246808260679245
0.245,0.003955783788114786,-0.009789622388780117,-1.3323948383331299,1.5560187101364136,-0.2252020686864853
0.25,-0.002723666140809655,-0.005662982817739248,-1.3370704650878906,1.55550217628479,-0.2245877981185913
0.255,-0.007023755926638842,0.0014592261286452413,-1.3391175270080566,1.5570902824401855,-0.22507326304912567
0.26,-0.0019625318236649036,0.00038546917494386435,-1.3381024599075317,1.55846107006073,-0.2248815894126892
0.265,0.003945826552808285,-0.009764974936842918,-1.3357665538787842,1.561417818069458,-0.2259506732225418
0.27,-0.00284514669328928,-0.00574882747605443,-1.3329949378967285,1.5630265474319458,-0.22613976895809174
0.275,-0.00730624794960022,0.0012867721961811185,-1.331834316253662,1.5655065774917603,-0.22736290097236633
0.28,-0.0022031350526958704,0.00025182258104905486,-1.3324863910675049,1.5664619207382202,-0.2275276482105255
0.28500000000000003,0.003950826823711395,-0.009936864487826824,-1.3352562189102173,1.568041443824768,-0.22856611013412476
0.29,-0.0028165432158857584,-0.005838416516780853,-1.338448166847229,1.567960500717163,-0.22833289206027985
0.295,-0.007230249233543873,0.001447268296033144,-1.3415696620941162,1.5691475868225098,-0.22903048992156982
0.3,-0.0020768202375620604,0.0004082440282218158,-1.3433903455734253,1.5697046518325806,-0.2287578135728836
0.305,0.0039790961891412735,-0.00991414487361908,-1.3442364931106567,1.5718263387680054,-0.2296474277973175
0.31,-0.0027833678759634495,-0.0057973056100308895,-1.3436585664749146,1.5728436708450317,-0.22955453395843506
0.315,-0.0072541083209216595,0.001467136899009347,-1.3429604768753052,1.5751367807388306,-0.23059682548046112
0.32,-0.0021489111240953207,0.0003800322883762419,-1.34244704246521,1.576371669769287,-0.23068039119243622
0.325,0.0039591980166733265,-0.010049328207969666,-1.3431440591812134,1.578550100326538,-0.23184004426002502
0.33,-0.0028449189849197865,-0.005931172054260969,-1.3443238735198975,1.5790952444076538,-0.2317913919687271
0.335,-0.007342122960835695,0.0014915450010448694,-1.3462704420089722,1.5806453227996826,-0.23273009061813354
0.34,-0.0021570802200585604,0.0004405969812069088,-1.3480894565582275,1.5812022686004639,-0.2325739562511444
0.34500000000000003,0.003995142411440611,-0.010080887004733086,-1.3499126434326172,1.5830355882644653,-0.23352675139904022
0.35000000000000003,-0.002779065165668726,-0.0059061842039227486,-1.3507509231567383,1.5836657285690308,-0.23335130512714386
0.355,-0.007290451321750879,0.0015866695903241634,-1.3512521982192993,1.585625171661377,-0.23431631922721863
0.36,-0.002143425401300192,0.0004852892307098955,-1.3512777090072632,1.5867013931274414,-0.23428033292293549
0.365,0.003982048016041517,-0.010167279280722141,-1.3517298698425293,1.5889308452606201,-0.23541972041130066
0.37,-0.0028328001499176025,-0.006000034511089325,-1.3521052598953247,1.5897027254104614,-0.23537807166576385
0.375,-0.007389610167592764,0.0015868042828515172,-1.3530874252319336,1.5915335416793823,-0.2364267110824585
0.38,-0.0021929119247943163,0.0005045594298280776,-1.3541972637176514,1.5923104286193848,-0.23635739088058472
0.385,0.004003952722996473,-0.010237840935587883,-1.35579514503479,1.5942109823226929,-0.23742681741714478
0.39,-0.002795386826619506,-0.006022869609296322,-1.3569061756134033,1.5947686433792114,-0.23727519810199738
0.395,-0.007363291922956705,0.0016755257965996861,-1.3579736948013306,1.5965652465820312,-0.2382671982049942
0.4,-0.0021699448116123676,0.0005674561834894121,-1.35858952999115,1.5974793434143066,-0.23817786574363708
0.405,0.004007363226264715,-0.010302463546395302,-1.3593991994857788,1.5996034145355225,-0.23930591344833374
0.41000000000000003,-0.002814903389662504,-0.006079330109059811,-1.3597924709320068,1.6003690958023071,-0.23922348022460938
0.41500000000000004,-0.0074231261387467384,0.0016983284149318933,-1.360485553741455,1.6022746562957764,-0.24030721187591553
0.42,-0.0022095434833317995,0.0005873882910236716,-1.3611693382263184,1.6031770706176758,-0.24025656282901764
0.425,0.00401599146425724,-0.010384948924183846,-1.3623837232589722,1.6051872968673706,-0.24140870571136475
0.43,-0.002807266777381301,-0.006129980552941561,-1.3633010387420654,1.6058056354522705,-0.24129025638103485
0.435,-0.007434578146785498,0.0017620883882045746,-1.3643968105316162,1.6075931787490845,-0.2423485815525055
0.44,-0.0022039220202714205,0.0006424005259759724,-1.3652201890945435,1.6084543466567993,-0.2422543615102768
0.445,0.004028721246868372,-0.0104486383497715,-1.3662880659103394,1.6105000972747803,-0.24341021478176117
0.45,-0.002805574331432581,-0.006172927096486092,-1.366878867149353,1.6112135648727417,-0.2433004081249237
0.455,-0.007465250324457884,0.0018068477511405945,-1.3676210641860962,1.613099455833435,-0.24440808594226837
0.46,-0.0022256853990256786,0.0006746365106664598,-1.3682142496109009,1.6140285730361938,-0.2443457543849945
0.465,0.004033003002405167,-0.010529852472245693,-1.3692423105239868,1.6160855293273926,-0.2455480843782425
0.47000000000000003,-0.002810303820297122,-0.00623050332069397,-1.369968295097351,1.616762638092041,-0.24544237554073334
0.47500000000000003,-0.007495238445699215,0.0018563130870461464,-1.37092924118042,1.6185840368270874,-0.2465621829032898
0.48,-0.0022342402953654528,0.000720286276191473,-1.3717244863510132,1.6194578409194946,-0.24647760391235352
0.485,0.004047402646392584,-0.010599339380860329,-1.372849702835083,1.6214839220046997,-0.24768216907978058
0.49,-0.0028030008543282747,-0.006274907384067774,-1.3735448122024536,1.6221688985824585,-0.2475636601448059
0.495,-0.007516203913837671,0.0019099614582955837,-1.3743723630905151,1.6240239143371582,-0.2487058788537979
0.5,-0.0022463174536824226,0.0007614213391207159,-1.3750038146972656,1.624944806098938,-0.2486303597688675
0.505,0.00405295193195343,-0.010677268728613853,-1.3759984970092773,1.6270043849945068,-0.24987159669399261
0.51,-0.002808348508551717,-0.006331037729978561,-1.3766453266143799,1.627705693244934,-0.2497643381357193
0.515,-0.007549345027655363,0.0019564288668334484,-1.3775042295455933,1.6295509338378906,-0.2509351372718811
0.52,-0.0022602209355682135,0.0008026803261600435,-1.3782224655151367,1.6304476261138916,-0.25085482001304626
0.525,0.004065491259098053,-0.010751867666840553,-1.3793069124221802,1.6324777603149414,-0.25211095809936523
0.53,-0.0028031100519001484,-0.006380224600434303,-1.3800088167190552,1.6331639289855957,-0.251992404460907
0.535,-0.007570758927613497,0.0020104984287172556,-1.3808618783950806,1.6350058317184448,-0.2531789541244507
0.54,-0.0022694601211696863,0.0008469839813187718,-1.3815284967422485,1.6359188556671143,-0.25309595465660095
0.545,0.004073773045092821,-0.010828063823282719,-1.3825352191925049,1.6379666328430176,-0.25437816977500916
0.55,-0.0028053857386112213,-0.006434011273086071,-1.383169174194336,1.638672113418579,-0.2542654275894165
0.555,-0.007601076737046242,0.0020587819162756205,-1.383981466293335,1.6405220031738281,-0.2554799020290375
0.56,-0.002283710055053234,0.0008883897680789232,-1.3846486806869507,1.6414355039596558,-0.25539904832839966
0.5650000000000001,0.004084290470927954,-0.010905434377491474,-1.3856815099716187,1.6434717178344727,-0.2567037343978882
0.5700000000000001,-0.002803447190672159,-0.006486754864454269,-1.3863521814346313,1.6441670656204224,-0.2565860450267792
0.5750000000000001,-0.007625762373209,0.002111386740580201,-1.3871859312057495,1.6460061073303223,-0.2578185796737671
0.58,-0.002293630503118038,0.0009330572793260217,-1.3878545761108398,1.64691960811615,-0.25773340463638306
0.585,0.00409455131739378,-0.010982341133058071,-1.3888627290725708,1.6489583253860474,-0.2590591609477997
0.59,-0.0028031475376337767,-0.0065402318723499775,-1.3894964456558228,1.649662971496582,-0.2589416801929474
0.595,-0.00765296071767807,0.002161809243261814,-1.3902888298034668,1.6515085697174072,-0.2601991593837738
0.6,-0.0023061807733029127,0.0009760975372046232,-1.3909319639205933,1.6524296998977661,-0.2601154148578644
0.605,0.004104628227651119,-0.011060820892453194,-1.391929030418396,1.6544668674468994,-0.2614656090736389
0.61,-0.0028026695363223553,-0.006594967562705278,-1.3925679922103882,1.6551703214645386,-0.2613471746444702
0.615,-0.007679496891796589,0.002213325584307313,-1.3933674097061157,1.6570086479187012,-0.26262611150741577
0.62,-0.0023173047229647636,0.0010206627193838358,-1.3940178155899048,1.6579277515411377,-0.262539267539978
0.625,0.004115541931241751,-0.01113920658826828,-1.3950103521347046,1.6599602699279785,-0.2639106512069702
0.63,-0.0028015472926199436,-0.006649365182965994,-1.3956364393234253,1.6606663465499878,-0.2637898921966553
0.635,-0.007705418858677149,0.0022649229504168034,-1.3964117765426636,1.6625066995620728,-0.26509156823158264
0.64,-0.0023285490460693836,0.0010648698080331087,-1.397040605545044,1.6634318828582764,-0.26500403881073
0.645,0.004126207437366247,-0.011218768544495106,-1.3980132341384888,1.665464162826538,-0.26639941334724426
0.65,-0.002801160793751478,-0.006704917177557945,-1.3986282348632812,1.6661715507507324,-0.2662786543369293
0.655,-0.007732161320745945,0.0023165869060903788,-1.3993945121765137,1.668007493019104,-0.2676028609275818
0.66,-0.002339793834835291,0.001109600649215281,-1.400022029876709,1.6689330339431763,-0.2675134539604187
0.665,0.004137340933084488,-0.011298475787043571,-1.4009901285171509,1.6709606647491455,-0.268930584192276
0.67,-0.0028003021143376827,-0.006760436110198498,-1.4015998840332031,1.6716688871383667,-0.2688078284263611
0.675,-0.007758147548884153,0.0023686550557613373,-1.4023524522781372,1.6735033988952637,-0.2701541781425476
0.68,-0.002350863069295883,0.0011548533802852035,-1.402966022491455,1.6744312047958374,-0.27006369829177856
0.685,0.004148229490965605,-0.011378752999007702,-1.4039167165756226,1.6764570474624634,-0.2715035080909729
0.6900000000000001,-0.002799799432978034,-0.006816939916461706,-1.404512882232666,1.6771684885025024,-0.2713805139064789
0.6950000000000001,-0.0077844117768108845,0.0024202726781368256,-1.4052501916885376,1.6790003776550293,-0.2727494239807129
0.7000000000000001,-0.0023618771228939295,0.0012000828282907605,-1.405855417251587,1.679929256439209,-0.2726573646068573
0.705,0.0041597518138587475,-0.01145972777158022,-1.4067970514297485,1.6819506883621216,-0.274120032787323
0.71,-0.0027989279478788376,-0.006873625796288252,-1.407386302947998,1.682661533355713,-0.2739953100681305
0.715,-0.00781030859798193,0.0024724651593714952,-1.4081114530563354,1.6844897270202637,-0.27538615465164185
0.72,-0.00237265951000154,0.0012458027340471745,-1.4087066650390625,1.6854208707809448,-0.2752927243709564
0.725,0.004171090200543404,-0.01154112908989191,-1.4096342325210571,1.6874390840530396,-0.276777982711792
0.73,-0.002798503963276744,-0.006930897478014231,-1.4102113246917725,1.6881510019302368,-0.27665168046951294
0.735,-0.00783649180084467,0.002524481387808919,-1.4109207391738892,1.6899765729904175,-0.2780652940273285
0.74,-0.0023834570311009884,0.0012915835250169039,-1.4115054607391357,1.690909743309021,-0.2779711186885834
0.745,0.004183040000498295,-0.011623303405940533,-1.4124211072921753,1.692923903465271,-0.2794782817363739
0.75,-0.002797613153234124,-0.006988514214754105,-1.4129891395568848,1.6936354637145996,-0.27935105562210083
0.755,-0.007862205617129803,0.0025769746862351894,-1.4136850833892822,1.695457100868225,-0.28078693151474
0.76,-0.002393728122115135,0.0013376353308558464,-1.4142597913742065,1.6963914632797241,-0.28069090843200684
0.765,0.004194997251033783,-0.011705788783729076,-1.4151619672775269,1.698400855064392,-0.2822205722332001
0.77,-0.00279712351039052,-0.007046499755233526,-1.415718674659729,1.6991130113601685,-0.2820928394794464
0.775,-0.007888106629252434,0.0026291413232684135,-1.4163986444473267,1.7009308338165283,-0.2835501730442047
0.78,-0.002404313301667571,0.0013839121675118804,-1.4169621467590332,1.7018665075302124,-0.2834532856941223
0.785,0.004207034595310688,-0.011788676492869854,-1.417851209640503,1.7038716077804565,-0.2850056290626526
0.79,-0.002796186599880457,-0.007105045951902866,-1.4183976650238037,1.704583764076233,-0.2848765254020691
0.795,-0.007913378067314625,0.0026816187892109156,-1.4190633296966553,1.7063982486724854,-0.2863560914993286
0.8,-0.0024142214097082615,0.001430689007975161,-1.419616460800171,1.7073339223861694,-0.28625765442848206
0.805,0.004219618160277605,-0.011872044764459133,-1.4204922914505005,1.7093336582183838,-0.28783226013183594
0.81,-0.0027956156991422176,-0.007163922768086195,-1.4210281372070312,1.710046410560608,-0.2877017557621002
0.8150000000000001,-0.007939273491501808,0.0027339025400578976,-1.4216785430908203,1.7118560075759888,-0.2892040014266968
0.8200000000000001,-0.0024245644453912973,0.0014771039132028818,-1.42221999168396,1.7127922773361206,-0.28910407423973083
0.8250000000000001,0.004232180770486593,-0.011956185102462769,-1.4230817556381226,1.7147876024246216,-0.2907010018825531
0.8300000000000001,-0.002794888336211443,-0.007222975604236126,-1.4236059188842773,1.7154998779296875,-0.2905694246292114
0.835,-0.007964630611240864,0.0027866363525390625,-1.4242403507232666,1.7173043489456177,-0.29209354519844055
0.84,-0.0024342751130461693,0.0015239703934639692,-1.4247709512710571,1.7182409763336182,-0.2919921278953552
0.845,0.004245044197887182,-0.012040577828884125,-1.4256188869476318,1.7202309370040894,-0.293612003326416
0.85,-0.002794486004859209,-0.007282385136932135,-1.4261318445205688,1.7209420204162598,-0.29347869753837585
0.855,-0.00799029041081667,0.0028391859959810972,-1.426750898361206,1.722741723060608,-0.2950249910354614
0.86,-0.002444075420498848,0.0015707144048064947,-1.4272701740264893,1.7236796617507935,-0.2949223816394806
0.865,0.004258262924849987,-0.01212563831359148,-1.4281041622161865,1.7256630659103394,-0.2965642809867859
0.87,-0.002793573774397373,-0.007342210970818996,-1.428605556488037,1.7263730764389038,-0.29643017053604126
0.875,-0.00801521074026823,0.002891728887334466,-1.4292080402374268,1.7281674146652222,-0.2979981005191803
0.88,-0.0024533576797693968,0.0016178649384528399,-1.4297152757644653,1.7291053533554077,-0.2978941798210144
0.885,0.004271714948117733,-0.012210797518491745,-1.4305343627929688,1.731082797050476,-0.2995581030845642
0.89,-0.0027931295335292816,-0.007402101065963507,-1.431024193763733,1.7317928075790405,-0.2994229197502136
0.895,-0.008040781132876873,0.002944372594356537,-1.4316109418869019,1.7335819005966187,-0.3010132312774658
0.9,-0.0024628478568047285,0.0016646371223032475,-1.4321064949035645,1.7345187664031982,-0.30090755224227905
0.905,0.0042855264618992805,-0.012296965345740318,-1.4329116344451904,1.7364901304244995,-0.3025939464569092
0.91,-0.0027923095040023327,-0.007462378591299057,-1.43338942527771,1.7371984720230103,-0.30245691537857056
0.915,-0.008065673522651196,0.0029971529729664326,-1.4339593648910522,1.7389813661575317,-0.3040691018104553
0.92,-0.0024717894848436117,0.0017119008116424084,-1.4344425201416016,1.7399187088012695,-0.3039625287055969
0.925,0.004299595952033997,-0.012383108958601952,-1.4352320432662964,1.7418831586837769,-0.30567091703414917
0.93,-0.002791743725538254,-0.007522766478359699,-1.4356971979141235,1.7425895929336548,-0.30553343892097473
0.935,-0.008090884424746037,0.003049751278012991,-1.4362504482269287,1.7443665266036987,-0.3071667551994324
0.9400000000000001,-0.002480815164744854,0.0017588146729394794,-1.436721682548523,1.7453038692474365,-0.3070591986179352
0.9450000000000001,0.004313920624554157,-0.012469891458749771,-1.437496304512024,1.7472609281539917,-0.30878937244415283
0.9500000000000001,-0.002791021950542927,-0.0075833676382899284,-1.4379494190216064,1.7479655742645264,-0.308650940656662
0.9550000000000001,-0.00811571255326271,0.0031025197822600603,-1.4384857416152954,1.749735951423645,-0.31030556559562683
0.96,-0.002489435952156782,0.0018059494905173779,-1.4389442205429077,1.7506722211837769,-0.3101966977119446
0.965,0.004328635986894369,-0.012557020410895348,-1.4397034645080566,1.7526226043701172,-0.311949223279953
0.97,-0.002790321595966816,-0.007644345983862877,-1.4401437044143677,1.7533255815505981,-0.31180909276008606
0.975,-0.008140688762068748,0.0031549956183880568,-1.4406626224517822,1.7550889253616333,-0.31348609924316406
0.98,-0.0024981098249554634,0.001852922490797937,-1.4411085844039917,1.7560244798660278,-0.3133755326271057
0.985,0.0043434863910079,-0.012644483707845211,-1.4418524503707886,1.7579669952392578,-0.31514987349510193
0.99,-0.002789646852761507,-0.007705328986048698,-1.4422800540924072,1.7586673498153687,-0.31500887870788574
0.995,-0.008165395818650723,0.0032075028866529465,-1.4427813291549683,1.7604241371154785,-0.31670746207237244
1.0,-0.002506466582417488,0.0019000847823917866,-1.443213939666748,1.7613587379455566,-0.31659552454948425
1.0050000000000001,0.004358827602118254,-0.012732128612697124,-1.4439414739608765,1.7632933855056763,-0.3183920085430145
1.01,-0.0027887749020010233,-0.007766325958073139,-1.444355845451355,1.7639915943145752,-0.3182494044303894
1.0150000000000001,-0.008189900778234005,0.0032600481063127518,-1.4448399543762207,1.7657415866851807,-0.31996941566467285
1.02,-0.0025144198443740606,0.0019469230901449919,-1.4452602863311768,1.7666751146316528,-0.3198564350605011
1.025,0.004374615848064423,-0.012820456176996231,-1.4459720849990845,1.7686007022857666,-0.321674644947052
1.03,-0.0027879001572728157,-0.007827818393707275,-1.4463731050491333,1.7692952156066895,-0.3215309679508209
1.035,-0.008214646950364113,0.0033124382607638836,-1.4468389749526978,1.7710384130477905,-0.32327237725257874
1.04,-0.002522619441151619,0.001993853598833084,-1.4472453594207764,1.7719708681106567,-0.32315805554389954
1.045,0.004390638321638107,-0.012909112498164177,-1.4479403495788574,1.7738871574401855,-0.3249976634979248
1.05,-0.0027869874611496925,-0.007889180444180965,-1.4483277797698975,1.7745789289474487,-0.32485297322273254
1.055,-0.008239132352173328,0.003364936215803027,-1.4487758874893188,1.77631413936615,-0.32661595940589905
1.06,-0.0025302860885858536,0.002040534745901823,-1.4491691589355469,1.777245044708252,-0.3265000879764557
1.065,0.004407109227031469,-0.012997981160879135,-1.449847936630249,1.77915358543396,-0.3283618688583374
1.07,-0.002786212135106325,-0.007950367406010628,-1.4502220153808594,1.7798421382904053,-0.3282158076763153
1.075,-0.008263721130788326,0.0034173508174717426,-1.4506508111953735,1.7815676927566528,-0.3299996256828308
1.08,-0.002537825144827366,0.0020870291627943516,-1.4510301351547241,1.7824976444244385,-0.329882949590683
1.085,0.004423982929438353,-0.013087185099720955,-1.4516921043395996,1.7843974828720093,-0.3317660689353943
1.09,-0.0027853618375957012,-0.008011652156710625,-1.452052116394043,1.7850821018218994,-0.3316188156604767
1.095,-0.008288184180855751,0.003469523973762989,-1.4524625539779663,1.7867993116378784,-0.3334241509437561
1.1,-0.002545218914747238,0.0021333503536880016,-1.4528279304504395,1.7877264022827148,-0.3333054482936859
1.105,0.004441316705197096,-0.013176686130464077,-1.4534733295440674,1.789617657661438,-0.3352104723453522
1.11,-0.0027842139825224876,-0.00807294249534607,-1.453819751739502,1.7902992963790894,-0.3350619077682495
1.115,-0.008312341757118702,0.0035216298419982195,-1.4542111158370972,1.7920069694519043,-0.3368883728981018
1.12,-0.002552378224208951,0.0021795392967760563,-1.4545624256134033,1.7929322719573975,-0.33676835894584656
1.125,0.0044587356969714165,-0.013266271911561489,-1.4551905393600464,1.794813632965088,-0.33869442343711853
1.1300000000000001,-0.002783428877592087,-0.00813419558107853,-1.455522060394287,1.7954902648925781,-0.33854472637176514
1.135,-0.008336729370057583,0.00357336038723588,-1.4558944702148438,1.7971898317337036,-0.34039241075515747
1.1400000000000001,-0.002559350337833166,0.0022252683993428946,-1.4562315940856934,1.798113465309143,-0.34027108550071716
1.145,0.004476940259337425,-0.01335618644952774,-1.4568421840667725,1.7999842166900635,-0.3422186076641083
1.1500000000000001,-0.002782074036076665,-0.008195320144295692,-1.457159161567688,1.800656795501709,-0.3420678377151489
1.155,-0.008360742591321468,0.003625225741416216,-1.4575122594833374,1.8023464679718018,-0.3439357876777649
1.16,-0.0025662046391516924,0.002271064557135105,-1.4578349590301514,1.8032678365707397,-0.34381383657455444
1.165,0.004495328292250633,-0.013446351513266563,-1.4584277868270874,1.8051279783248901,-0.34578222036361694
1.17,-0.0027809632010757923,-0.008256558328866959,-1.4587304592132568,1.8057960271835327,-0.3456302881240845
1.175,-0.008384893648326397,0.003676667809486389,-1.45906400680542,1.8074766397476196,-0.34751901030540466
1.18,-0.0025727744214236736,0.00231643277220428,-1.4593716859817505,1.808394432067871,-0.3473950922489166
1.185,0.004514396656304598,-0.01353661809116602,-1.4599465131759644,1.810243844985962,-0.3493849039077759
1.19,-0.0027796782087534666,-0.008317518047988415,-1.4602341651916504,1.8109079599380493,-0.3492316007614136
1.195,-0.008409153670072556,0.003728039562702179,-1.4605481624603271,1.8125795125961304,-0.35114139318466187
1.2,-0.002579432912170887,0.00236144894734025,-1.460841178894043,1.813494324684143,-0.3510165810585022
1.205,0.0045337919145822525,-0.013627205975353718,-1.4613983631134033,1.815332293510437,-0.35302671790122986
1.21,-0.0027781962417066097,-0.00837837066501379,-1.4616713523864746,1.8159911632537842,-0.3528728783130646
1.215,-0.008432977832853794,0.0037793628871440887,-1.4619653224945068,1.817651391029358,-0.3548023998737335
1.22,-0.0025854120030999184,0.0024062693119049072,-1.4622429609298706,1.8185631036758423,-0.35467633605003357
1.225,0.004553966224193573,-0.013717804104089737,-1.4627817869186401,1.8203904628753662,-0.3567074239253998
1.23,-0.0027765813283622265,-0.008439011871814728,-1.4630392789840698,1.8210445642471313,-0.3565521836280823
1.235,-0.00845695286989212,0.0038303013425320387,-1.4633127450942993,1.8226948976516724,-0.3585023283958435
1.24,-0.002591522876173258,0.002450566738843918,-1.4635752439498901,1.8236033916473389,-0.3583746552467346
1.245,0.0045743901282548904,-0.013808590359985828,-1.4640955924987793,1.8254189491271973,-0.3604269027709961
1.25,-0.002774935681372881,-0.008499572053551674,-1.4643380641937256,1.826067328453064,-0.36027032136917114
1.2550000000000001,-0.008480893447995186,0.003880903823301196,-1.4645916223526,1.8277066946029663,-0.36224061250686646
1.26,-0.002597443526610732,0.002494541695341468,-1.4648386240005493,1.8286104202270508,-0.3621113896369934
1.2650000000000001,0.004595504142343998,-0.013899464160203934,-1.4653400182724,1.8304145336151123,-0.3641842007637024
1.27,-0.0027730860747396946,-0.008559677749872208,-1.4655663967132568,1.8310577869415283,-0.3640264570713043
1.2750000000000001,-0.008504855446517467,0.003931472543627024,-1.4657989740371704,1.832686185836792,-0.3660166263580322
1.28,-0.002603213768452406,0.0025379208382219076,-1.4660303592681885,1.833586573600769,-0.3658866286277771
1.285,0.00461692875251174,-0.013990494422614574,-1.4665130376815796,1.8353779315948486,-0.3679795265197754
1.29,-0.0027714301832020283,-0.008619549684226513,-1.466724157333374,1.8360151052474976,-0.3678207993507385
1.295,-0.008528780192136765,0.003981585148721933,-1.4669359922409058,1.8376317024230957,-0.36983075737953186
1.3,-0.002608628012239933,0.002580867614597082,-1.4671515226364136,1.8385281562805176,-0.36969950795173645
1.305,0.004639223217964172,-0.01408147532492876,-1.4676154851913452,1.8403078317642212,-0.3718124032020569
1.31,-0.0027691852301359177,-0.008679189719259739,-1.467810869216919,1.8409388065338135,-0.37165218591690063
1.315,-0.008552626706659794,0.00403161346912384,-1.4680018424987793,1.8425432443618774,-0.3736822307109833
1.32,-0.0026140890549868345,0.002623560605570674,-1.4682015180587769,1.8434358835220337,-0.37354975938796997
1.325,0.0046619148924946785,-0.014172409661114216,-1.468645691871643,1.8452019691467285,-0.3756827116012573
1.33,-0.0027669360861182213,-0.008738412521779537,-1.468824028968811,1.8458266258239746,-0.3755215108394623
1.335,-0.008576490916311741,0.004081311635673046,-1.4689934253692627,1.8474200963974,-0.3775707483291626
1.34,-0.0026192585937678814,0.0026655904948711395,-1.4691771268844604,1.8483084440231323,-0.3774369955062866
1.345,0.0046853539533913136,-0.014263490214943886,-1.4696028232574463,1.850061297416687,-0.3795900046825409
1.35,-0.0027646056842058897,-0.00879731960594654,-1.4697659015655518,1.850678563117981,-0.37942740321159363
1.355,-0.008600390516221523,0.004130335990339518,-1.4699145555496216,1.8522592782974243,-0.38149625062942505
1.36,-0.0026244947221130133,0.0027070054784417152,-1.4700814485549927,1.853143334388733,-0.38136082887649536
1.365,0.00470912829041481,-0.014354318380355835,-1.4704866409301758,1.8548836708068848,-0.3835337460041046
1.37,-0.0027618408203125,-0.008855991996824741,-1.470632791519165,1.8554949760437012,-0.3833702802658081
1.375,-0.008624101057648659,0.004179385490715504,-1.4707592725753784,1.8570621013641357,-0.3854581415653229
1.3800000000000001,-0.0026293927803635597,0.002748304046690464,-1.4709099531173706,1.8579405546188354,-0.3853217661380768
1.385,0.00473374966531992,-0.01444500032812357,-1.471295714378357,1.8596667051315308,-0.3875136971473694
1.3900000000000001,-0.0027592801488935947,-0.008913865312933922,-1.4714256525039673,1.8602707386016846,-0.38734883069992065
1.395,-0.00864812545478344,0.004227854311466217,-1.4715310335159302,1.8618261814117432,-0.3894557058811188
1.4000000000000001,-0.002634193282574415,0.0027884631417691708,-1.4716649055480957,1.8626998662948608,-0.38931795954704285
1.405,0.0047589680179953575,-0.01453564316034317,-1.4720306396484375,1.8644121885299683,-0.3915296792984009
1.41,-0.0027562419418245554,-0.008971353992819786,-1.472143530845642,1.8650084733963013,-0.3913637101650238
1.415,-0.008671976625919342,0.004276087507605553,-1.4722267389297485,1.866550087928772,-0.3934888243675232
1.42,-0.0026389334816485643,0.002828215714544058,-1.472344160079956,1.867418646812439,-0.3933497667312622
1.425,0.004784822929650545,-0.014626278541982174,-1.4726896286010742,1.869116187095642,-0.39558055996894836
1.43,-0.0027529823128134012,-0.009028646163642406,-1.4727858304977417,1.8697055578231812,-0.3954136073589325
1.435,-0.008695748634636402,0.004323701839894056,-1.4728466272354126,1.871233344078064,-0.3975573778152466
1.44,-0.0026434259489178658,0.0028674411587417126,-1.4729472398757935,1.872097134590149,-0.3974173069000244
1.445,0.004811559803783894,-0.014716594479978085,-1.4732728004455566,1.873780608177185,-0.39966657757759094
1.45,-0.0027492395602166653,-0.009085433557629585,-1.4733519554138184,1.8743609189987183,-0.3994986116886139
1.455,-0.008719547651708126,0.004371001850813627,-1.4733909368515015,1.8758748769760132,-0.40166011452674866
1.46,-0.0026478643994778395,0.002905980683863163,-1.4734746217727661,1.8767340183258057,-0.40151917934417725
1.465,0.004838745575398207,-0.014806652441620827,-1.4737797975540161,1.8784018754959106,-0.4037868082523346
1.47,-0.0027457554824650288,-0.009141524322330952,-1.4738415479660034,1.878973364830017,-0.40361738204956055
1.475,-0.008743519894778728,0.004417594987899065,-1.473858118057251,1.8804731369018555,-0.4057973623275757
1.48,-0.002652095165103674,0.0029436666518449783,-1.4739240407943726,1.88132643699646,-0.4056546986103058
1.485,0.004866806324571371,-0.014896241948008537,-1.4742079973220825,1.8829792737960815,-0.40794169902801514
1.49,-0.0027416832745075226,-0.009197009727358818,-1.474252462387085,1.8835432529449463,-0.40777072310447693
1.495,-0.00876742321997881,0.004463788587599993,-1.474246621131897,1.8850288391113281,-0.40996843576431274
1.5,-0.002656342927366495,0.002980790100991726,-1.4742954969406128,1.8858752250671387,-0.4098246395587921
1.5050000000000001,0.004895510617643595,-0.014985587447881699,-1.4745591878890991,1.887512445449829,-0.4121292531490326
1.51,-0.002737265545874834,-0.009251981973648071,-1.4745867252349854,1.8880683183670044,-0.4119577705860138
1.5150000000000001,-0.008791242726147175,0.004509609192609787,-1.4745583534240723,1.8895388841629028,-0.4141724109649658
1.52,-0.002660561352968216,0.0030173903796821833,-1.474589467048645,1.890378475189209,-0.4140278398990631
1.5250000000000001,0.004924910608679056,-0.015074815601110458,-1.4748320579528809,1.892000675201416,-0.41635003685951233
1.53,-0.00273281242698431,-0.009306625463068485,-1.4748421907424927,1.892548680305481,-0.41617727279663086
1.5350000000000001,-0.00881548784673214,0.004554749932140112,-1.4747909307479858,1.8940032720565796,-0.4184094965457916
1.54,-0.0026646838523447514,0.0030528923962265253,-1.4748045206069946,1.89483642578125,-0.41826334595680237
1.545,0.004955170210450888,-0.015163448639214039,-1.4750263690948486,1.896442174911499,-0.4206034541130066
1.55,-0.0027277388144284487,-0.009360280819237232,-1.4750185012817383,1.8969804048538208,-0.42042940855026245
1.555,-0.00883927009999752,0.0045994422398507595,-1.4749438762664795,1.8984194993972778,-0.42267826199531555
1.56,-0.0026684850454330444,0.0030879394616931677,-1.4749397039413452,1.8992475271224976,-0.4225310981273651
1.565,0.004986245650798082,-0.01525159738957882,-1.4751402139663696,1.900836706161499,-0.42488789558410645
1.57,-0.002722611650824547,-0.009413514286279678,-1.4751148223876953,1.901364803314209,-0.4247128963470459
1.575,-0.00886356458067894,0.004643217660486698,-1.47501802444458,1.902788758277893,-0.42697858810424805
1.58,-0.0026725674979388714,0.003121863817796111,-1.4749960899353027,1.903609037399292,-0.4268304705619812
1.585,0.005018079187721014,-0.015339397825300694,-1.4751754999160767,1.9051810503005981,-0.4292038381099701
1.59,-0.0027169384993612766,-0.009465798735618591,-1.475131869316101,1.9057000875473022,-0.4290282428264618
1.595,-0.00888760481029749,0.004686841741204262,-1.4750114679336548,1.9071080684661865,-0.43130946159362793
1.6,-0.0026763328351080418,0.003155301557853818,-1.4749717712402344,1.9079227447509766,-0.4311605393886566
1.605,0.0050507462583482265,-0.015426580794155598,-1.4751293659210205,1.909476399421692,-0.433550626039505
1.61,-0.0027110164519399405,-0.009517749771475792,-1.4750680923461914,1.9099853038787842,-0.4333735704421997
1.615,-0.008911959826946259,0.004729500971734524,-1.474924921989441,1.9113776683807373,-0.43567124009132385
1.62,-0.0026803696528077126,0.0031880689784884453,-1.4748671054840088,1.9121845960617065,-0.43552061915397644
1.625,0.0050841886550188065,-0.015512969344854355,-1.4750030040740967,1.9137212038040161,-0.43792736530303955
1.6300000000000001,-0.002704476471990347,-0.009568896144628525,-1.474923849105835,1.9142210483551025,-0.4377496838569641
1.635,-0.008936041966080666,0.004771376494318247,-1.474757194519043,1.9155960083007812,-0.440062016248703
1.6400000000000001,-0.002684147795662284,0.003219607751816511,-1.4746809005737305,1.9163944721221924,-0.4399106204509735
1.645,0.005118411034345627,-0.015599073842167854,-1.4747953414916992,1.917913794517517,-0.4423331916332245
1.6500000000000001,-0.002697947435081005,-0.009619188494980335,-1.4746983051300049,1.91840398311615,-0.4421539306640625
1.655,-0.008960483595728874,0.004812759347259998,-1.4745084047317505,1.919762372970581,-0.4444824755191803
1.6600000000000001,-0.0026877797208726406,0.003250458277761936,-1.4744141101837158,1.9205533266067505,-0.4443296194076538
1.665,0.005153687670826912,-0.01568414643406868,-1.4745070934295654,1.922054409980774,-0.44676774740219116
1.67,-0.0026908363215625286,-0.00966866035014391,-1.4743919372558594,1.9225338697433472,-0.4465876519680023
1.675,-0.008985062129795551,0.004853171296417713,-1.4741780757904053,1.9238741397857666,-0.4489302933216095
1.68,-0.00269174762070179,0.003280085977166891,-1.4740654230117798,1.9246578216552734,-0.4487769901752472
1.685,0.005189517512917519,-0.015768887475132942,-1.4741367101669312,1.9261409044265747,-0.45123010873794556
1.69,-0.002683396451175213,-0.009717576205730438,-1.4740031957626343,1.9266098737716675,-0.4510486125946045
1.695,-0.009009551256895065,0.004893130622804165,-1.4737657308578491,1.9279320240020752,-0.45340609550476074
1.7,-0.0026952880434691906,0.0033094489481300116,-1.4736342430114746,1.9287077188491821,-0.45325154066085815
1.705,0.005226784385740757,-0.0158524252474308,-1.4736835956573486,1.9301724433898926,-0.4557192623615265
1.71,-0.0026752292178571224,-0.00976534839719534,-1.4735320806503296,1.9306304454803467,-0.45553743839263916
1.715,-0.009034212678670883,0.004932243376970291,-1.4732710123062134,1.9319344758987427,-0.45790863037109375
1.72,-0.0026992708444595337,0.00333766033872962,-1.4731214046478271,1.9327023029327393,-0.4577528238296509
1.725,0.005264285486191511,-0.015935325995087624,-1.4731489419937134,1.9341477155685425,-0.46023526787757874
1.73,-0.0026669646613299847,-0.009812748990952969,-1.472978949546814,1.9345946311950684,-0.4600515067577362
1.735,-0.009058794938027859,0.004970100242644548,-1.4726945161819458,1.9358806610107422,-0.4624366760253906
1.74,-0.0027028582990169525,0.0033648209646344185,-1.4725263118743896,1.936639428138733,-0.4622798562049866
1.745,0.005303208716213703,-0.01601729542016983,-1.472531795501709,1.9380662441253662,-0.4647764265537262
1.75,-0.0026580593548715115,-0.009858958423137665,-1.4723433256149292,1.9385021924972534,-0.4645920991897583
1.7550000000000001,-0.009083841927349567,0.005007464438676834,-1.4720345735549927,1.9397690296173096,-0.4669901728630066
1.76,-0.0027069412171840668,0.003391053294762969,-1.4718475341796875,1.9405196905136108,-0.46683254837989807
1.7650000000000001,0.005342680495232344,-0.016098273918032646,-1.471831202507019,1.9419267177581787,-0.46934232115745544
1.77,-0.0026486371643841267,-0.009904356673359871,-1.4716249704360962,1.9423518180847168,-0.46915677189826965
1.7750000000000001,-0.009108364582061768,0.005043919663876295,-1.4712934494018555,1.9436001777648926,-0.4715673625469208
1.78,-0.002710380358621478,0.003416636725887656,-1.4710880517959595,1.9443416595458984,-0.47140923142433167
1.7850000000000001,0.00538333784788847,-0.016178231686353683,-1.471049427986145,1.945727825164795,-0.4739319086074829
1.79,-0.002639014972373843,-0.009949229657649994,-1.4708240032196045,1.9461404085159302,-0.4737456440925598
1.795,-0.009133942425251007,0.005079290829598904,-1.4704679250717163,1.947369933128357,-0.4761682152748108
1.8,-0.0027147247456014156,0.0034410073421895504,-1.4702434539794922,1.9481033086776733,-0.4760090708732605
1.805,0.005424886476248503,-0.016257330775260925,-1.4701827764511108,1.949470043182373,-0.478544145822525
1.81,-0.0026283508632332087,-0.009992921724915504,-1.4699397087097168,1.9498709440231323,-0.4783572852611542
1.815,-0.009158594533801079,0.005113763734698296,-1.4695603847503662,1.951080322265625,-0.48079153895378113
1.82,-0.002718329429626465,0.0034645507112145424,-1.4693174362182617,1.951804518699646,-0.4806317389011383
1.825,0.005467407871037722,-0.016335131600499153,-1.469234585762024,1.9531501531600952,-0.48317864537239075
1.83,-0.002617631107568741,-0.010035797022283077,-1.46897292137146,1.9535397291183472,-0.48299065232276917
1.835,-0.009184068068861961,0.005147379357367754,-1.4685697555541992,1.954729676246643,-0.48543664813041687
1.84,-0.002722442150115967,0.0034870319068431854,-1.468307614326477,1.9554433822631836,-0.4852757453918457
1.845,0.0055108098313212395,-0.016411907970905304,-1.4682023525238037,1.9567679166793823,-0.4878339469432831
1.85,-0.002606225199997425,-0.010077904909849167,-1.467922329902649,1.9571459293365479,-0.4876456558704376
1.855,-0.00920943170785904,0.0051797060295939445,-1.4674952030181885,1.958315372467041,-0.49010196328163147
1.86,-0.0027265832759439945,0.003508583642542362,-1.4672144651412964,1.9590198993682861,-0.48993992805480957
1.865,0.005555076524615288,-0.01648719795048237,-1.4670873880386353,1.9603239297866821,-0.49250975251197815
1.87,-0.002594307530671358,-0.010118923150002956,-1.4667890071868896,1.9606890678405762,-0.4923202693462372
1.875,-0.009234829805791378,0.005211181472986937,-1.4663381576538086,1.9618377685546875,-0.49478694796562195
1.8800000000000001,-0.002730592619627714,0.003529192879796028,-1.466038465499878,1.9625322818756104,-0.4946243464946747
1.885,0.0056005134247243404,-0.016561193391680717,-1.46588933467865,1.963815450668335,-0.49720489978790283
1.8900000000000001,-0.0025817272253334522,-0.010158903896808624,-1.4655723571777344,1.9641680717468262,-0.4970141351222992
1.895,-0.009260346181690693,0.005241612438112497,-1.4650975465774536,1.9652961492538452,-0.49949076771736145
1.9000000000000001,-0.0027349810115993023,0.0035488801077008247,-1.4647794961929321,1.9659818410873413,-0.4993269443511963
1.905,0.005646529141813517,-0.016634026542305946,-1.4646084308624268,1.9672425985336304,-0.5019177198410034
1.9100000000000001,-0.002569027943536639,-0.010198153555393219,-1.4642736911773682,1.967582106590271,-0.5017258524894714
1.915,-0.00928629282861948,0.005270779598504305,-1.463775873184204,1.9686893224716187,-0.5042117238044739
1.92,-0.002739332150667906,0.003567391075193882,-1.4634385108947754,1.9693644046783447,-0.5040473937988281
1.925,0.00569387199357152,-0.016705326735973358,-1.4632446765899658,1.970603108406067,-0.5066470503807068
1.93,-0.002555212937295437,-0.010236370377242565,-1.462890863418579,1.9709304571151733,-0.5064553022384644
1.935,-0.009311972185969353,0.005298963747918606,-1.4623687267303467,1.972015619277954,-0.5089488625526428
1.94,-0.0027437559328973293,0.0035851746797561646,-1.4620128870010376,1.9726800918579102,-0.5087839961051941
1.945,0.005742194596678019,-0.016775282099843025,-1.4617975950241089,1.973897099494934,-0.5113927721977234
1.95,-0.002541008871048689,-0.010273815132677555,-1.4614263772964478,1.97421133518219,-0.5111997127532959
1.955,-0.009338116273283958,0.005326060112565756,-1.460881233215332,1.9752752780914307,-0.513702392578125
1.96,-0.0027484772726893425,0.0036019126418977976,-1.460506796836853,1.9759297370910645,-0.5135360360145569
1.965,0.005791401024907827,-0.016843751072883606,-1.4602689743041992,1.9771229028701782,-0.5161533355712891
1.97,-0.0025260266847908497,-0.010310295037925243,-1.4598792791366577,1.977424144744873,-0.5159591436386108
1.975,-0.009364025667309761,0.005351692903786898,-1.4593108892440796,1.9784669876098633,-0.5184687972068787
1.98,-0.002753246808424592,0.003617666196078062,-1.458917498588562,1.9791107177734375,-0.5183024406433105
1.985,0.005841320846229792,-0.01691053807735443,-1.4586577415466309,1.9802813529968262,-0.5209270715713501
1.99,-0.0025109299458563328,-0.010345738381147385,-1.4582496881484985,1.9805681705474854,-0.5207324624061584
1.995,-0.00939034204930067,0.005376141984015703,-1.4576576948165894,1.9815884828567505,-0.523248553276062
2.0,-0.002757905051112175,0.0036321901716291904,-1.457245945930481,1.982222080230713,-0.5230817198753357
2.005,0.00589275686070323,-0.016975581645965576,-1.4569647312164307,1.9833697080612183,-0.5257132649421692
2.0100000000000002,-0.002494507934898138,-0.010380096733570099,-1.4565387964248657,1.983643651008606,-0.5255180597305298
2.015,-0.009416447021067142,0.005399466957896948,-1.4559234380722046,1.9846404790878296,-0.5280404090881348
2.02,-0.0027630412951111794,0.0036460149567574263,-1.4554928541183472,1.9852628707885742,-0.5278733372688293
2.025,0.0059445444494485855,-0.017039116472005844,-1.4551897048950195,1.9863871335983276,-0.5305106043815613
2.0300000000000002,-0.00247806403785944,-0.010413765907287598,-1.4547456502914429,1.986647367477417,-0.5303149819374084
2.035,-0.009442899376153946,0.005421454086899757,-1.4541070461273193,1.9876219034194946,-0.5328426957130432
2.04,-0.002768049482256174,0.0036588734947144985,-1.453657865524292,1.9882330894470215,-0.5326749086380005
2.045,0.005997799802571535,-0.017100675031542778,-1.4533332586288452,1.989334225654602,-0.5353183150291443
2.05,-0.002460738644003868,-0.010446028783917427,-1.4528717994689941,1.989580512046814,-0.5351220369338989
2.055,-0.00946961622685194,0.005442206282168627,-1.4522104263305664,1.9905319213867188,-0.5376549363136292
2.06,-0.0027737475465983152,0.003670500358566642,-1.4517427682876587,1.9911315441131592,-0.5374861359596252
2.065,0.006051402539014816,-0.017160821706056595,-1.4513962268829346,1.9922082424163818,-0.5401344299316406
2.07,-0.0024429471231997013,-0.010477852076292038,-1.4509167671203613,1.9924410581588745,-0.5399371981620789
2.075,-0.009496238082647324,0.005461584776639938,-1.4502325057983398,1.9933691024780273,-0.5424742102622986
2.08,-0.0027789955493062735,0.003681367728859186,-1.4497469663619995,1.99395751953125,-0.5423053503036499
2.085,0.006106558255851269,-0.017218749970197678,-1.4493792057037354,1.995009422302246,-0.5449579954147339
2.09,-0.0024242836516350508,-0.010508162900805473,-1.4488822221755981,1.9952281713485718,-0.5447602272033691
2.095,-0.009522942826151848,0.0054796296171844006,-1.4481748342514038,1.9961326122283936,-0.5473005771636963
2.1,-0.002784689422696829,0.0036911102943122387,-1.4476702213287354,1.9967087507247925,-0.5471312403678894
2.105,0.006162413861602545,-0.0172750074416399,-1.447281002998352,1.9977370500564575,-0.5497874021530151
2.11,-0.0024049817584455013,-0.010537815280258656,-1.4467666149139404,1.997941493988037,-0.5495898723602295
2.115,-0.009549728594720364,0.00549643998965621,-1.4460369348526,1.9988213777542114,-0.5521323084831238
2.12,-0.002790470141917467,0.0037002265453338623,-1.44551420211792,1.9993860721588135,-0.5519626140594482
2.125,0.006219146307557821,-0.017329009249806404,-1.4451040029525757,2.0003902912139893,-0.5546218156814575
2.13,-0.002385004423558712,-0.010566691868007183,-1.4445724487304688,2.0005810260772705,-0.5544233918190002
2.1350000000000002,-0.009576629847288132,0.0055115255527198315,-1.4438204765319824,2.001436948776245,-0.5569683909416199
2.14,-0.0027966536581516266,0.003708283882588148,-1.4432796239852905,2.0019888877868652,-0.5567983388900757
2.145,0.006276670377701521,-0.01738121174275875,-1.4428480863571167,2.002967119216919,-0.559459388256073
2.15,-0.002364576328545809,-0.010594482533633709,-1.4422996044158936,2.003143310546875,-0.5592604279518127
2.1550000000000002,-0.009603875689208508,0.00552527979016304,-1.4415258169174194,2.0039751529693604,-0.5618067979812622
2.16,-0.002803010167554021,0.0037150965072214603,-1.4409675598144531,2.004516363143921,-0.561636209487915
2.165,0.006335112731903791,-0.017431199550628662,-1.4405149221420288,2.00546932220459,-0.5642990469932556
2.17,-0.0023432495072484016,-0.010620987974107265,-1.4399484395980835,2.0056302547454834,-0.5640996694564819
2.1750000000000003,-0.009630694054067135,0.005537558812648058,-1.4391523599624634,2.0064377784729004,-0.5666462779045105
2.18,-0.002809347352012992,0.003721259767189622,-1.4385762214660645,2.0069661140441895,-0.5664759278297424
2.185,0.006394404452294111,-0.01747894287109375,-1.4381030797958374,2.0078933238983154,-0.5691394209861755
2.19,-0.0023214430548250675,-0.010646836832165718,-1.4375203847885132,2.008040428161621,-0.5689395666122437
2.195,-0.00965794175863266,0.005548364017158747,-1.4367027282714844,2.0088233947753906,-0.5714858770370483
2.2,-0.0028159026987850666,0.003726343158632517,-1.4361085891723633,2.00933837890625,-0.5713152885437012
2.205,0.006454891059547663,-0.017524711787700653,-1.435615062713623,2.010240077972412,-0.5739781260490417
2.21,-0.0022987048141658306,-0.010671492666006088,-1.4350159168243408,2.0103728771209717,-0.5737779140472412
2.215,-0.00968522671610117,0.005557858385145664,-1.4341762065887451,2.0111289024353027,-0.5763236880302429
2.22,-0.0028229644522070885,0.0037304162979125977,-1.43356454372406,2.011631965637207,-0.5761526823043823
2.225,0.006515519693493843,-0.017568320035934448,-1.4330506324768066,2.0125083923339844,-0.5788149237632751
2.23,-0.002275716047734022,-0.01069554127752781,-1.4324346780776978,2.0126261711120605,-0.5786145925521851
2.235,-0.00971253588795662,0.005565567873418331,-1.431573748588562,2.013357639312744,-0.581158459186554
2.24,-0.0028298974502831697,0.00373394344933331,-1.430944800376892,2.013847589492798,-0.580987274646759
2.245,0.006577655673027039,-0.01760922558605671,-1.4304112195968628,2.0146982669830322,-0.5836476683616638
2.25,-0.002251481171697378,-0.010718263685703278,-1.4297794103622437,2.014801025390625,-0.5834468007087708
2.255,-0.009739784523844719,0.005572040565311909,-1.4288976192474365,2.0155060291290283,-0.5859879851341248
2.2600000000000002,-0.002837301231920719,0.0037363097071647644,-1.4282517433166504,2.0159835815429688,-0.5858170390129089
2.265,0.006640065927058458,-0.017648346722126007,-1.427698016166687,2.016807794570923,-0.5884743928909302
2.27,-0.0022270390763878822,-0.010740365833044052,-1.4270496368408203,2.0168957710266113,-0.5882741212844849
2.275,-0.009767165407538414,0.005576628260314465,-1.4261467456817627,2.01757550239563,-0.5908117294311523
2.2800000000000002,-0.0028448281809687614,0.0037379413843154907,-1.4254834651947021,2.0180397033691406,-0.5906407833099365
2.285,0.006703520193696022,-0.017684636637568474,-1.4249099493026733,2.018836259841919,-0.5932947993278503
2.29,-0.002201436087489128,-0.010761383920907974,-1.4242464303970337,2.0189099311828613,-0.5930940508842468
2.295,-0.009794247336685658,0.005579840391874313,-1.4233238697052002,2.019563674926758,-0.5956272482872009
2.3000000000000003,-0.0028524878434836864,0.0037386261392384768,-1.4226442575454712,2.020014524459839,-0.5954565405845642
2.305,0.0067673297598958015,-0.017718659713864326,-1.422050952911377,2.020784378051758,-0.5981065034866333
2.31,-0.0021755897905677557,-0.010781520046293736,-1.4213708639144897,2.0208425521850586,-0.5979052782058716
2.315,-0.009821522049605846,0.005581303965300322,-1.4204274415969849,2.021470785140991,-0.6004341244697571
2.32,-0.0028604178223758936,0.0037384829483926296,-1.4197311401367188,2.0219085216522217,-0.6002631783485413
2.325,0.0068320524878799915,-0.017750130966305733,-1.4191193580627441,2.022651195526123,-0.6029080152511597
2.33,-0.0021490228828042746,-0.01080052088946104,-1.4184242486953735,2.0226950645446777,-0.6027073264122009
2.335,-0.009849069640040398,0.005581400357186794,-1.4174610376358032,2.0232956409454346,-0.6052294969558716
2.34,-0.0028688102029263973,0.003737410996109247,-1.416749119758606,2.0237202644348145,-0.6050584316253662
2.345,0.006897361483424902,-0.017779402434825897,-1.4161186218261719,2.0244367122650146,-0.6076974272727966
2.35,-0.002121556317433715,-0.010818981565535069,-1.4154086112976074,2.0244643688201904,-0.6074967384338379
2.355,-0.009876234456896782,0.005579900462180376,-1.414425253868103,2.025038003921509,-0.610012412071228
2.36,-0.002877075457945466,0.0037357406690716743,-1.413696050643921,2.02544903755188,-0.6098417043685913
2.365,0.006963465828448534,-0.017805911600589752,-1.4130464792251587,2.0261383056640625,-0.6124739646911621
2.37,-0.0020935912616550922,-0.010836265981197357,-1.4123214483261108,2.026150703430176,-0.6122727394104004
2.375,-0.00990358367562294,0.005576569586992264,-1.411319375038147,2.0266973972320557,-0.614781379699707
2.38,-0.002885841764509678,0.0037328728940337896,-1.410575032234192,2.027095079421997,-0.6146108508110046
2.3850000000000002,0.00702990498393774,-0.017829835414886475,-1.4099079370498657,2.027757167816162,-0.6172353625297546
2.39,-0.002064930275082588,-0.010852383449673653,-1.4091684818267822,2.027754545211792,-0.617034375667572
2.395,-0.009930509142577648,0.005571688059717417,-1.4081472158432007,2.0282740592956543,-0.6195343732833862
2.4,-0.0028945491649210453,0.003729378106072545,-1.4073870182037354,2.0286576747894287,-0.6193642020225525
2.4050000000000002,0.007096900139003992,-0.01785114035010338,-1.4067012071609497,2.0292916297912598,-0.6219797134399414
2.41,-0.0020357416942715645,-0.01086815819144249,-1.4059467315673828,2.029273509979248,-0.6217788457870483
2.415,-0.009957857429981232,0.005564969498664141,-1.4049066305160522,2.0297658443450928,-0.6242693066596985
2.42,-0.002903814660385251,0.0037250525783747435,-1.404131293296814,2.0301353931427,-0.6240997910499573
2.4250000000000003,0.00716464314609766,-0.01786988414824009,-1.4034284353256226,2.0307424068450928,-0.6267057657241821
2.43,-0.002005422953516245,-0.010882493108510971,-1.402660608291626,2.0307095050811768,-0.6265054941177368
2.435,-0.00998438335955143,0.005557144992053509,-1.4016023874282837,2.0311739444732666,-0.6289852857589722
2.44,-0.0029128547757864,0.0037202159874141216,-1.4008114337921143,2.031529188156128,-0.6288163661956787
2.445,0.007232660427689552,-0.017885839566588402,-1.4000905752182007,2.0321078300476074,-0.6314124464988708
2.45,-0.0019749710336327553,-0.010896388441324234,-1.399308443069458,2.03205943107605,-0.6312119364738464
2.455,-0.010011561214923859,0.005547108128666878,-1.3982330560684204,2.0324974060058594,-0.6336807608604431
2.46,-0.002922695130109787,0.003714505583047867,-1.397428035736084,2.0328381061553955,-0.6335118412971497
2.465,0.007301162928342819,-0.017899081110954285,-1.3966907262802124,2.033388614654541,-0.6360966563224792
2.47,-0.0019433754496276379,-0.010909270495176315,-1.3958953619003296,2.033324718475342,-0.6358968615531921
2.475,-0.010038141161203384,0.005535827483981848,-1.3948018550872803,2.0337345600128174,-0.6383539438247681
2.48,-0.0029324577189981937,0.0037079290486872196,-1.3939813375473022,2.0340611934661865,-0.6381853222846985
2.485,0.007369875442236662,-0.017909785732626915,-1.3932263851165771,2.0345828533172607,-0.6407577395439148
2.49,-0.0019116728799417615,-0.010921210050582886,-1.3924177885055542,2.0345048904418945,-0.6405578851699829
2.495,-0.010064804926514626,0.0055226548574864864,-1.3913077116012573,2.0348875522613525,-0.6430025100708008
2.5,-0.0029424987733364105,0.0037006945349276066,-1.3904739618301392,2.0351998805999756,-0.6428344249725342
2.505,0.007439158856868744,-0.017917800694704056,-1.389703392982483,2.0356929302215576,-0.6453943252563477
2.5100000000000002,-0.001878900802694261,-0.010932501405477524,-1.3888821601867676,2.0355985164642334,-0.6451944708824158
2.515,-0.010091095231473446,0.005507905967533588,-1.387755274772644,2.0359528064727783,-0.6476248502731323
2.52,-0.002952785696834326,0.0036928439512848854,-1.3869067430496216,2.0362510681152344,-0.6474576592445374
2.525,0.007508568931370974,-0.017922725528478622,-1.3861196041107178,2.0367164611816406,-0.6500030755996704
2.5300000000000002,-0.0018455954268574715,-0.010942754335701466,-1.3852851390838623,2.036606788635254,-0.6498045921325684
2.535,-0.010117173194885254,0.005491538904607296,-1.3841418027877808,2.036933183670044,-0.652219831943512
2.54,-0.002963155973702669,0.003684333758428693,-1.3832805156707764,2.037216901779175,-0.6520538926124573
2.545,0.007578389719128609,-0.017924895510077477,-1.38247811794281,2.0376527309417725,-0.6545840501785278
2.5500000000000003,-0.0018117367289960384,-0.010952115058898926,-1.3816317319869995,2.037527084350586,-0.654385507106781
2.555,-0.01014319621026516,0.005473342724144459,-1.3804727792739868,2.0378260612487793,-0.6567854881286621
2.56,-0.0029741046018898487,0.003674877807497978,-1.3795980215072632,2.0380959510803223,-0.6566198468208313
2.565,0.007647944614291191,-0.017924539744853973,-1.3787802457809448,2.038503408432007,-0.6591344475746155
2.57,-0.0017773634754121304,-0.010960879735648632,-1.3779218196868896,2.038362741470337,-0.658936619758606
2.575,-0.010168719105422497,0.005453514866530895,-1.3767476081848145,2.0386335849761963,-0.661320149898529
2.58,-0.00298480736091733,0.003664921270683408,-1.3758597373962402,2.0388872623443604,-0.6611553430557251
2.585,0.007717978209257126,-0.017921123653650284,-1.3750271797180176,2.0392651557922363,-0.6636532545089722
2.59,-0.0017424671677872539,-0.010968595743179321,-1.374157428741455,2.0391108989715576,-0.663455605506897
2.595,-0.010194254107773304,0.005432215519249439,-1.3729677200317383,2.0393526554107666,-0.6658217310905457
2.6,-0.0029960256069898605,0.0036545200273394585,-1.372066855430603,2.0395917892456055,-0.6656584143638611
2.605,0.007788259536027908,-0.017915058881044388,-1.3712198734283447,2.0399422645568848,-0.6681382656097412
2.61,-0.0017067091539502144,-0.01097557321190834,-1.3703389167785645,2.0397720336914062,-0.6679414510726929
2.615,-0.010219496674835682,0.005409282632172108,-1.3691349029541016,2.0399844646453857,-0.6702896952629089
2.62,-0.0030075465328991413,0.003643137402832508,-1.3682222366333008,2.0402092933654785,-0.6701264381408691
2.625,0.007858097553253174,-0.01790611632168293,-1.367361068725586,2.04052996635437,-0.6725877523422241
2.63,-0.0016706156311556697,-0.010981687344610691,-1.3664686679840088,2.04034423828125,-0.6723920702934265
2.6350000000000002,-0.010244124568998814,0.005384613759815693,-1.3652504682540894,2.040529251098633,-0.6747205853462219
2.64,-0.003018932417035103,0.0036315079778432846,-1.3643256425857544,2.0407392978668213,-0.674558699131012
2.645,0.007928382605314255,-0.017894288524985313,-1.3634510040283203,2.0410311222076416,-0.6770004630088806
2.65,-0.0016338416608050466,-0.01098712533712387,-1.362548589706421,2.040830373764038,-0.6768056750297546
2.6550000000000002,-0.010268695652484894,0.00535826850682497,-1.3613169193267822,2.0409862995147705,-0.6791139841079712
2.66,-0.003030812833458185,0.0036189358215779066,-1.3603802919387817,2.0411806106567383,-0.6789526343345642
2.665,0.007998274639248848,-0.017879711464047432,-1.3594921827316284,2.0414443016052246,-0.6813743114471436
2.67,-0.0015965414931997657,-0.010991603136062622,-1.358579158782959,2.0412282943725586,-0.6811800599098206
2.6750000000000003,-0.01029269676655531,0.005330557003617287,-1.3573342561721802,2.041356086730957,-0.6834681034088135
2.68,-0.0030426247976720333,0.0036059985868632793,-1.356386661529541,2.0415353775024414,-0.6833076477050781
2.685,0.008068220689892769,-0.01786224916577339,-1.355486273765564,2.0417697429656982,-0.6857078075408936
2.69,-0.0015587147790938616,-0.010995516553521156,-1.3545637130737305,2.041539192199707,-0.6855141520500183
2.695,-0.010316422209143639,0.005300853401422501,-1.3533059358596802,2.0416371822357178,-0.687780499458313
2.7,-0.003054897766560316,0.0035923076793551445,-1.3523473739624023,2.041802167892456,-0.6876213550567627
2.705,0.008137864992022514,-0.017842024564743042,-1.351434350013733,2.0420081615448,-0.6899994611740112
2.71,-0.0015204603550955653,-0.010998351499438286,-1.3505017757415771,2.041761636734009,-0.689807116985321
2.715,-0.01033974252641201,0.005269837100058794,-1.3492316007614136,2.0418312549591064,-0.6920505166053772
2.72,-0.003067287616431713,0.0035780721809715033,-1.3482624292373657,2.041980743408203,-0.6918922662734985
2.725,0.008207240141928196,-0.017819037660956383,-1.347337007522583,2.0421574115753174,-0.6942472457885742
2.73,-0.001481587765738368,-0.011000600643455982,-1.3463952541351318,2.041895866394043,-0.6940557360649109
2.735,-0.010362444445490837,0.005237268749624491,-1.3451136350631714,2.0419371128082275,-0.6962758302688599
2.74,-0.0030797026120126247,0.0035635377280414104,-1.34413480758667,2.042072057723999,-0.6961188912391663
2.745,0.008276415057480335,-0.01779310777783394,-1.343198299407959,2.0422191619873047,-0.6984493732452393
2.75,-0.0014423346146941185,-0.011002217419445515,-1.342248558998108,2.0419435501098633,-0.6982593536376953
2.755,-0.010384871624410152,0.005202898755669594,-1.3409559726715088,2.0419559478759766,-0.700454592704773
2.7600000000000002,-0.003092464990913868,0.0035483420360833406,-1.3399667739868164,2.042074203491211,-0.7002990245819092
2.765,0.008345368318259716,-0.017764337360858917,-1.3390182256698608,2.0421926975250244,-0.7026046514511108
2.77,-0.0014024055562913418,-0.01100262813270092,-1.3380590677261353,2.041902780532837,-0.7024157047271729
2.775,-0.010406740941107273,0.0051673343405127525,-1.336755394935608,2.041886806488037,-0.7045861482620239
2.7800000000000002,-0.003105361247435212,0.003532417118549347,-1.3357574939727783,2.041990280151367,-0.7044315338134766
2.785,0.008413508534431458,-0.01773303747177124,-1.3347995281219482,2.0420799255371094,-0.7067115902900696
2.79,-0.001362512120977044,-0.011002548970282078,-1.3338327407836914,2.041774034500122,-0.7065236568450928
2.795,-0.01042815949767828,0.005130064208060503,-1.3325185775756836,2.0417287349700928,-0.7086678147315979
2.8000000000000003,-0.003118326421827078,0.0035162451677024364,-1.331511378288269,2.041818380355835,-0.7085146903991699
2.805,0.008481563068926334,-0.017698753625154495,-1.3305420875549316,2.0418782234191895,-0.7107689380645752
2.81,-0.001321614719927311,-0.01100174430757761,-1.329567313194275,2.041558027267456,-0.7105812430381775
2.815,-0.010448679327964783,0.005091325379908085,-1.3282431364059448,2.0414836406707764,-0.7126988172531128
2.82,-0.0031312908977270126,0.003499527694657445,-1.3272275924682617,2.041557788848877,-0.7125468850135803
2.825,0.008548950776457787,-0.01766180992126465,-1.3262494802474976,2.0415899753570557,-0.7147734761238098
2.83,-0.0012808297760784626,-0.011000209487974644,-1.325268030166626,2.041254997253418,-0.7145877480506897
2.835,-0.010469295084476471,0.005050996318459511,-1.3239352703094482,2.041152000427246,-0.716677188873291
2.84,-0.003144989488646388,0.0034822802990674973,-1.322911262512207,2.041210174560547,-0.7165265679359436
2.845,0.008615645579993725,-0.017622247338294983,-1.3219226598739624,2.041212558746338,-0.7187248468399048
2.85,-0.0012393558863550425,-0.010997669771313667,-1.3209335803985596,2.040863275527954,-0.7185400724411011
2.855,-0.010488688014447689,0.005009612534195185,-1.3195912837982178,2.040731906890869,-0.720601499080658
2.86,-0.003157924860715866,0.003464614972472191,-1.3185595273971558,2.0407755374908447,-0.7204525470733643
2.865,0.008682169020175934,-0.017579760402441025,-1.3175625801086426,2.0407497882843018,-0.722621500492096
2.87,-0.0011976314708590508,-0.010994329117238522,-1.3165675401687622,2.0403857231140137,-0.7224381566047668
2.875,-0.010507791303098202,0.004966378211975098,-1.3152174949645996,2.04022479057312,-0.7244699001312256
2.88,-0.003171708434820175,0.003446213435381651,-1.3141788244247437,2.0402541160583496,-0.7243229746818542
2.8850000000000002,0.008747273124754429,-0.017534777522087097,-1.3131732940673828,2.040198802947998,-0.7264618277549744
2.89,-0.0011555654928088188,-0.010990596376359463,-1.312171220779419,2.039820432662964,-0.726280152797699
2.895,-0.010525966994464397,0.00492184329777956,-1.3108134269714355,2.039632558822632,-0.7282817363739014
2.9,-0.0031852980609983206,0.0034278687089681625,-1.309767484664917,2.0396456718444824,-0.7281361222267151
2.9050000000000002,0.008812041953206062,-0.01748700998723507,-1.3087538480758667,2.0395615100860596,-0.7302441000938416
2.91,-0.0011132436338812113,-0.010985996574163437,-1.3077462911605835,2.0391690731048584,-0.7300640344619751
2.915,-0.01054382137954235,0.004875857848674059,-1.3063808679580688,2.0389513969421387,-0.7320346832275391
2.92,-0.0031992061994969845,0.0034086965024471283,-1.3053282499313354,2.038950204849243,-0.7318903803825378
2.9250000000000003,0.008876052685081959,-0.01743687316775322,-1.3043071031570435,2.038837432861328,-0.733967125415802
2.93,-0.0010705036111176014,-0.010980378836393356,-1.3032939434051514,2.038430690765381,-0.7337886691093445
2.935,-0.010560709983110428,0.00482874596491456,-1.30192232131958,2.0381858348846436,-0.7357280254364014
2.94,-0.0032129010651260614,0.0033889724873006344,-1.3008637428283691,2.0381689071655273,-0.7355853319168091
2.945,0.008938966318964958,-0.01738414354622364,-1.299835205078125,2.03802752494812,-0.737630307674408
2.95,-0.0010276194661855698,-0.010974292643368244,-1.298816442489624,2.037606716156006,-0.7374529838562012
2.955,-0.01057677622884512,0.004780121147632599,-1.2974379062652588,2.0373337268829346,-0.7393598556518555
2.96,-0.0032266825437545776,0.0033691786229610443,-1.2963736057281494,2.037301778793335,-0.7392187714576721
2.965,0.009001077152788639,-0.017328523099422455,-1.2953388690948486,2.0371313095092773,-0.741230845451355
2.97,-0.0009845530148595572,-0.010967288166284561,-1.2943161725997925,2.0366969108581543,-0.7410552501678467
2.975,-0.010592468082904816,0.004730267450213432,-1.2929322719573975,2.03639554977417,-0.7429291009902954
2.98,-0.0032407576218247414,0.0033486471511423588,-1.2918624877929688,2.036349058151245,-0.7427897453308105
2.985,0.009062270633876324,-0.017270922660827637,-1.2908207178115845,2.0361502170562744,-0.7447681427001953
2.99,-0.0009412122890353203,-0.010959530249238014,-1.289792776107788,2.0357015132904053,-0.7445937991142273
2.995,-0.010607149451971054,0.004679238423705101,-1.2884031534194946,2.0353715419769287,-0.7464339137077332
3.0,-0.003254611510783434,0.003327755955979228,-1.2873286008834839,2.0353097915649414,-0.7462962865829468
3.005,0.009122614748775959,-0.017210835590958595,-1.2862814664840698,2.0350825786590576,-0.7482401132583618
3.0100000000000002,-0.0008976112585514784,-0.010951153002679348,-1.285250186920166,2.034621000289917,-0.7480679154396057
3.015,-0.010621066205203533,0.004626992158591747,-1.28385591506958,2.034264087677002,-0.7498736381530762
3.02,-0.0032686323393136263,0.0033066594041883945,-1.2827764749526978,2.034187078475952,-0.749737560749054
3.025,0.009181679226458073,-0.017148137092590332,-1.2817237377166748,2.0339319705963135,-0.7516470551490784
3.0300000000000002,-0.0008540225680917501,-0.01094199251383543,-1.2806885242462158,2.033456563949585,-0.7514762878417969
3.035,-0.010634422302246094,0.004573368933051825,-1.279289960861206,2.0330708026885986,-0.7532468438148499
3.04,-0.0032828431576490402,0.0032848515547811985,-1.2782069444656372,2.0329792499542236,-0.7531126141548157
3.045,0.009239617735147476,-0.017083099111914635,-1.2771499156951904,2.0326969623565674,-0.7549861073493958
3.0500000000000003,-0.0008099803235381842,-0.010931866243481636,-1.276111364364624,2.03220796585083,-0.7548173069953918
3.055,-0.010646291077136993,0.004518764093518257,-1.2747082710266113,2.0317940711975098,-0.7565522789955139
3.06,-0.0032966947183012962,0.0032628357876092196,-1.27362060546875,2.031687021255493,-0.7564197182655334
3.065,0.009296327829360962,-0.017015844583511353,-1.272558569908142,2.0313777923583984,-0.7582569718360901
3.0700000000000003,-0.0007663730066269636,-0.01092127151787281,-1.271517276763916,2.0308754444122314,-0.7580899000167847
3.075,-0.01065795961767435,0.0044627441093325615,-1.2701114416122437,2.030433416366577,-0.7597887516021729
3.08,-0.003310729283839464,0.0032401778735220432,-1.2690211534500122,2.0303120613098145,-0.7596575021743774
3.085,0.009351929649710655,-0.016946177929639816,-1.2679554224014282,2.029975175857544,-0.7614579796791077
3.09,-0.0007222546264529228,-0.010909613221883774,-1.2669116258621216,2.0294604301452637,-0.7612923383712769
3.095,-0.010668265633285046,0.004405941814184189,-1.2655024528503418,2.0289902687072754,-0.7629544138908386
3.1,-0.0033245650120079517,0.0032174959778785706,-1.2644087076187134,2.02885365486145,-0.7628255486488342
3.105,0.009406492114067078,-0.01687448099255562,-1.2633389234542847,2.028489351272583,-0.7645884156227112
3.11,-0.000678105978295207,-0.010897517204284668,-1.2622926235198975,2.027961492538452,-0.7644248604774475
3.115,-0.010678036138415337,0.004347898531705141,-1.260880947113037,2.0274643898010254,-0.7660495042800903
3.12,-0.003338834270834923,0.003194189863279462,-1.2597850561141968,2.0273139476776123,-0.7659224271774292
3.125,0.009459284134209156,-0.01680070161819458,-1.2587120532989502,2.026921510696411,-0.7676470279693604
3.13,-0.0006342194974422455,-0.01088446844369173,-1.257663607597351,2.0263798236846924,-0.7674850225448608
3.1350000000000002,-0.010686641559004784,0.004288965370506048,-1.2562505006790161,2.02585768699646,-0.7690721154212952
3.14,-0.00335235008969903,0.0031706441659480333,-1.2551525831222534,2.0256924629211426,-0.7689469456672668
3.145,0.00951135903596878,-0.01672460325062275,-1.254076600074768,2.025271415710449,-0.7706331610679626
3.15,-0.0005900620017200708,-0.010870692320168018,-1.253027081489563,2.024718761444092,-0.7704729437828064
3.1550000000000002,-0.010694595053792,0.004228852689266205,-1.2516127824783325,2.0241687297821045,-0.7720213532447815
3.16,-0.0033665294758975506,0.0031463720370084047,-1.2505125999450684,2.0239882469177246,-0.771898090839386
3.165,0.00956134032458067,-0.016646774485707283,-1.249433994293213,2.023541212081909,-0.7735450863838196
3.17,-0.0005461894907057285,-0.010856147855520248,-1.2483829259872437,2.0229756832122803,-0.7733867168426514
3.1750000000000003,-0.01070124376565218,0.00416803453117609,-1.2469671964645386,2.022399425506592,-0.774895966053009
3.18,-0.0033800345845520496,0.0031221485696733,-1.2458659410476685,2.0222043991088867,-0.7747748494148254
3.185,0.009610366076231003,-0.01656663976609707,-1.2447855472564697,2.021730661392212,-0.7763819694519043
3.19,-0.0005022634286433458,-0.010840906761586666,-1.2437337636947632,2.0211524963378906,-0.7762258052825928
3.1950000000000003,-0.010707135312259197,0.004106018226593733,-1.2423169612884521,2.0205483436584473,-0.7776956558227539
3.2,-0.0033936859108507633,0.0030972356908023357,-1.241214394569397,2.0203397274017334,-0.7775760293006897
3.205,0.009657983668148518,-0.016485022380948067,-1.240132451057434,2.0198400020599365,-0.7791433334350586
3.21,-0.00045848963782191277,-0.010824770666658878,-1.2390801906585693,2.019249200820923,-0.7789889574050903
3.215,-0.01071208342909813,0.0040434435941278934,-1.2376633882522583,2.01861834526062,-0.7804189324378967
3.22,-0.0034072170965373516,0.003072104649618268,-1.236560344696045,2.0183959007263184,-0.7803013324737549
3.225,0.009703977033495903,-0.01640126295387745,-1.2354769706726074,2.017869234085083,-0.7818276882171631
3.23,-0.00041478825733065605,-0.010807918384671211,-1.234424352645874,2.0172669887542725,-0.7816756963729858
3.235,-0.010716000571846962,0.003979976754635572,-1.2330080270767212,2.016611099243164,-0.7830656170845032
3.24,-0.003420622320845723,0.0030466243624687195,-1.2319047451019287,2.016374111175537,-0.7829499840736389
3.245,0.009748358279466629,-0.01631578803062439,-1.2308202981948853,2.0158214569091797,-0.7844356298446655
3.25,-0.000371408648788929,-0.010790403932332993,-1.2297680377960205,2.015207290649414,-0.7842847108840942
3.255,-0.010718876495957375,0.003915371838957071,-1.228352665901184,2.014524221420288,-0.7856334447860718
3.2600000000000002,-0.0034339027479290962,0.0030205766670405865,-1.2272497415542603,2.0142734050750732,-0.7855204939842224
3.265,0.009791204705834389,-0.016228601336479187,-1.2261649370193481,2.013695001602173,-0.7869647145271301
3.27,-0.00032798200845718384,-0.01077198050916195,-1.2251125574111938,2.013068675994873,-0.786815881729126
3.275,-0.010720551013946533,0.0038504796102643013,-1.2236979007720947,2.012360095977783,-0.788123607635498
3.2800000000000002,-0.003446746151894331,0.0029943506233394146,-1.2225948572158813,2.0120954513549805,-0.7880122661590576
3.285,0.009832669980823994,-0.01613982766866684,-1.2215098142623901,2.0114917755126953,-0.7894145250320435
3.29,-0.00028520356863737106,-0.010752738453447819,-1.2204586267471313,2.0108537673950195,-0.7892677783966064
3.295,-0.010721568949520588,0.003784588072448969,-1.2190459966659546,2.010119676589966,-0.7905343770980835
3.3000000000000003,-0.003459600266069174,0.0029675844125449657,-1.2179443836212158,2.0098419189453125,-0.7904247641563416
3.305,0.009872392751276493,-0.016049373894929886,-1.2168598175048828,2.0092124938964844,-0.7917850017547607
3.31,-0.00024239951744675636,-0.010732687078416348,-1.2158093452453613,2.0085630416870117,-0.7916402816772461
3.315,-0.010721326805651188,0.003718190360814333,-1.2143974304199219,2.007802724838257,-0.7928650379180908
3.3200000000000003,-0.0034722797572612762,0.002940551843494177,-1.2132962942123413,2.0075113773345947,-0.7927570343017578
3.325,0.009910477325320244,-0.015957534313201904,-1.2122125625610352,2.0068578720092773,-0.7940749526023865
3.33,-0.000199959147721529,-0.010712049901485443,-1.2111637592315674,2.0061964988708496,-0.7939327955245972
3.335,-0.01072009839117527,0.0036512159276753664,-1.2097548246383667,2.0054104328155518,-0.7951148152351379
3.34,-0.0034845087211579084,0.002913316246122122,-1.208655595779419,2.005105495452881,-0.7950093746185303
3.345,0.009947199374437332,-0.015863969922065735,-1.2075728178024292,2.004427433013916,-0.7962841391563416
3.35,-0.0001576088834553957,-0.010690474882721901,-1.2065256834030151,2.0037553310394287,-0.7961433529853821
3.355,-0.010717752389609814,0.003583483397960663,-1.2051194906234741,2.0029449462890625,-0.7972832322120667
3.36,-0.003496843855828047,0.0028854496777057648,-1.2040220499038696,2.0026259422302246,-0.7971794009208679
3.365,0.009981734678149223,-0.015769414603710175,-1.2029403448104858,2.001922369003296,-0.7984112501144409
3.37,-0.00011602137237787247,-0.010668436996638775,-1.2018951177597046,2.0012409687042236,-0.7982732057571411
3.375,-0.010714462958276272,0.003515179269015789,-1.2004921436309814,2.00040602684021,-0.7993700504302979
3.38,-0.0035087065771222115,0.0028574259486049414,-1.1993967294692993,2.000072956085205,-0.7992686033248901
3.3850000000000002,0.010015010833740234,-0.01567322015762329,-1.198325276374817,1.9993374347686768,-0.7999999523162842
3.39,-7.554027251899242e-05,-0.010644848458468914,-1.1972569227218628,1.9986451864242554,-0.7999999523162842
3.395,-0.01071297936141491,0.0034460953902453184,-1.1958436965942383,1.9977705478668213,-0.7999999523162842
3.4,-0.003523465245962143,0.002829187549650669,-1.1946755647659302,1.997424840927124,-0.7999999523162842
3.4050000000000002,0.01004994660615921,-0.0155742596834898,-1.1935303211212158,1.9966439008712769,-0.800000011920929
3.41,-3.3593038097023964e-05,-0.010619904845952988,-1.1923812627792358,1.9959454536437988,-0.800000011920929
3.415,-0.010721978731453419,0.0033777307253330946,-1.1909148693084717,1.9950382709503174,-0.800000011920929
3.42,-0.003547383937984705,0.002798305591568351,-1.1897474527359009,1.9946820735931396,-0.800000011920929
3.4250000000000003,0.01008567027747631,-0.015478111803531647,-1.188644528388977,1.9938786029815674,-0.8000000715255737
3.43,1.0628951713442802e-05,-0.010595852509140968,-1.1875540018081665,1.9931596517562866,-0.8000000715255737
3.435,-0.010726233012974262,0.003313134890049696,-1.1861342191696167,1.9922223091125488,-0.8000000715255737
3.44,-0.0035671391524374485,0.002771169412881136,-1.184985637664795,1.9918540716171265,-0.8000000715255737
3.4450000000000003,0.01011869590729475,-0.015379827469587326,-1.1838709115982056,1.9910316467285156,-0.8000001311302185
3.45,5.367817357182503e-05,-0.010570598766207695,-1.1827552318572998,1.9903059005737305,-0.8000001311302185
3.455,-0.01073036715388298,0.0032464114483445883,-1.1813135147094727,1.9893490076065063,-0.8000001311302185
3.46,-0.0035878249909728765,0.002741812029853463,-1.180159091949463,1.9889700412750244,-0.8000001311302185
3.465,0.010150530375540257,-0.015281051397323608,-1.1790555715560913,1.9881243705749512,-0.8000001907348633
3.47,9.618396870791912e-05,-0.010545202530920506,-1.1779640913009644,1.987384557723999,-0.8000001907348633
3.475,-0.010732600465416908,0.0031793902162462473,-1.1765482425689697,1.9864023923873901,-0.8000001907348633
3.48,-0.0036071394570171833,0.0027128264773637056,-1.1754120588302612,1.986009120941162,-0.8000001907348633
3.485,0.010179772973060608,-0.015180791728198528,-1.1743130683898926,1.985142469406128,-0.8000001907348633
3.49,0.0001382855698466301,-0.010518384166061878,-1.1732192039489746,1.9843952655792236,-0.8000001907348633
3.495,-0.010732697322964668,0.0031120816711336374,-1.1717984676361084,1.983392357826233,-0.8000002503395081
3.5,-0.0036255689337849617,0.0026833058800548315,-1.1706608533859253,1.9829875230789185,-0.8000002503395081
3.505,0.01020711101591587,-0.015079529955983162,-1.1695663928985596,1.9820997714996338,-0.8000002503395081
3.5100000000000002,0.00017913500778377056,-0.010491307824850082,-1.1684846878051758,1.981342077255249,-0.8000002503395081
3.515,-0.010731672868132591,0.003043768461793661,-1.1670786142349243,1.98031485080719,-0.8000002503395081
3.52,-0.0036431830376386642,0.00265326164662838,-1.16595458984375,1.9798966646194458,-0.8000002503395081
3.525,0.0102322893217206,-0.014977187849581242,-1.1648677587509155,1.9789878129959106,-0.8000003099441528
3.5300000000000002,0.00021961634047329426,-0.010462979786098003,-1.163791298866272,1.9782204627990723,-0.8000003099441528
3.535,-0.010728609748184681,0.0029753707349300385,-1.1623889207839966,1.9771734476089478,-0.8000003099441528
3.54,-0.0036599570885300636,0.0026227484922856092,-1.1612688302993774,1.9767440557479858,-0.8000003099441528
3.545,0.010255315341055393,-0.014874402433633804,-1.1601860523223877,1.975813388824463,-0.8000003695487976
3.5500000000000003,0.00025876774452626705,-0.010434390977025032,-1.1591181755065918,1.9750365018844604,-0.8000003695487976
3.555,-0.010724379681050777,0.002906251698732376,-1.1577268838882446,1.9739679098129272,-0.8000003695487976
3.56,-0.00367577257566154,0.0025919387117028236,-1.1566176414489746,1.9735256433486938,-0.8000003695487976
3.565,0.010276504792273045,-0.014770358800888062,-1.1555427312850952,1.972574234008789,-0.8000003695487976
3.5700000000000003,0.0002976770047098398,-0.010404549539089203,-1.154482364654541,1.9717882871627808,-0.8000003695487976
3.575,-0.01071763876825571,0.002836923347786069,-1.1530979871749878,1.970698595046997,-0.8000003695487976
3.58,-0.0036902171559631824,0.0025607047136873007,-1.1519954204559326,1.9702446460723877,-0.8000003695487976
3.585,0.010295397602021694,-0.014665499329566956,-1.1509263515472412,1.9692741632461548,-0.8000004291534424
3.59,0.0003350740298628807,-0.010373975150287151,-1.1498740911483765,1.9684784412384033,-0.8000004291534424
3.595,-0.010710112750530243,0.002767094410955906,-1.1484986543655396,1.9673666954040527,-0.8000004291534424
3.6,-0.003704207018017769,0.0025288336910307407,-1.1474055051803589,1.9669009447097778,-0.8000004291534424
3.605,0.010312321595847607,-0.014560080133378506,-1.146343469619751,1.9659098386764526,-0.8000004291534424
3.61,0.00037209573201835155,-0.010342543944716454,-1.1452996730804443,1.9651062488555908,-0.8000004291534424
3.615,-0.010700260289013386,0.0026972824707627296,-1.1439330577850342,1.9639747142791748,-0.8000004291534424
3.62,-0.0037169046700000763,0.0024969729129225016,-1.1428487300872803,1.963497281074524,-0.8000004291534424
3.625,0.010327121242880821,-0.014454064890742302,-1.1417938470840454,1.9624863862991333,-0.8000004887580872
3.63,0.0004078217316418886,-0.010310683399438858,-1.1407582759857178,1.9616732597351074,-0.8000004887580872
3.6350000000000002,-0.0106892054900527,0.002626798115670681,-1.1394011974334717,1.960521936416626,-0.8000004887580872
3.64,-0.003728840034455061,0.0024644017685204744,-1.1383264064788818,1.9600340127944946,-0.8000004887580872
3.645,0.010339872911572456,-0.014347532764077187,-1.1372789144515991,1.9590035676956177,-0.8000004887580872
3.65,0.0004427209496498108,-0.010277735069394112,-1.1362520456314087,1.9581815004348755,-0.8000004887580872
3.6550000000000002,-0.01067639235407114,0.0025566862896084785,-1.134903907775879,1.9570099115371704,-0.8000004887580872
3.66,-0.00373938400298357,0.0024317745119333267,-1.1338378190994263,1.9565109014511108,-0.8000004887580872
3.665,0.010350792668759823,-0.014240284450352192,-1.1327974796295166,1.9554616212844849,-0.8000005483627319
3.67,0.00047648861072957516,-0.010244081728160381,-1.1317799091339111,1.9546321630477905,-0.8000005483627319
3.6750000000000003,-0.010662120766937733,0.0024858415126800537,-1.1304419040679932,1.9534404277801514,-0.8000005483627319
3.68,-0.0037492485716938972,0.002398218261078,-1.1293861865997314,1.9529303312301636,-0.8000005483627319
3.685,0.010359364561736584,-0.014132974669337273,-1.1283537149429321,1.95186185836792,-0.8000005483627319
3.69,0.0005094073712825775,-0.010209713131189346,-1.1273446083068848,1.9510241746902466,-0.8000005483627319
3.6950000000000003,-0.01064594928175211,0.002415442606434226,-1.1260159015655518,1.949813961982727,-0.8000005483627319
3.7,-0.0037577275652438402,0.0023650722578167915,-1.124969482421875,1.9492934942245483,-0.8000005483627319
3.705,0.010366535745561123,-0.014025045558810234,-1.123944878578186,1.9482061862945557,-0.8000005483627319
3.71,0.0005414255429059267,-0.01017467025667429,-1.122945785522461,1.9473603963851929,-0.8000005483627319
3.715,-0.010628694668412209,0.002344744512811303,-1.121627688407898,1.9461307525634766,-0.8000005483627319
3.72,-0.0037655774503946304,0.002330903662368655,-1.1205917596817017,1.9456003904342651,-0.8000005483627319
3.725,0.010371197946369648,-0.013917296193540096,-1.1195752620697021,1.9444950819015503,-0.8000006079673767
3.73,0.0005720155313611031,-0.01013899315148592,-1.1185851097106934,1.943642020225525,-0.8000006079673767
3.735,-0.010609669610857964,0.0022739781998097897,-1.117276668548584,1.9423935413360596,-0.8000006079673767
3.74,-0.0037723160348832607,0.002296876162290573,-1.1162503957748413,1.9418522119522095,-0.8000006079673767
3.745,0.010374095290899277,-0.013808837160468102,-1.1152416467666626,1.9407286643981934,-0.8000006079673767
3.75,0.0006019333377480507,-0.01010245829820633,-1.1142616271972656,1.939868688583374,-0.8000006079673767
3.755,-0.010589111596345901,0.0022034714929759502,-1.1129640340805054,1.9386017322540283,-0.8000006079673767
3.7600000000000002,-0.003777825739234686,0.002262350171804428,-1.1119484901428223,1.9380507469177246,-0.8000006079673767
3.765,0.010374976322054863,-0.01370050385594368,-1.1109485626220703,1.9369100332260132,-0.8000006079673767
3.77,0.0006303233094513416,-0.010065313428640366,-1.1099778413772583,1.9360426664352417,-0.8000006079673767
3.775,-0.010567146353423595,0.00213274615816772,-1.1086903810501099,1.934756875038147,-0.8000006079673767
3.7800000000000002,-0.0037822409067302942,0.0022273273207247257,-1.1076850891113281,1.9341961145401,-0.8000006079673767
3.785,0.010374142788350582,-0.013591967523097992,-1.1066933870315552,1.9330378770828247,-0.8000006079673767
3.79,0.000657990574836731,-0.010027202777564526,-1.1057324409484863,1.9321638345718384,-0.8000006079673767
3.795,-0.010543577373027802,0.0020625649485737085,-1.1044560670852661,1.9308608770370483,-0.8000006079673767
3.8000000000000003,-0.003785691224038601,0.002192334970459342,-1.1034616231918335,1.9302901029586792,-0.8000006079673767
3.805,0.01037138793617487,-0.013483651913702488,-1.102479100227356,1.9291155338287354,-0.8000006079673767
3.81,0.0006843626033514738,-0.009988946840167046,-1.1015290021896362,1.9282346963882446,-0.8000006079673767
3.815,-0.010518820956349373,0.001992178615182638,-1.1002634763717651,1.9269133806228638,-0.8000006079673767
3.8200000000000003,-0.0037879704032093287,0.002156737959012389,-1.0992798805236816,1.926334023475647,-0.8000006079673767
3.825,0.010366896167397499,-0.013375175185501575,-1.0983052253723145,1.9251424074172974,-0.8000006079673767
3.83,0.0007096007466316223,-0.009949378669261932,-1.0973643064498901,1.9242546558380127,-0.8000006079673767
3.835,-0.010492400266230106,0.0019223548006266356,-1.0961095094680786,1.9229161739349365,-0.8000006079673767
3.84,-0.003789112903177738,0.0021210825070738792,-1.0951370000839233,1.922328233718872,-0.8000006079673767
3.845,0.0103605343028903,-0.013266944326460361,-1.0941720008850098,1.921120285987854,-0.8000006675720215
3.85,0.0007336707785725594,-0.009909708984196186,-1.0932419300079346,1.9202260971069336,-0.8000006675720215
3.855,-0.010464745573699474,0.0018524108454585075,-1.091998815536499,1.9188708066940308,-0.8000006675720215
3.86,-0.003789333626627922,0.002085045212879777,-1.0910375118255615,1.918273687362671,-0.8000006675720215
3.865,0.010352346114814281,-0.013158747926354408,-1.0900812149047852,1.9170504808425903,-0.8000006675720215
3.87,0.0007565354462713003,-0.009869096800684929,-1.0891613960266113,1.9161503314971924,-0.8000006675720215
3.875,-0.010435742326080799,0.001782952924259007,-1.0879285335540771,1.914777398109436,-0.8000006675720215
3.88,-0.0037883506156504154,0.00204867054708302,-1.0869781970977783,1.914171814918518,-0.8000006675720215
3.8850000000000002,0.010342452675104141,-0.01305091567337513,-1.086031436920166,1.9129334688186646,-0.8000006675720215
3.89,0.0007781786844134331,-0.009827949106693268,-1.0851224660873413,1.912027359008789,-0.8000006675720215
3.895,-0.01040530763566494,0.0017138018738478422,-1.0839016437530518,1.9106383323669434,-0.8000006675720215
3.9,-0.0037861678283661604,0.002012239070609212,-1.082963228225708,1.9100245237350464,-0.8000006675720215
3.9050000000000002,0.010330867022275925,-0.012943061999976635,-1.0820250511169434,1.9087694883346558,-0.8000006675720215
3.91,0.0007987897843122482,-0.009786173701286316,-1.0811265707015991,1.907857894897461,-0.8000006675720215
3.915,-0.010373820550739765,0.0016450246330350637,-1.079917073249817,1.906454086303711,-0.8000006675720215
3.92,-0.0037832630332559347,0.001975376158952713,-1.0789899826049805,1.9058324098587036,-0.8000006675720215
3.9250000000000003,0.010317690670490265,-0.012836042791604996,-1.0780611038208008,1.9045617580413818,-0.8000006675720215
3.93,0.0008183235768228769,-0.009744079783558846,-1.0771733522415161,1.9036445617675781,-0.8000006675720215
3.935,-0.010340990498661995,0.001576766255311668,-1.075975775718689,1.9022247791290283,-0.8000006675720215
3.94,-0.003779070917516947,0.0019386126659810543,-1.0750606060028076,1.901595115661621,-0.8000006675720215
3.9450000000000003,0.010302905924618244,-0.012729045934975147,-1.074141502380371,1.9003100395202637,-0.8000006675720215
3.95,0.0008363439701497555,-0.0097010787576437,-1.0732648372650146,1.899388074874878,-0.8000006675720215
3.955,-0.010307039134204388,0.0015089181251823902,-1.0720785856246948,1.8979524374008179,-0.8000006079673767
3.96,-0.003773774951696396,0.0019013980636373162,-1.0711743831634521,1.897314429283142,-0.8000006079673767
3.9650000000000003,0.010286524891853333,-0.012622629292309284,-1.070264458656311,1.896014928817749,-0.8000006079673767
3.97,0.000853303587064147,-0.009657735005021095,-1.0693985223770142,1.89508855342865,-0.8000006079673767
3.975,-0.010271742939949036,0.001441262662410736,-1.0682244300842285,1.8936383724212646,-0.8000006079673767
3.98,-0.0037674952764064074,0.0018640055786818266,-1.0673326253890991,1.8929930925369263,-0.8000006079673767
3.985,0.010268564336001873,-0.012516533024609089,-1.0664323568344116,1.8916784524917603,-0.8000006079673767
3.99,0.0008692541159689426,-0.009613685309886932,-1.065577745437622,1.8907471895217896,-0.8000006079673767
3.995,-0.01023523136973381,0.0013745849719271064,-1.064415454864502,1.8892825841903687,-0.8000006079673767
4.0,-0.0037599578499794006,0.001826678984798491,-1.063535451889038,1.8886302709579468,-0.8000006079673767
4.005,0.010249042883515358,-0.012411009520292282,-1.0626447200775146,1.8873021602630615,-0.8000006079673767
4.01,0.0008837156929075718,-0.009569444693624973,-1.0618009567260742,1.8863657712936401,-0.8000006079673767
4.015,-0.01019767764955759,0.001307778642512858,-1.06065034866333,1.8848870992660522,-0.8000006079673767
4.0200000000000005,-0.003751571523025632,0.0017888256115838885,-1.0597827434539795,1.8842289447784424,-0.8000006079673767
4.025,0.010227974504232407,-0.012306060642004013,-1.0589019060134888,1.8828868865966797,-0.8000006079673767
4.03,0.0008969530463218689,-0.009524336084723473,-1.0580697059631348,1.8819451332092285,-0.8000006079673767
4.035,-0.010159173980355263,0.0012421481078490615,-1.0569311380386353,1.880452036857605,-0.8000005483627319
4.04,-0.0037419465370476246,0.001751029398292303,-1.0560752153396606,1.8797874450683594,-0.8000005483627319
4.045,0.010205766186118126,-0.012201907113194466,-1.055203914642334,1.8784326314926147,-0.8000005483627319
4.05,0.0009090895764529705,-0.009479135274887085,-1.0543826818466187,1.8774867057800293,-0.8000005483627319
4.055,-0.01011961605399847,0.00117669184692204,-1.0532563924789429,1.8759799003601074,-0.8000005483627319
4.0600000000000005,-0.0037314468063414097,0.0017130475025624037,-1.0524128675460815,1.8753087520599365,-0.8000005483627319
4.065,0.010181954130530357,-0.012098105624318123,-1.051551342010498,1.8739407062530518,-0.8000005483627319
4.07,0.0009202186483889818,-0.009433264844119549,-1.0507419109344482,1.8729918003082275,-0.8000005483627319
4.075,-0.010078685358166695,0.001112014870159328,-1.049627661705017,1.8714711666107178,-0.8000005483627319
4.08,-0.0037198527716100216,0.0016751722432672977,-1.0487959384918213,1.870793104171753,-0.8000005483627319
4.085,0.010156833566725254,-0.011995045468211174,-1.0479439496994019,1.8694126605987549,-0.8000004887580872
4.09,0.0009298608638346195,-0.009387037716805935,-1.0471456050872803,1.8684600591659546,-0.8000004887580872
4.095,-0.010037193074822426,0.0010478439508005977,-1.0460432767868042,1.8669260740280151,-0.8000004887580872
4.1,-0.0037071704864501953,0.0016366990748792887,-1.0452245473861694,1.8662431240081787,-0.8000004887580872
4.105,0.010130306705832481,-0.01189292874187231,-1.0443830490112305,1.8648502826690674,-0.8000004887580872
4.11,0.0009382104035466909,-0.009340365417301655,-1.0435963869094849,1.8638936281204224,-0.8000004887580872
4.115,-0.009994613006711006,0.0009844743181020021,-1.0425065755844116,1.8623473644256592,-0.8000004887580872
4.12,-0.0036934600211679935,0.0015986181097105145,-1.0417001247406006,1.8616583347320557,-0.8000004887580872
4.125,0.010102802887558937,-0.011791355907917023,-1.0408686399459839,1.8602535724639893,-0.8000004887580872
4.13,0.000945643987506628,-0.009293457493185997,-1.0400936603546143,1.8592945337295532,-0.8000004887580872
4.135,-0.009951360523700714,0.0009215694735758007,-1.0390154123306274,1.8577349185943604,-0.8000004291534424
4.14,-0.003679044544696808,0.0015600015176460147,-1.038220763206482,1.857040286064148,-0.8000004291534424
4.1450000000000005,0.010073757730424404,-0.01169080100953579,-1.0373990535736084,1.8556239604949951,-0.8000004291534424
4.15,0.0009518160950392485,-0.00924599263817072,-1.0366357564926147,1.8546611070632935,-0.8000004291534424
4.155,-0.009906897321343422,0.0008597812848165631,-1.0355700254440308,1.8530895709991455,-0.8000004291534424
4.16,-0.0036633217241615057,0.0015219245105981827,-1.0347886085510254,1.8523907661437988,-0.8000004291534424
4.165,0.01004375796765089,-0.011590806767344475,-1.0339769124984741,1.850962519645691,-0.8000003695487976
4.17,0.0009568138048052788,-0.009198451414704323,-1.0332252979278564,1.849996566772461,-0.8000003695487976
4.175,-0.00986181665211916,0.0007981235394254327,-1.032171607017517,1.848413348197937,-0.8000003695487976
4.18,-0.003647040342912078,0.0014833684545010328,-1.0314024686813354,1.8477094173431396,-0.8000003695487976
4.1850000000000005,0.010012306272983551,-0.01149169635027647,-1.030600666999817,1.846269965171814,-0.8000003695487976
4.19,0.000960794510319829,-0.009150317870080471,-1.0298601388931274,1.8453006744384766,-0.8000003695487976
4.195,-0.009815474972128868,0.0007375764544121921,-1.0288187265396118,1.8437060117721558,-0.8000003695487976
4.2,-0.0036291456781327724,0.001444937428459525,-1.0280627012252808,1.8429982662200928,-0.8000003695487976
4.205,0.00998002104461193,-0.011393506079912186,-1.027271032333374,1.8415480852127075,-0.8000003099441528
4.21,0.000963268568739295,-0.009102119132876396,-1.0265426635742188,1.8405765295028687,-0.8000003099441528
4.215,-0.009769028052687645,0.0006774938083253801,-1.0255138874053955,1.83897066116333,-0.8000003099441528
4.22,-0.0036109830252826214,0.0014063834678381681,-1.0247703790664673,1.8382574319839478,-0.8000003099441528
4.225,0.009946649894118309,-0.011296287178993225,-1.023988962173462,1.8367971181869507,-0.8000003099441528
4.23,0.0009651347063481808,-0.00905351061373949,-1.0232726335525513,1.8358237743377686,-0.8000003099441528
4.235,-0.009721236303448677,0.0006185363745316863,-1.022255539894104,1.834206223487854,-0.8000002503395081
4.24,-0.003591579385101795,0.0013682160060852766,-1.0215239524841309,1.8334888219833374,-0.8000002503395081
4.245,0.009911938570439816,-0.011199679225683212,-1.0207520723342896,1.8320181369781494,-0.8000002503395081
4.25,0.0009655205067247152,-0.009004946798086166,-1.020047664642334,1.8310428857803345,-0.8000002503395081
4.255,-0.009673064574599266,0.0005597181152552366,-1.0190435647964478,1.8294155597686768,-0.8000002503395081
4.26,-0.0035714267287403345,0.0013294883538037539,-1.0183250904083252,1.828694224357605,-0.8000002503395081
4.265,0.009876430965960026,-0.011104399338364601,-1.017563819885254,1.827212929725647,-0.8000001907348633
4.2700000000000005,0.0009647386614233255,-0.00895589031279087,-1.0168710947036743,1.8262355327606201,-0.8000001907348633
4.275,-0.009624364785850048,0.0005021880497224629,-1.015878677368164,1.8245975971221924,-0.8000001907348633
4.28,-0.0035504200495779514,0.001291113905608654,-1.0151723623275757,1.8238729238510132,-0.8000001907348633
4.285,0.009840121492743492,-0.01100999303162098,-1.014420986175537,1.822383165359497,-0.8000001311302185
4.29,0.0009631842840462923,-0.00890665128827095,-1.0137403011322021,1.821404218673706,-0.8000001311302185
4.295,-0.009574864991009235,0.00044562306720763445,-1.012760877609253,1.8197559118270874,-0.8000001311302185
4.3,-0.0035284587647765875,0.0012530565727502108,-1.0120683908462524,1.819027304649353,-0.8000001311302185
4.305,0.009802881628274918,-0.010916409082710743,-1.0113277435302734,1.8175276517868042,-0.8000001311302185
4.3100000000000005,0.0009603074286133051,-0.008857200853526592,-1.010658860206604,1.816547155380249,-0.8000001311302185
4.315,-0.009524832479655743,0.0003894478431902826,-1.0096909999847412,1.8148894309997559,-0.8000000715255737
4.32,-0.003505798988044262,0.0012145328801125288,-1.0090101957321167,1.8141578435897827,-0.8000000715255737
4.325,0.009764458984136581,-0.0108240507543087,-1.0082786083221436,1.8126492500305176,-0.8000000715255737
4.33,0.000956385163590312,-0.008807782083749771,-1.0076212882995605,1.811667561531067,-0.8000000715255737
4.335,-0.009474198333919048,0.000334137468598783,-1.0066661834716797,1.8100006580352783,-0.800000011920929
4.34,-0.003482294734567404,0.0011763498187065125,-1.0059984922409058,1.8092654943466187,-0.800000011920929
4.345,0.00972538348287344,-0.01073257252573967,-1.00527822971344,1.8077480792999268,-0.800000011920929
4.3500000000000005,0.0009515066631138325,-0.00875817984342575,-1.0046340227127075,1.8067656755447388,-0.800000011920929
4.355,-0.009423086419701576,0.0002796315820887685,-1.0036910772323608,1.805088996887207,-0.800000011920929
4.36,-0.0034581278450787067,0.0011381433578208089,-1.0030359029769897,1.8043519258499146,-0.800000011920929
4.365,0.009685363620519638,-0.01064223237335682,-1.002327561378479,1.802825927734375,-0.7998572587966919
4.37,0.0009453874081373215,-0.008708369918167591,-1.0016883611679077,1.8018361330032349,-0.7997660636901855
4.375,-0.009372218511998653,0.00022601441014558077,-1.0007596015930176,1.8001396656036377,-0.7988110780715942
4.38,-0.003435046412050724,0.001101090689189732,-1.0000555515289307,1.7993708848953247,-0.7987929582595825
4.385,0.009645839221775532,-0.01055078487843275,-0.9992895722389221,1.7978100776672363,-0.797907292842865
4.39,0.0009382630232721567,-0.008657513186335564,-0.9985722899436951,1.7968240976333618,-0.7978562712669373
4.3950000000000005,-0.009330839850008488,0.00017206795746460557,-0.9975848197937012,1.795110821723938,-0.7968711853027344
4.4,-0.0034189072903245687,0.0010603892151266336,-0.9968723654747009,1.7943458557128906,-0.7968575358390808
4.405,0.009607689455151558,-0.010463355109095573,-0.9961422681808472,1.7927757501602173,-0.7959406971931458
4.41,0.0009322913829237223,-0.008608376607298851,-0.9954859614372253,1.7917752265930176,-0.7958897352218628
4.415,-0.009287712164223194,0.0001221183338202536,-0.994560182094574,1.790043592453003,-0.794869065284729
4.42,-0.0033999988809227943,0.001023846329189837,-0.9938873052597046,1.7892757654190063,-0.7948536276817322
4.425,0.009568832814693451,-0.010375473648309708,-0.9931634664535522,1.7876988649368286,-0.7939019799232483
4.43,0.0009251798037439585,-0.008557239547371864,-0.9924896955490112,1.7867004871368408,-0.7938520312309265
4.4350000000000005,-0.009244381450116634,7.251440547406673e-05,-0.9915398955345154,1.7849658727645874,-0.7928001284599304
4.44,-0.0033814271446317434,0.0009854445233941078,-0.9908507466316223,1.7841973304748535,-0.7927873730659485
4.445,0.009529183618724346,-0.010289857164025307,-0.9901281595230103,1.7826135158538818,-0.7918050289154053
4.45,0.0009167450480163097,-0.008508107624948025,-0.989475429058075,1.7816118001937866,-0.7917571067810059
4.455,-0.00920190755277872,2.3119559045881033e-05,-0.9885583519935608,1.779863953590393,-0.7906725406646729
4.46,-0.003362427931278944,0.0009479729924350977,-0.9879010319709778,1.7790896892547607,-0.7906601428985596
4.465,0.009489358402788639,-0.01020464301109314,-0.9871988892555237,1.777496337890625,-0.789644181728363
4.47,0.000908147543668747,-0.008457405492663383,-0.9865546822547913,1.7764946222305298,-0.789596438407898
4.4750000000000005,-0.009158163331449032,-2.425868296995759e-05,-0.9856370687484741,1.7747405767440796,-0.7884806394577026
4.48,-0.0033426284790039062,0.0009107059449888766,-0.984976053237915,1.7739660739898682,-0.7884693741798401
4.485,0.009448494762182236,-0.010120846331119537,-0.9842724800109863,1.7723668813705444,-0.787423312664032
4.49,0.0008979698177427053,-0.008407823741436005,-0.9836350679397583,1.7713634967803955,-0.7873771786689758
4.495,-0.009114990942180157,-7.210089825093746e-05,-0.9827328324317932,1.7695999145507812,-0.7862309217453003
4.5,-0.0033226406667381525,0.0008731682901270688,-0.9820914268493652,1.7688214778900146,-0.7862200736999512
4.505,0.0094071663916111,-0.010037887841463089,-0.9814056754112244,1.7672135829925537,-0.7851423025131226
4.51,0.0008871983736753464,-0.008357495069503784,-0.9807830452919006,1.7662091255187988,-0.7850967049598694
4.515,-0.009071126580238342,-0.00011813297169283032,-0.9798913598060608,1.7644377946853638,-0.7839192152023315
4.5200000000000005,-0.0033018600661307573,0.0008362500229850411,-0.9792560935020447,1.7636581659317017,-0.7839099168777466
4.525,0.00936518982052803,-0.009956175461411476,-0.9785735607147217,1.762044906616211,-0.7828014492988586
4.53,0.0008752320427447557,-0.008307738229632378,-0.9779567122459412,1.7610403299331665,-0.7827576398849487
4.535,-0.009027642197906971,-0.00016407202929258347,-0.9770746827125549,1.759260654449463,-0.781549870967865
4.54,-0.0032809185795485973,0.0007991025340743363,-0.9764518141746521,1.7584782838821411,-0.7815418839454651
4.545,0.009322814643383026,-0.009875386953353882,-0.9757818579673767,1.7568578720092773,-0.7804034352302551
4.55,0.0008627439383417368,-0.008257576264441013,-0.975178599357605,1.7558523416519165,-0.7803598642349243
4.555,-0.008983509615063667,-0.00020860432414337993,-0.9743096828460693,1.754065752029419,-0.7791228890419006
4.5600000000000005,-0.003259113058447838,0.0007625418365933001,-0.9736976623535156,1.7532813549041748,-0.7791152000427246
