DanielTruong99/actuator_dynamic_on_gene/src/joint_planner/motion_files/joint_states.csv
timestamp,L_hip_joint,L_hip2_joint,L_thigh_joint,L_calf_joint,L_toe_joint
0.0,5.232095645624213e-07,2.5518897018628195e-05,2.119113595711042e-08,-1.1670636013150215e-07,-3.504635742501705e-06
0.005,-0.0008543293224647641,-0.0139538012444973,-0.02740003727376461,-0.00016168307047337294,-0.015393818728625774
0.01,-0.0010864322539418936,-0.04455988109111786,-0.034529540687799454,0.0004490034480113536,0.23469029366970062
0.015,-0.012090697884559631,-0.08013740181922913,-0.14449819922447205,0.2531702220439911,-0.01515640877187252
0.02,-0.015051940456032753,-0.11297663301229477,-0.28906387090682983,0.5084547996520996,-0.26363837718963623
0.025,-0.016859550029039383,-0.14075520634651184,-0.4642220437526703,0.7622992992401123,-0.5137236714363098
0.03,-0.024410048499703407,-0.15660257637500763,-0.6702008843421936,1.0073915719985962,-0.6380917429924011
0.035,-0.03297116607427597,-0.1529158055782318,-0.9084793329238892,1.2581090927124023,-0.48164281249046326
0.04,-0.03790421411395073,-0.1251520961523056,-1.132833480834961,1.4831486940383911,-0.3964991271495819
0.045,-0.02053002640604973,-0.09491465985774994,-1.2316579818725586,1.4458190202713013,-0.389724463224411
0.05,-0.007603656500577927,-0.06498590111732483,-1.273639440536499,1.4179964065551758,-0.3982314169406891
0.055,-0.001481967861764133,-0.04513039067387581,-1.2882856130599976,1.483657717704773,-0.4019007980823517
0.06,-0.0030545147601515055,-0.04722760617733002,-1.2372796535491943,1.4913212060928345,-0.40530019998550415
0.065,-0.013458117842674255,-0.0724513977766037,-1.1333426237106323,1.4426316022872925,-0.3994816839694977
0.07,-0.03608088195323944,-0.09134045243263245,-1.0290716886520386,1.429354190826416,-0.38684242963790894
0.075,-0.05647052451968193,-0.10322732478380203,-0.959339439868927,1.4533942937850952,-0.38584136962890625
0.08,-0.059918396174907684,-0.10895947366952896,-0.9352642893791199,1.4793734550476074,-0.3961881399154663
0.085,-0.0471302755177021,-0.11122281104326248,-0.9554034471511841,1.4850746393203735,-0.4027983546257019
0.09,-0.039796847850084305,-0.09913313388824463,-1.008118987083435,1.463782787322998,-0.40043410658836365
0.095,-0.027766093611717224,-0.08137582987546921,-1.0665123462677002,1.4275022745132446,-0.39186254143714905
0.1,-0.011883929371833801,-0.06983369588851929,-1.112726092338562,1.412272572517395,-0.38618984818458557
0.105,-0.004011918790638447,-0.06995633244514465,-1.134409785270691,1.4237196445465088,-0.384999543428421
0.11,-0.015533464960753918,-0.06873112916946411,-1.1222639083862305,1.4333550930023193,-0.38595661520957947
0.115,-0.02846124768257141,-0.0731884315609932,-1.0832469463348389,1.433383584022522,-0.3839579224586487
0.12,-0.03387465327978134,-0.08429105579853058,-1.0380865335464478,1.4357774257659912,-0.38270118832588196
0.125,-0.03491513803601265,-0.09930281341075897,-1.0059863328933716,1.444053292274475,-0.3837323486804962
0.13,-0.04475533962249756,-0.10041543841362,-0.9972363710403442,1.4509665966033936,-0.3875010013580322
0.135,-0.04643033444881439,-0.0932043269276619,-1.0093092918395996,1.4497830867767334,-0.3883599638938904
0.14,-0.033522408455610275,-0.08631949126720428,-1.0335215330123901,1.4400134086608887,-0.38712602853775024
0.145,-0.017832454293966293,-0.0854695588350296,-1.060814380645752,1.4292045831680298,-0.3840937614440918
0.15,-0.01962679624557495,-0.07695842534303665,-1.0825597047805786,1.4243148565292358,-0.3826129138469696
0.155,-0.02338089980185032,-0.06935811787843704,-1.090194582939148,1.4253586530685425,-0.3804709315299988
0.16,-0.02154853381216526,-0.07096192240715027,-1.082121729850769,1.4288519620895386,-0.37995511293411255
0.165,-0.020081453025341034,-0.0824923887848854,-1.0639420747756958,1.43173086643219,-0.3791256248950958
0.17,-0.03203331306576729,-0.0855153501033783,-1.0449656248092651,1.4339138269424438,-0.37982675433158875
0.17500000000000002,-0.0401947908103466,-0.08478286862373352,-1.0319033861160278,1.4367939233779907,-0.37941956520080566
0.18,-0.036003220826387405,-0.08539987355470657,-1.0281133651733398,1.4388883113861084,-0.3803711533546448
0.185,-0.02663816139101982,-0.08997367322444916,-1.0341166257858276,1.4377974271774292,-0.38011854887008667
0.19,-0.029645029455423355,-0.08412070572376251,-1.047196388244629,1.4333443641662598,-0.380193293094635
0.195,-0.030452653765678406,-0.07518673688173294,-1.060538411140442,1.428621530532837,-0.3778447210788727
0.2,-0.023159174248576164,-0.07193413376808167,-1.0692983865737915,1.4269167184829712,-0.37675827741622925
0.20500000000000002,-0.01620485447347164,-0.07751714438199997,-1.071642279624939,1.4274753332138062,-0.3753582537174225
0.21,-0.02458062954246998,-0.07601645588874817,-1.0681376457214355,1.428166151046753,-0.37557631731033325
0.215,-0.03166421130299568,-0.07362696528434753,-1.060157299041748,1.4291515350341797,-0.3740052282810211
0.22,-0.02935231477022171,-0.07589598000049591,-1.0512290000915527,1.4311448335647583,-0.37408456206321716
0.225,-0.024036483839154243,-0.08392434567213058,-1.045487642288208,1.4327820539474487,-0.3735719323158264
0.23,-0.030917063355445862,-0.08162952959537506,-1.04539954662323,1.4325820207595825,-0.374442994594574
0.23500000000000001,-0.0342247374355793,-0.07543957978487015,-1.0492289066314697,1.4310359954833984,-0.3729860186576843
0.24,-0.02720295637845993,-0.07293059676885605,-1.0547982454299927,1.4294610023498535,-0.37256795167922974
0.245,-0.018401848152279854,-0.07723027467727661,-1.06068754196167,1.4280797243118286,-0.3711070120334625
0.25,-0.0241565965116024,-0.07324852794408798,-1.06548011302948,1.4267058372497559,-0.3711445927619934
0.255,-0.028705960139632225,-0.06789803504943848,-1.0667260885238647,1.4259918928146362,-0.369159460067749
0.26,-0.024706272408366203,-0.06817372888326645,-1.0643914937973022,1.4267799854278564,-0.36884087324142456
0.265,-0.01925424486398697,-0.07568345218896866,-1.0605348348617554,1.427844524383545,-0.3677208721637726
0.27,-0.02713121846318245,-0.07410630583763123,-1.057542085647583,1.4280837774276733,-0.3682834804058075
0.275,-0.03219470754265785,-0.06960607320070267,-1.0557010173797607,1.4279851913452148,-0.36674898862838745
0.28,-0.027016855776309967,-0.06889742612838745,-1.0553535223007202,1.4281587600708008,-0.36671924591064453
0.28500000000000003,-0.01932195946574211,-0.07427870482206345,-1.0571545362472534,1.4278322458267212,-0.3655397593975067
0.29,-0.025047581642866135,-0.07044859975576401,-1.0608888864517212,1.4265096187591553,-0.36582860350608826
0.295,-0.028689587488770485,-0.06424189358949661,-1.0641560554504395,1.4250856637954712,-0.36385592818260193
0.3,-0.023258237168192863,-0.06310047209262848,-1.065771222114563,1.4248225688934326,-0.36347225308418274
0.305,-0.01653166301548481,-0.06918314099311829,-1.0660889148712158,1.424967885017395,-0.3620660901069641
0.31,-0.02366962842643261,-0.06664814800024033,-1.0658313035964966,1.424678087234497,-0.3623775243759155
0.315,-0.028690844774246216,-0.06192035600543022,-1.0645538568496704,1.4244205951690674,-0.36057770252227783
0.32,-0.024127842858433723,-0.061745431274175644,-1.0628023147583008,1.424931526184082,-0.3604820966720581
0.325,-0.017429305240511894,-0.06792908906936646,-1.0619794130325317,1.425264596939087,-0.3592706620693207
0.33,-0.023895611986517906,-0.06478600949048996,-1.0629236698150635,1.424666166305542,-0.35968369245529175
0.335,-0.027882525697350502,-0.058941058814525604,-1.0644078254699707,1.4237290620803833,-0.3578720688819885
0.34,-0.02228519693017006,-0.057683080434799194,-1.065750002861023,1.4234400987625122,-0.3576379418373108
0.34500000000000003,-0.015017522498965263,-0.06318129599094391,-1.0671770572662354,1.4232192039489746,-0.3562188744544983
0.35000000000000003,-0.021456142887473106,-0.05987715721130371,-1.068756103515625,1.422506332397461,-0.3564513921737671
0.355,-0.02588845230638981,-0.054410096257925034,-1.069324016571045,1.4218404293060303,-0.3545722961425781
0.36,-0.021006587892770767,-0.053854189813137054,-1.0687929391860962,1.4220637083053589,-0.35438644886016846
0.365,-0.014409427531063557,-0.05996530503034592,-1.0681613683700562,1.4223507642745972,-0.3530704379081726
0.37,-0.021132521331310272,-0.0569668747484684,-1.068243145942688,1.4219834804534912,-0.35341018438339233
0.375,-0.025469860062003136,-0.05141252651810646,-1.0684118270874023,1.4214338064193726,-0.3516809046268463
0.38,-0.020161433145403862,-0.05043734237551689,-1.0685616731643677,1.4214507341384888,-0.3515520393848419
0.385,-0.013023494742810726,-0.05596515163779259,-1.0692777633666992,1.421386480331421,-0.3502337634563446
0.39,-0.01929733157157898,-0.05245254188776016,-1.070737361907959,1.420703649520874,-0.35047614574432373
0.395,-0.023414162918925285,-0.046587105840444565,-1.0718380212783813,1.4199445247650146,-0.34871113300323486
0.4,-0.01815137453377247,-0.04562746360898018,-1.0722267627716064,1.4199180603027344,-0.3485247790813446
0.405,-0.011303235776722431,-0.05135832354426384,-1.0724576711654663,1.4199976921081543,-0.3472176790237427
0.41000000000000003,-0.017863398417830467,-0.04809529706835747,-1.0729268789291382,1.419579029083252,-0.3474538326263428
0.41500000000000004,-0.02219618484377861,-0.04243839904665947,-1.0730438232421875,1.4191100597381592,-0.34582337737083435
0.42,-0.016996003687381744,-0.04154811426997185,-1.0728224515914917,1.4192261695861816,-0.34571513533592224
0.425,-0.010050931014120579,-0.047138724476099014,-1.0729550123214722,1.4193238019943237,-0.3445170819759369
0.43,-0.016376322135329247,-0.04361075907945633,-1.0737508535385132,1.418835997581482,-0.34474119544029236
0.435,-0.020454103127121925,-0.037634946405887604,-1.0744860172271729,1.418251633644104,-0.3432043194770813
0.44,-0.015045048668980598,-0.036515530198812485,-1.0749187469482422,1.4182006120681763,-0.34307029843330383
0.445,-0.008037968538701534,-0.04197543486952782,-1.075455904006958,1.4182116985321045,-0.34191328287124634
0.45,-0.014383524656295776,-0.0384187251329422,-1.0762239694595337,1.417758584022522,-0.3420748710632324
0.455,-0.01855815015733242,-0.03250084072351456,-1.0766370296478271,1.4173119068145752,-0.34065812826156616
0.46,-0.013262114487588406,-0.03149048611521721,-1.0766276121139526,1.4173803329467773,-0.34055376052856445
0.465,-0.006346895359456539,-0.03698638826608658,-1.0767345428466797,1.4175165891647339,-0.3395327925682068
0.47000000000000003,-0.012668454088270664,-0.03337860852479935,-1.0771771669387817,1.41716468334198,-0.33969059586524963
0.47500000000000003,-0.016752904281020164,-0.027327094227075577,-1.0775365829467773,1.4167898893356323,-0.33845651149749756
0.48,-0.01131419651210308,-0.026160765439271927,-1.077732801437378,1.4168018102645874,-0.33837127685546875
0.485,-0.00428028404712677,-0.03148128092288971,-1.078145980834961,1.416880488395691,-0.33747535943984985
0.49,-0.010502041317522526,-0.027731342241168022,-1.0787930488586426,1.4165047407150269,-0.337576687335968
0.495,-0.01454830076545477,-0.02158852107822895,-1.0792567729949951,1.4161728620529175,-0.3365103006362915
0.5,-0.009115404449403286,-0.020416542887687683,-1.079444169998169,1.416197419166565,-0.33642780780792236
0.505,-0.0021385797299444675,-0.02573816105723381,-1.0796985626220703,1.4163480997085571,-0.33569061756134033
0.51,-0.00837795715779066,-0.02197585627436638,-1.0800386667251587,1.4160797595977783,-0.335761696100235
0.515,-0.012422074563801289,-0.015790237113833427,-1.08025062084198,1.4158903360366821,-0.3349270224571228
0.52,-0.006944814696907997,-0.014561481773853302,-1.0803312063217163,1.4159451723098755,-0.3348741829395294
0.525,8.633147808723152e-05,-0.019777052104473114,-1.0805861949920654,1.416128396987915,-0.33433470129966736
0.53,-0.00606872234493494,-0.01589607074856758,-1.0809364318847656,1.4158908128738403,-0.33436524868011475
0.535,-0.010046985931694508,-0.00958952959626913,-1.0812265872955322,1.4157642126083374,-0.3337732255458832
0.54,-0.00451492378488183,-0.008288761600852013,-1.0814216136932373,1.4157980680465698,-0.3337258994579315
0.545,0.002524974523112178,-0.013444672338664532,-1.0817160606384277,1.4160139560699463,-0.33339545130729675
0.55,-0.003617775160819292,-0.009520896710455418,-1.081937313079834,1.4158470630645752,-0.33337724208831787
0.555,-0.007599263451993465,-0.003171335207298398,-1.0820716619491577,1.4158575534820557,-0.3330645263195038
0.56,-0.0020552698988467455,-0.0018433842342346907,-1.082149624824524,1.4159332513809204,-0.33303871750831604
0.5650000000000001,0.004995153285562992,-0.006942900363355875,-1.082335352897644,1.4162235260009766,-0.3329615890979767
0.5700000000000001,-0.0011056482326239347,-0.002948168898001313,-1.0824029445648193,1.4161336421966553,-0.3329029083251953
0.5750000000000001,-0.005047848913818598,0.003493843600153923,-1.0824708938598633,1.4162651300430298,-0.33290576934814453
0.58,0.0005489285686053336,0.004897132981568575,-1.0825823545455933,1.4163421392440796,-0.3328946828842163
0.585,0.007631491869688034,-0.00012595189036801457,-1.0828032493591309,1.4166773557662964,-0.33309176564216614
0.59,0.0015612634597346187,0.003928426653146744,-1.082795262336731,1.4166508913040161,-0.33298012614250183
0.595,-0.002373076742514968,0.010430504567921162,-1.082789421081543,1.4169127941131592,-0.3333211839199066
0.6,0.003238200442865491,0.011870580725371838,-1.082857608795166,1.4170161485671997,-0.3333245813846588
0.605,0.010324635542929173,0.006890434771776199,-1.0830001831054688,1.4174350500106812,-0.3338298201560974
0.61,0.004271498415619135,0.010986346751451492,-1.0828083753585815,1.4175001382827759,-0.3336699903011322
0.615,0.00034719257382676005,0.01755150407552719,-1.082667589187622,1.4179179668426514,-0.3343893885612488
0.62,0.005989273078739643,0.01905026286840439,-1.0826903581619263,1.4180479049682617,-0.3344111144542694
0.625,0.013102872297167778,0.014133022166788578,-1.0828001499176025,1.4185408353805542,-0.33525434136390686
0.63,0.007074212189763784,0.018278488889336586,-1.0824891328811646,1.4186848402023315,-0.335040420293808
0.635,0.003154063830152154,0.02490467019379139,-1.082268476486206,1.4192509651184082,-0.336164265871048
0.64,0.00881214253604412,0.026450766250491142,-1.0822725296020508,1.4194047451019287,-0.33620017766952515
0.645,0.015935346484184265,0.021573306992650032,-1.0823355913162231,1.4199836254119873,-0.33740851283073425
0.65,0.009910226799547672,0.0257431473582983,-1.0818568468093872,1.4202203750610352,-0.33713918924331665
0.655,0.005978986155241728,0.03241311013698578,-1.0814971923828125,1.420958161354065,-0.3387000858783722
0.66,0.011646999977529049,0.03400523588061333,-1.0814340114593506,1.4211499691009521,-0.33875343203544617
0.665,0.01878693699836731,0.029169192537665367,-1.0814248323440552,1.4218257665634155,-0.3403584659099579
0.67,0.012767333537340164,0.033364444971084595,-1.0807771682739258,1.4221584796905518,-0.34003400802612305
0.675,0.008823147974908352,0.04008030518889427,-1.0802967548370361,1.423067331314087,-0.34206101298332214
0.68,0.014497613534331322,0.041719820350408554,-1.0801929235458374,1.4232908487319946,-0.34212973713874817
0.685,0.021649673581123352,0.03691447526216507,-1.080130934715271,1.4240628480911255,-0.3441559076309204
0.6900000000000001,0.015619625337421894,0.041115861386060715,-1.0793156623840332,1.424493670463562,-0.34377333521842957
0.6950000000000001,0.011644725687801838,0.047859277576208115,-1.0786980390548706,1.4255833625793457,-0.34629225730895996
0.7000000000000001,0.017311910167336464,0.04953647777438164,-1.0785273313522339,1.4258477687835693,-0.3463779389858246
0.705,0.024472985416650772,0.044750794768333435,-1.078383207321167,1.4267287254333496,-0.34885352849960327
0.71,0.01842525415122509,0.0489482507109642,-1.0773736238479614,1.427263855934143,-0.34841278195381165
0.715,0.014413424767553806,0.05571376532316208,-1.076602816581726,1.4285399913787842,-0.3514501452445984
0.72,0.020069368183612823,0.0574299581348896,-1.0763641595840454,1.428847312927246,-0.35155224800109863
0.725,0.027239620685577393,0.05265670269727707,-1.0761436223983765,1.4298356771469116,-0.35449957847595215
0.73,0.021162137389183044,0.05683529004454613,-1.0749456882476807,1.430474877357483,-0.3539994955062866
0.735,0.017097752541303635,0.06360731273889542,-1.0740232467651367,1.431941032409668,-0.35757723450660706
0.74,0.022728458046913147,0.06535252928733826,-1.0737113952636719,1.4322917461395264,-0.3576951324939728
0.745,0.029902465641498566,0.060575541108846664,-1.0734033584594727,1.433395504951477,-0.36113598942756653
0.75,0.02378264255821705,0.0647173747420311,-1.0720001459121704,1.4341431856155396,-0.3605765402317047
0.755,0.019653402268886566,0.07148297876119614,-1.0709068775177002,1.4358012676239014,-0.3647141456604004
0.76,0.025250984355807304,0.07325319200754166,-1.0705082416534424,1.4362010955810547,-0.3648487329483032
0.765,0.03242931514978409,0.06846193969249725,-1.070103406906128,1.43742036819458,-0.3688007891178131
0.77,0.02625587210059166,0.0725519135594368,-1.0684894323349,1.4382758140563965,-0.3681826591491699
0.775,0.02204766683280468,0.07929635047912598,-1.0672221183776855,1.4401265382766724,-0.37289509177207947
0.78,0.027600370347499847,0.0810820683836937,-1.066736102104187,1.4405760765075684,-0.37304601073265076
0.785,0.03477908670902252,0.07625899463891983,-1.0662320852279663,1.4419081211090088,-0.37752214074134827
0.79,0.028536994010210037,0.08027584105730057,-1.064402461051941,1.442873477935791,-0.37684690952301025
0.795,0.024234453216195107,0.08698050677776337,-1.0629494190216064,1.4449135065078735,-0.38214370608329773
0.8,0.029731296002864838,0.08877208828926086,-1.062363624572754,1.4454147815704346,-0.38231226801872253
0.805,0.03690999746322632,0.08390156924724579,-1.061750054359436,1.4468631744384766,-0.3873231112957001
0.81,0.030587509274482727,0.08782666176557541,-1.0596951246261597,1.4479353427886963,-0.38659143447875977
0.8150000000000001,0.026176990941166878,0.09447456151247025,-1.0580472946166992,1.4501599073410034,-0.3924785554409027
0.8200000000000001,0.0316077396273613,0.0962614119052887,-1.0573570728302002,1.450714111328125,-0.3926634192466736
0.8250000000000001,0.03878588229417801,0.09132429212331772,-1.0566309690475464,1.452271580696106,-0.3982125520706177
0.8300000000000001,0.032368727028369904,0.09513453394174576,-1.0543501377105713,1.453450083732605,-0.3974277675151825
0.835,0.027833694592118263,0.10170429199934006,-1.0525027513504028,1.4558522701263428,-0.40390411019325256
0.84,0.033186715096235275,0.1034722775220871,-1.0517020225524902,1.4564592838287354,-0.4041062891483307
0.845,0.04036485031247139,0.09844760596752167,-1.0508581399917603,1.4581230878829956,-0.4101925194263458
0.85,0.033840447664260864,0.10212027281522751,-1.0483464002609253,1.4594035148620605,-0.40935608744621277
0.855,0.029167216271162033,0.10859102755784988,-1.0462909936904907,1.461972951889038,-0.4164145886898041
0.86,0.03443371504545212,0.11032623797655106,-1.0453733205795288,1.462634563446045,-0.416634202003479
0.865,0.04161491617560387,0.10519251227378845,-1.0444086790084839,1.4643983840942383,-0.4232499897480011
0.87,0.03497091308236122,0.10870345681905746,-1.0416662693023682,1.4657732248306274,-0.42236557602882385
0.875,0.030144797638058662,0.11505180597305298,-1.039400577545166,1.4684979915618896,-0.4299917221069336
0.88,0.03531545028090477,0.11673673987388611,-1.0383630990982056,1.4692120552062988,-0.43022778630256653
0.885,0.04250349849462509,0.1114693284034729,-1.037275791168213,1.471064805984497,-0.4373582899570465
0.89,0.035728342831134796,0.1147926077246666,-1.0343055725097656,1.4725319147109985,-0.4364303946495056
0.895,0.03073575161397457,0.12099435925483704,-1.0318270921707153,1.4753973484039307,-0.44460171461105347
0.9,0.035803984850645065,0.12261038273572922,-1.0306662321090698,1.476162314414978,-0.44485482573509216
0.905,0.04300666227936745,0.11718398332595825,-1.0294572114944458,1.4780958890914917,-0.4524771571159363
0.91,0.03609069064259529,0.1202942430973053,-1.0262643098831177,1.4796439409255981,-0.45150941610336304
0.915,0.030919689685106277,0.1263245940208435,-1.0235737562179565,1.4826301336288452,-0.46019506454467773
0.92,0.03587998449802399,0.12785153090953827,-1.022289752960205,1.4834446907043457,-0.46046462655067444
0.925,0.04310697689652443,0.12223901599645615,-1.0209629535675049,1.4854488372802734,-0.46854859590530396
0.93,0.036042191088199615,0.12510934472084045,-1.0175564289093018,1.4870691299438477,-0.4675463140010834
0.935,0.030682453885674477,0.1309421807527542,-1.01465904712677,1.4901585578918457,-0.47670677304267883
0.9400000000000001,0.035531867295503616,0.13235817849636078,-1.0132534503936768,1.4910192489624023,-0.4769917130470276
0.9450000000000001,0.04279610142111778,0.1265316605567932,-1.011813759803772,1.4930778741836548,-0.4854980707168579
0.9500000000000001,0.03557687997817993,0.12913545966148376,-1.0082066059112549,1.4947587251663208,-0.4844660460948944
0.9550000000000001,0.0300197321921587,0.13474521040916443,-1.0051108598709106,1.4979294538497925,-0.4940524101257324
0.96,0.03475775569677353,0.13602757453918457,-1.003588080406189,1.4988328218460083,-0.49435269832611084
0.965,0.04207668453454971,0.1299578994512558,-1.0020456314086914,1.5009340047836304,-0.5032328963279724
0.97,0.034699946641922,0.13226944208145142,-0.9982560873031616,1.502662181854248,-0.5021769404411316
0.975,0.028939351439476013,0.13763074576854706,-0.9949753284454346,1.5058895349502563,-0.5121302604675293
0.98,0.03356851637363434,0.1387559026479721,-0.9933428168296814,1.5068295001983643,-0.5124431252479553
0.985,0.04096221551299095,0.13241426646709442,-0.9917100667953491,1.5089582204818726,-0.5216403007507324
0.99,0.03342774510383606,0.13440833985805511,-0.9877607822418213,1.510721206665039,-0.5205668807029724
0.995,0.02745988219976425,0.13949695229530334,-0.9843134880065918,1.5139816999435425,-0.5308189988136292
1.0,0.031985651701688766,0.14044131338596344,-0.9825820326805115,1.5149534940719604,-0.531143307685852
1.0050000000000001,0.039478201419115067,0.1337992250919342,-0.980875551700592,1.5170937776565552,-0.5405911207199097
1.01,0.03178916871547699,0.13545244932174683,-0.9767948389053345,1.5188751220703125,-0.5395061373710632
1.0150000000000001,0.025613417848944664,0.1402459293603897,-0.9732053279876709,1.5221425294876099,-0.5499795079231262
1.02,0.030043965205550194,0.1409870684146881,-0.9713898301124573,1.5231400728225708,-0.5503125786781311
1.025,0.03766228258609772,0.13401754200458527,-0.9696288704872131,1.525275707244873,-0.5599356293678284
1.03,0.02982501871883869,0.1353086531162262,-0.9654499292373657,1.5270582437515259,-0.5588454008102417
1.035,0.023443665355443954,0.1397865116596222,-0.9617480039596558,1.5303069353103638,-0.5694525241851807
1.04,0.027789652347564697,0.14030301570892334,-0.9598655700683594,1.5313223600387573,-0.5697920918464661
1.045,0.035563282668590546,0.1329810619354248,-0.9580726027488708,1.5334370136260986,-0.5795056223869324
1.05,0.02758757211267948,0.13389186561107635,-0.9538351893424988,1.53520667552948,-0.578419029712677
1.055,0.02100498601794243,0.13803787529468536,-0.9500566720962524,1.5384093523025513,-0.5890631675720215
1.06,0.02528015524148941,0.13831070065498352,-0.9481292963027954,1.5394344329833984,-0.5894056558609009
1.065,0.03324070945382118,0.13061442971229553,-0.9463309645652771,1.541514277458191,-0.5991194844245911
1.07,0.025138692930340767,0.13113059103488922,-0.9420784711837769,1.543249487876892,-0.5980425477027893
1.075,0.01836218684911728,0.1349317729473114,-0.9382646679878235,1.546379566192627,-0.6086195707321167
1.08,0.022581350058317184,0.13494490087032318,-0.9363163113594055,1.5474058389663696,-0.6089608073234558
1.085,0.03076026402413845,0.12685616314411163,-0.9345395565032959,1.5494351387023926,-0.6185756325721741
1.09,0.02254723384976387,0.12696732580661774,-0.9303210973739624,1.5511196851730347,-0.6175175905227661
1.095,0.015586165711283684,0.13041596114635468,-0.926518976688385,1.554152011871338,-0.6279165744781494
1.1,0.01976562663912773,0.13015760481357574,-0.9245774745941162,1.555171251296997,-0.6282527446746826
1.105,0.02819347195327282,0.12166382372379303,-0.9228517413139343,1.5571357011795044,-0.637663722038269
1.11,0.019887058064341545,0.12136458605527878,-0.9187207818031311,1.5587493181228638,-0.6366332173347473
1.115,0.012752290815114975,0.12445803731679916,-0.9149824380874634,1.561658501625061,-0.6467368602752686
1.12,0.016907602548599243,0.12392076104879379,-0.9130772948265076,1.5626600980758667,-0.6470634937286377
1.125,0.02561163157224655,0.11501425504684448,-0.9114319682121277,1.5645474195480347,-0.6561611890792847
1.1300000000000001,0.017230147495865822,0.11430444568395615,-0.9074446558952332,1.5660732984542847,-0.6551685333251953
1.135,0.009933649562299252,0.1170458123087883,-0.9038246870040894,1.5688340663909912,-0.6648562550544739
1.1400000000000001,0.01408072654157877,0.1162269115447998,-0.9019863605499268,1.5698093175888062,-0.6651679277420044
1.145,0.023083742707967758,0.10690704733133316,-0.9004500508308411,1.5716074705123901,-0.6738402843475342
1.1500000000000001,0.01464649848639965,0.10579295456409454,-0.8966648578643799,1.5730262994766235,-0.6728957891464233
1.155,0.007201332598924637,0.10819175839424133,-0.8932233452796936,1.5756168365478516,-0.6820433735847473
1.16,0.011353644542396069,0.10709451884031296,-0.8914850950241089,1.576554536819458,-0.6823350191116333
1.165,0.020671112462878227,0.09736725687980652,-0.8900861144065857,1.5782526731491089,-0.6904692053794861
1.17,0.012196131981909275,0.09586087614297867,-0.8865624666213989,1.5795471668243408,-0.6895838379859924
1.175,0.004614918492734432,0.09793228656053543,-0.883358895778656,1.5819464921951294,-0.6980677247047424
1.18,0.008783792145550251,0.09656485170125961,-0.8817515969276428,1.582836627960205,-0.6983336210250854
1.185,0.018423479050397873,0.08644316345453262,-0.8805143237113953,1.5844248533248901,-0.7058165669441223
1.19,0.009927413426339626,0.08456350117921829,-0.8773113489151001,1.5855796337127686,-0.7050032019615173
1.195,0.0022230527829378843,0.08632946759462357,-0.8744070529937744,1.5877667665481567,-0.7127007842063904
1.2,0.006416588090360165,0.08470617979764938,-0.872963547706604,1.5885990858078003,-0.7129356861114502
1.205,0.01637481339275837,0.07421097159385681,-0.8719120025634766,1.5900694131851196,-0.7196560502052307
1.21,0.007871907204389572,0.0719829797744751,-0.8690875172615051,1.591066837310791,-0.7189262509346008
1.215,5.720582703361288e-05,0.07347041368484497,-0.8665429949760437,1.5930240154266357,-0.7257194519042969
1.22,0.004279885906726122,0.07161057740449905,-0.865293025970459,1.5937871932983398,-0.7259176969528198
1.225,0.01454206369817257,0.06076997146010399,-0.864446759223938,1.5951335430145264,-0.7317705154418945
1.23,0.006042093504220247,0.058225832879543304,-0.8620553612709045,1.5959621667861938,-0.7311367988586426
1.235,-0.00187096802983433,0.05946755036711693,-0.8599274754524231,1.5976688861846924,-0.736911952495575
1.24,0.0023824593517929316,0.05739520490169525,-0.8589009642601013,1.5983549356460571,-0.7370694279670715
1.245,0.01292151678353548,0.046244580298662186,-0.8582780957221985,1.5995700359344482,-0.7419528365135193
1.25,0.004429846070706844,0.0434231162071228,-0.8563699722290039,1.6002150774002075,-0.7414278388023376
1.2550000000000001,-0.0035694590769708157,0.04445681720972061,-0.8547131419181824,1.6016573905944824,-0.7460804581642151
1.26,0.0007123221876099706,0.04220086708664894,-0.853936493396759,1.6022553443908691,-0.7461916208267212
1.2650000000000001,0.01148891355842352,0.03078249841928482,-0.8535518646240234,1.6033332347869873,-0.7500135898590088
1.27,0.003006588201969862,0.027728457003831863,-0.8521722555160522,1.603784441947937,-0.7496085166931152
1.2750000000000001,-0.005067434627562761,0.028596362099051476,-0.8510348200798035,1.6049476861953735,-0.753044843673706
1.28,-0.0007626608130522072,0.026189502328634262,-0.8505321741104126,1.6054489612579346,-0.7531055212020874
1.285,0.010200257413089275,0.014552047476172447,-0.8503990173339844,1.606382131576538,-0.7557839751243591
1.29,0.0017228915821760893,0.01131654717028141,-0.8495877385139465,1.606630802154541,-0.7555080056190491
1.295,-0.006414138711988926,0.012065083719789982,-0.8490115404129028,1.60750150680542,-0.7576448321342468
1.3,-0.002094227820634842,0.009544072672724724,-0.8488037586212158,1.6078978776931763,-0.7576521635055542
1.305,0.008993331342935562,-0.0022573876194655895,-0.8489342927932739,1.6086819171905518,-0.7591164112091064
1.31,0.0005124909803271294,-0.005617531016469002,-0.8487230539321899,1.6087206602096558,-0.7589776515960693
1.315,-0.0076758237555623055,-0.004938274621963501,-0.8487406373023987,1.6092849969863892,-0.759745717048645
1.32,-0.003350490238517523,-0.007533838972449303,-0.848845362663269,1.6095690727233887,-0.7596973776817322
1.325,0.007791454903781414,-0.019439321011304855,-0.8492521643638611,1.6101993322372437,-0.7598898410797119
1.33,-0.0007046409882605076,-0.02286262810230255,-0.8496649861335754,1.6100198030471802,-0.7598926424980164
1.335,-0.00893193855881691,-0.022199539467692375,-0.8502997756004333,1.6102681159973145,-0.7592402100563049
1.34,-0.004612454678863287,-0.02482679672539234,-0.8507302403450012,1.6104363203048706,-0.7591348886489868
1.345,0.006507820449769497,-0.03677107393741608,-0.8514235615730286,1.6109046936035156,-0.7580129504203796
1.35,-0.0020166318863630295,-0.04019143804907799,-0.8524759411811829,1.6105037927627563,-0.7581603527069092
1.355,-0.010269517078995705,-0.03948827460408211,-0.8537406325340271,1.6104261875152588,-0.7560508251190186
1.36,-0.005967707838863134,-0.0421016588807106,-0.854505717754364,1.6104726791381836,-0.7558888792991638
1.365,0.00505176093429327,-0.05401579290628433,-0.8554971218109131,1.6107741594314575,-0.7534269690513611
1.37,-0.0035138321109116077,-0.05736425146460533,-0.8571955561637878,1.6101515293121338,-0.753717839717865
1.375,-0.01177829597145319,-0.05656231567263603,-0.8590905070304871,1.6097396612167358,-0.7501355409622192
1.3800000000000001,-0.007505154702812433,-0.05911410227417946,-0.860193133354187,1.6096611022949219,-0.7499178051948547
1.385,0.003335647052153945,-0.07092611491680145,-0.8614909052848816,1.6097874641418457,-0.7461082935333252
1.3900000000000001,-0.005281461402773857,-0.07413137704133987,-0.8638299703598022,1.6089421510696411,-0.7465375661849976
1.395,-0.013541709631681442,-0.07317037880420685,-0.86634361743927,1.608193039894104,-0.7414876222610474
1.4000000000000001,-0.009307712316513062,-0.07561086118221283,-0.867782711982727,1.6079893112182617,-0.7412163615226746
1.405,0.0012816610978916287,-0.08724736422300339,-0.8693955540657043,1.607932448387146,-0.7360715270042419
1.41,-0.0073922364972531796,-0.0902373418211937,-0.8723605871200562,1.6068668365478516,-0.7366315126419067
1.415,-0.015630964189767838,-0.08905492722988129,-0.8754675388336182,1.605775237083435,-0.7301393747329712
1.42,-0.011443599127233028,-0.09133270382881165,-0.8772343397140503,1.6054487228393555,-0.7298203110694885
1.425,-0.001169232651591301,-0.10271967947483063,-0.8791648745536804,1.6052032709121704,-0.723371148109436
1.43,-0.009898597374558449,-0.10542262345552444,-0.8827268481254578,1.603922724723816,-0.7240524888038635
1.435,-0.018096499145030975,-0.10395622998476028,-0.8863899111747742,1.602491021156311,-0.7161685228347778
1.44,-0.013959717936813831,-0.10602019727230072,-0.8884692192077637,1.6020418405532837,-0.7158059477806091
1.445,-0.00405121361836791,-0.11708589643239975,-0.8907158374786377,1.6016007661819458,-0.7081064581871033
1.45,-0.012826620601117611,-0.11943259835243225,-0.8948350548744202,1.6001148223876953,-0.7088971734046936
1.455,-0.02096129208803177,-0.11762060225009918,-0.8990041017532349,1.5983463525772095,-0.6996943950653076
1.46,-0.0168740376830101,-0.11942026764154434,-0.9013743996620178,1.5977799892425537,-0.6992943286895752
1.465,-0.007366206496953964,-0.13009610772132874,-0.9039285182952881,1.5971382856369019,-0.6904196739196777
1.47,-0.016169210895895958,-0.13202054798603058,-0.9085521101951599,1.5954574346542358,-0.6913056969642639
1.475,-0.024215301498770714,-0.1298028528690338,-0.9131649136543274,1.5933603048324585,-0.6808813214302063
1.48,-0.020169248804450035,-0.1312907189130783,-0.9157967567443848,1.5926834344863892,-0.6804513335227966
1.485,-0.011078882031142712,-0.14151418209075928,-0.9186403751373291,1.591841697692871,-0.6704997420310974
1.49,-0.019882168620824814,-0.1429562121629715,-0.9237027168273926,1.5899790525436401,-0.6714661121368408
1.495,-0.027811065316200256,-0.14027678966522217,-0.928686261177063,1.5875650644302368,-0.6599417328834534
1.5,-0.023791145533323288,-0.1414097100496292,-0.9315434694290161,1.586788535118103,-0.6594899892807007
1.5050000000000001,-0.015114737674593925,-0.15112659335136414,-0.9346482753753662,1.585747241973877,-0.6485790014266968
1.51,-0.02388293296098709,-0.15203240513801575,-0.94007408618927,1.583722710609436,-0.6496119499206543
1.5150000000000001,-0.03166218847036362,-0.14884094893932343,-0.9453487992286682,1.5810121297836304,-0.6371309161186218
1.52,-0.027644606307148933,-0.1495828777551651,-0.9483887553215027,1.5801433324813843,-0.6366646885871887
1.5250000000000001,-0.01936040073633194,-0.15874914824962616,-0.9517172574996948,1.5789090394973755,-0.6249342560768127
1.53,-0.028051432222127914,-0.15907396376132965,-0.9574214220046997,1.5767444372177124,-0.6260197758674622
1.5350000000000001,-0.035646118223667145,-0.15532763302326202,-0.9628989696502686,1.57376229763031,-0.6127456426620483
1.54,-0.03159955516457558,-0.1556510627269745,-0.9660724401473999,1.5728157758712769,-0.612274169921875
1.545,-0.02366766333580017,-0.16423483192920685,-0.9695760607719421,1.5713984966278076,-0.5998815298080444
1.55,-0.032234735786914825,-0.1639433354139328,-0.9754673838615417,1.569119930267334,-0.6010059118270874
1.555,-0.03960705175995827,-0.1596089005470276,-0.9810569286346436,1.5658984184265137,-0.5871217846870422
1.56,-0.035492975264787674,-0.15949653089046478,-0.9843113422393799,1.5648877620697021,-0.5866524577140808
1.565,-0.027859503403306007,-0.16747887432575226,-0.9879350662231445,1.5633060932159424,-0.5737707614898682
1.57,-0.03625376522541046,-0.16654697060585022,-0.993918240070343,1.5609407424926758,-0.5749211311340332
1.575,-0.043366190046072006,-0.16160209476947784,-0.9995285868644714,1.5575200319290161,-0.560623049736023
1.58,-0.039141733199357986,-0.16104848682880402,-1.0028090476989746,1.5564619302749634,-0.5601649284362793
1.585,-0.0317423976957798,-0.16842477023601532,-1.006492018699646,1.5547398328781128,-0.5469814538955688
1.59,-0.03991583362221718,-0.1668400913476944,-1.0124719142913818,1.552320957183838,-0.5481448769569397
1.595,-0.04673158749938011,-0.161274716258049,-1.0180132389068604,1.5487473011016846,-0.5336405634880066
1.6,-0.04235135391354561,-0.16028602421283722,-1.0212644338607788,1.547658920288086,-0.5331998467445374
1.605,-0.03511648625135422,-0.16706444323062897,-1.0249435901641846,1.54582679271698,-0.519911527633667
1.61,-0.04302361235022545,-0.16482645273208618,-1.0308277606964111,1.5433896780014038,-0.521075427532196
1.615,-0.04950961843132973,-0.15864233672618866,-1.0362179279327393,1.5397213697433472,-0.5065793395042419
1.62,-0.044929198920726776,-0.15723609924316406,-1.0393879413604736,1.5386196374893188,-0.5061626434326172
1.625,-0.037788283079862595,-0.16343799233436584,-1.0430020093917847,1.5367141962051392,-0.4929697513580322
1.6300000000000001,-0.04538996145129204,-0.16055841743946075,-1.0487041473388672,1.5342954397201538,-0.4941214919090271
1.635,-0.05151919648051262,-0.153769388794899,-1.0538666248321533,1.530592918395996,-0.4798504114151001
1.6400000000000001,-0.046698808670043945,-0.15197281539440155,-1.0569075345993042,1.5295007228851318,-0.4794633090496063
1.645,-0.0395854189991951,-0.1576300710439682,-1.0603978633880615,1.5275667905807495,-0.46656882762908936
1.6500000000000001,-0.04685051366686821,-0.15413156151771545,-1.065838098526001,1.5252017974853516,-0.4676942825317383
1.655,-0.052603527903556824,-0.14676247537136078,-1.0707087516784668,1.5215356349945068,-0.4538635313510895
1.6600000000000001,-0.04750937595963478,-0.14461107552051544,-1.0735801458358765,1.520472764968872,-0.4535095691680908
1.665,-0.04036460444331169,-0.1497640311717987,-1.0768975019454956,1.5185575485229492,-0.44111233949661255
1.67,-0.047271352261304855,-0.14567901194095612,-1.0820077657699585,1.5162854194641113,-0.44219622015953064
1.675,-0.05263792350888252,-0.13776350021362305,-1.086533546447754,1.5127304792404175,-0.4290156364440918
1.68,-0.04724577069282532,-0.13529770076274872,-1.0892002582550049,1.5117168426513672,-0.4286966621875763
1.685,-0.04002155736088753,-0.13999316096305847,-1.0923012495040894,1.509874701499939,-0.4169892966747284
1.69,-0.046559859067201614,-0.13536320626735687,-1.0970228910446167,1.5077341794967651,-0.4180159866809845
1.695,-0.05154016241431236,-0.12694397568702698,-1.1011611223220825,1.5043668746948242,-0.4056858718395233
1.7,-0.045837532728910446,-0.12420737743377686,-1.10359787940979,1.5034245252609253,-0.40540406107902527
1.705,-0.03849785029888153,-0.1284964233636856,-1.1064502000808716,1.5017117261886597,-0.3945668637752533
1.71,-0.04466834291815758,-0.12336917221546173,-1.1107360124588013,1.4997377395629883,-0.3955199122428894
1.715,-0.04927259311079979,-0.11449302732944489,-1.114457130432129,1.4966373443603516,-0.38422736525535583
1.72,-0.043257202953100204,-0.11152873188257217,-1.116645336151123,1.495786428451538,-0.38398149609565735
1.725,-0.03577861934900284,-0.11546400934457779,-1.119223952293396,1.4942591190338135,-0.3741835653781891
1.73,-0.041594501584768295,-0.109892338514328,-1.1230378150939941,1.492488980293274,-0.3750457763671875
1.735,-0.04584367200732231,-0.10061153769493103,-1.1263210773468018,1.4897327423095703,-0.3649633228778839
1.74,-0.03952610865235329,-0.09746167808771133,-1.1282490491867065,1.4889925718307495,-0.36475270986557007
1.745,-0.031898073852062225,-0.10109693557024002,-1.1305378675460815,1.4877089262008667,-0.35614529252052307
1.75,-0.03738294169306755,-0.09513711929321289,-1.133851170539856,1.4861719608306885,-0.35689958930015564
1.7550000000000001,-0.041307445615530014,-0.08550515025854111,-1.1366846561431885,1.483834981918335,-0.34818220138549805
1.76,-0.03470886871218681,-0.08220739662647247,-1.1383461952209473,1.483224630355835,-0.3480043411254883
1.7650000000000001,-0.026931634172797203,-0.08559530228376389,-1.1403357982635498,1.4822381734848022,-0.34072163701057434
1.77,-0.03211960941553116,-0.07930482923984528,-1.1431286334991455,1.480964183807373,-0.34135177731513977
1.7750000000000001,-0.035758424550294876,-0.06937628239393234,-1.1455055475234985,1.479112148284912,-0.33413493633270264
1.78,-0.028909994289278984,-0.06596419215202332,-1.1468980312347412,1.478647232055664,-0.33398693799972534
1.7850000000000001,-0.02099412865936756,-0.06915649771690369,-1.148582935333252,1.47800612449646,-0.3281441032886505
1.79,-0.025929059833288193,-0.0625939667224884,-1.1508420705795288,1.4770208597183228,-0.3286353647708893
1.795,-0.029329096898436546,-0.052424199879169464,-1.1527612209320068,1.4757155179977417,-0.32303386926651
1.8,-0.022271040827035904,-0.048926807940006256,-1.153885006904602,1.47541081905365,-0.3229139745235443
1.805,-0.014235270209610462,-0.051973532885313034,-1.1552625894546509,1.4751547574996948,-0.3186056315898895
1.81,-0.018967939540743828,-0.04519694671034813,-1.1569772958755493,1.474479079246521,-0.3189450204372406
1.815,-0.02218170277774334,-0.0348394401371479,-1.1584367752075195,1.4737671613693237,-0.31505095958709717
1.82,-0.014960626140236855,-0.03128029778599739,-1.1592925786972046,1.4736350774765015,-0.3149566650390625
1.825,-0.0068296086974442005,-0.03423009812831879,-1.1603639125823975,1.4738010168075562,-0.31225743889808655
1.83,-0.011417672969400883,-0.027297228574752808,-1.1615281105041504,1.4734485149383545,-0.3124349117279053
1.835,-0.014503591693937778,-0.01680576615035534,-1.1625293493270874,1.473366141319275,-0.3103190064430237
1.84,-0.007172331213951111,-0.013205962255597115,-1.1631184816360474,1.4734163284301758,-0.31024760007858276
1.845,0.001023588702082634,-0.01610659435391426,-1.1638809442520142,1.4740244150161743,-0.3092111647129059
1.85,-0.003482077270746231,-0.009074968285858631,-1.1644885540008545,1.4740077257156372,-0.309219092130661
1.855,-0.006501634605228901,0.00149796181358397,-1.1650285720825195,1.4745771884918213,-0.3089281916618347
1.86,0.0008837138302624226,0.005121319554746151,-1.1653501987457275,1.4748146533966064,-0.3088797628879547
1.865,0.009112456813454628,0.0022231601178646088,-1.1658021211624146,1.4758740663528442,-0.3095369040966034
1.87,0.00462469132617116,0.00929651502519846,-1.1658484935760498,1.4761981964111328,-0.30937162041664124
1.875,0.001607444602996111,0.019898755475878716,-1.1659241914749146,1.477428913116455,-0.31092914938926697
1.8800000000000001,0.008988607674837112,0.02352863922715187,-1.1659765243530273,1.4778575897216797,-0.3109034299850464
1.885,0.017215369269251823,0.02058587409555912,-1.166114091873169,1.4793682098388672,-0.31326553225517273
1.8900000000000001,0.012678309343755245,0.027643047273159027,-1.165594220161438,1.4800323247909546,-0.3129252791404724
1.895,0.009598040021955967,0.03822138532996178,-1.1651989221572876,1.4819153547286987,-0.31633082032203674
1.9000000000000001,0.01691605895757675,0.04184075817465782,-1.164977788925171,1.4825336933135986,-0.3163292109966278
1.905,0.025106707587838173,0.038806457072496414,-1.164795994758606,1.484482765197754,-0.3203847408294678
1.9100000000000001,0.02045486681163311,0.04578898847103119,-1.163705587387085,1.4854826927185059,-0.31987324357032776
1.915,0.017247453331947327,0.05629003793001175,-1.162830114364624,1.4879955053329468,-0.3251020908355713
1.92,0.024444933980703354,0.059880390763282776,-1.1623293161392212,1.4887980222702026,-0.32512643933296204
1.925,0.03256702050566673,0.056706126779317856,-1.1618212461471558,1.4911606311798096,-0.3308423161506653
1.93,0.027736462652683258,0.06355302780866623,-1.160156011581421,1.4924850463867188,-0.33016517758369446
1.935,0.02433851920068264,0.0739213228225708,-1.158790111541748,1.4955922365188599,-0.3371695876121521
1.94,0.031360723078250885,0.07746005058288574,-1.1580039262771606,1.4965736865997314,-0.3372233211994171
1.945,0.039385080337524414,0.0740959644317627,-1.1571630239486694,1.499312400817871,-0.3445442318916321
1.95,0.034315865486860275,0.0807449147105217,-1.1549214124679565,1.5009442567825317,-0.34371137619018555
1.955,0.0306682288646698,0.09092321991920471,-1.1530550718307495,1.5045984983444214,-0.3524183928966522
1.96,0.03746580705046654,0.09438352286815643,-1.1519770622253418,1.5057470798492432,-0.3525052070617676
1.965,0.045369308441877365,0.09077759087085724,-1.1507985591888428,1.5088187456130981,-0.36135467886924744
1.97,0.04000736400485039,0.09716405719518661,-1.147981882095337,1.5107368230819702,-0.3603781759738922
1.975,0.036055125296115875,0.10709310322999954,-1.145606279373169,1.5148779153823853,-0.37069207429885864
1.98,0.042584892362356186,0.11044226586818695,-1.144230604171753,1.5161792039871216,-0.37081578373908997
1.985,0.05035186558961868,0.10653955489397049,-1.142712950706482,1.5195343494415283,-0.38109588623046875
1.99,0.04465049132704735,0.11259740591049194,-1.139327883720398,1.5217124223709106,-0.3799896836280823
1.995,0.0403461791574955,0.12221579998731613,-1.1364390850067139,1.5262726545333862,-0.3917921483516693
2.0,0.04657360911369324,0.12541572749614716,-1.1347647905349731,1.5277107954025269,-0.39195576310157776
2.005,0.05419818311929703,0.12115935236215591,-1.1329129934310913,1.5312927961349487,-0.40354686975479126
2.0100000000000002,0.04812036454677582,0.1268218606710434,-1.1289734840393066,1.533698558807373,-0.4023273289203644
2.015,0.043424736708402634,0.13606756925582886,-1.1255743503570557,1.5386042594909668,-0.41547638177871704
2.02,0.049326151609420776,0.13907408714294434,-1.1236045360565186,1.5401619672775269,-0.41568344831466675
2.025,0.0568152479827404,0.13440413773059845,-1.1214303970336914,1.543912649154663,-0.42844438552856445
2.0300000000000002,0.05033430457115173,0.13960514962673187,-1.116959571838379,1.546510934829712,-0.42712917923927307
2.035,0.045217715203762054,0.1484159529209137,-1.1130623817443848,1.5516839027404785,-0.4414609372615814
2.04,0.05078089237213135,0.15118010342121124,-1.1108075380325317,1.553341269493103,-0.4417131543159485
2.045,0.0581551268696785,0.14603574573993683,-1.1083343029022217,1.557201862335205,-0.4554837644100189
2.05,0.05125712603330612,0.15071196854114532,-1.1033684015274048,1.55995512008667,-0.4540906548500061
2.055,0.045701928436756134,0.15902841091156006,-1.0989978313446045,1.5653153657913208,-0.46942251920700073
2.06,0.05092872306704521,0.16149844229221344,-1.0964767932891846,1.5670511722564697,-0.46972036361694336
2.065,0.058224860578775406,0.15581867098808289,-1.093738317489624,1.5709654092788696,-0.48432156443595886
2.07,0.05090847611427307,0.1599116176366806,-1.0883245468139648,1.573831558227539,-0.48286721110343933
2.075,0.0449085533618927,0.16767820715904236,-1.0835191011428833,1.5793009996414185,-0.49899789690971375
2.08,0.04981331527233124,0.16980162262916565,-1.0807605981826782,1.5810943841934204,-0.49934011697769165
2.085,0.05708391219377518,0.16352705657482147,-1.0778042078018188,1.5850087404251099,-0.51457679271698
2.09,0.0493612214922905,0.16698545217514038,-1.0720065832138062,1.587945818901062,-0.5130777955055237
2.095,0.04292277246713638,0.17415444552898407,-1.0668200254440308,1.5934473276138306,-0.5297912359237671
2.1,0.047534503042697906,0.17588071525096893,-1.0638636350631714,1.5952764749526978,-0.5301740765571594
2.105,0.054847702383995056,0.16895681619644165,-1.0607478618621826,1.5991417169570923,-0.5458375215530396
2.11,0.046743281185626984,0.1717393398284912,-1.0546423196792603,1.6021063327789307,-0.544309675693512
2.115,0.03988360986113548,0.17827293276786804,-1.0491433143615723,1.607569694519043,-0.5613763332366943
2.12,0.04424285888671875,0.17955675721168518,-1.0460377931594849,1.6094138622283936,-0.5617950558662415
2.125,0.051679473370313644,0.17193599045276642,-1.042832374572754,1.613187313079834,-0.5776678919792175
2.13,0.04322889819741249,0.17401312291622162,-1.036509394645691,1.6161352396011353,-0.5761250853538513
2.1350000000000002,0.03597515448927879,0.17988616228103638,-1.0307822227478027,1.6214948892593384,-0.59330815076828
2.14,0.04013262689113617,0.18069083988666534,-1.0275863409042358,1.6233354806900024,-0.5937561392784119
2.145,0.0477827824652195,0.17233650386333466,-1.024368166923523,1.6269798278808594,-0.6096140146255493
2.15,0.03903186693787575,0.1736920177936554,-1.0179301500320435,1.6298714876174927,-0.6080709099769592
2.1550000000000002,0.03141796961426735,0.17889456450939178,-1.0120707750320435,1.63507080078125,-0.6251299977302551
2.16,0.035429809242486954,0.1791948527097702,-1.008846402168274,1.6368848085403442,-0.6255979537963867
2.165,0.04338734969496727,0.17008236050605774,-1.0056957006454468,1.6403719186782837,-0.6412183046340942
2.17,0.034388378262519836,0.17071370780467987,-0.9992536306381226,1.6431691646575928,-0.6396874785423279
2.1750000000000003,0.026451831683516502,0.1752517968416214,-0.9933682680130005,1.6481568813323975,-0.6563820838928223
2.18,0.030377058312296867,0.17503564059734344,-0.9901852607727051,1.6499284505844116,-0.6568624377250671
2.185,0.03873318433761597,0.16515611112117767,-0.9871816039085388,1.6532338857650757,-0.6720239520072937
2.19,0.029542308300733566,0.16507583856582642,-0.9808504581451416,1.6558986902236938,-0.6705198884010315
2.195,0.021321943029761314,0.16897228360176086,-0.9750505089759827,1.6606348752975464,-0.6866169571876526
2.2,0.025217194110155106,0.1682422012090683,-0.9719750881195068,1.6623460054397583,-0.6870980262756348
2.205,0.0340547077357769,0.1576019674539566,-0.9691911339759827,1.6654545068740845,-0.7015918493270874
2.21,0.024728376418352127,0.15683582425117493,-0.9630880355834961,1.6679567098617554,-0.7001304626464844
2.215,0.016259292140603065,0.1601295918226242,-0.9574869275093079,1.6724072694778442,-0.7154068350791931
2.22,0.02017509937286377,0.15890245139598846,-0.9545844793319702,1.67404305934906,-0.7158793807029724
2.225,0.029560847207903862,0.1475246399641037,-0.9520835280418396,1.6769437789916992,-0.7295082807540894
2.23,0.020153608173131943,0.14611110091209412,-0.9463226199150085,1.679254412651062,-0.7281060218811035
2.235,0.011467371135950089,0.1488550752401352,-0.9410325884819031,1.683393120765686,-0.742355227470398
2.24,0.015444852411746979,0.14716161787509918,-0.9383622407913208,1.6849411725997925,-0.7428074479103088
2.245,0.02542540803551674,0.13508456945419312,-0.9361937642097473,1.687628984451294,-0.7553946375846863
2.25,0.015986215323209763,0.13307319581508636,-0.9308822751045227,1.6897257566452026,-0.7540704011917114
2.255,0.007107477635145187,0.13533194363117218,-0.9260087013244629,1.6935300827026367,-0.7671037912368774
2.2600000000000002,0.011175564490258694,0.13321392238140106,-0.9236208200454712,1.69497811794281,-0.7675263285636902
2.265,0.021773185580968857,0.12048888951539993,-0.9218192100524902,1.6974544525146484,-0.7789132595062256
2.27,0.012341821566224098,0.11793889850378036,-0.9170534014701843,1.699316382408142,-0.7776872515678406
2.275,0.0032900704536587,0.11978558450937271,-0.9126949310302734,1.7027720212936401,-0.7893413305282593
2.2800000000000002,0.007466158363968134,0.11729464679956436,-0.9106320738792419,1.7041109800338745,-0.7897233963012695
2.285,0.018676171079277992,0.10398583859205246,-0.9092170000076294,1.7063790559768677,-0.7997766733169556
2.29,0.009283754974603653,0.10096386820077896,-0.9050829410552979,1.707993507385254,-0.7986704111099243
2.295,5.9839599998667836e-05,0.10248252749443054,-0.9014917612075806,1.7110331058502197,-0.8000001907348633
2.3000000000000003,0.004576622508466244,0.09957996010780334,-0.8993938565254211,1.7118983268737793,-0.8000001907348633
2.305,0.01657607965171337,0.08575385063886642,-0.8979050517082214,1.7136638164520264,-0.8000004291534424
2.31,0.007425589952617884,0.08236418664455414,-0.8935754895210266,1.7149531841278076,-0.8000004291534424
2.315,-0.0018902600277215242,0.08369457721710205,-0.8898316621780396,1.7175571918487549,-0.8000006675720215
2.32,0.0026570765767246485,0.08065731078386307,-0.8877571225166321,1.7185091972351074,-0.8000006675720215
2.325,0.015152626670897007,0.06645631790161133,-0.8867417573928833,1.7200937271118164,-0.8000008463859558
2.33,0.005895310081541538,0.0626772791147232,-0.883677065372467,1.721011996269226,-0.8000008463859558
2.335,-0.0038010983262211084,0.06373899430036545,-0.8812986016273499,1.7232078313827515,-0.8000010251998901
2.34,0.0006905596819706261,0.06042623892426491,-0.8801857233047485,1.724035382270813,-0.8000010251998901
2.345,0.013601290062069893,0.045841608196496964,-0.8797831535339355,1.725477695465088,-0.8000012040138245
2.35,0.004356184974312782,0.04184439778327942,-0.8774948716163635,1.7261937856674194,-0.8000012040138245
2.355,-0.005518851336091757,0.04286695271730423,-0.8756287097930908,1.728112816810608,-0.8000012636184692
2.36,-0.000952827394939959,0.039489757269620895,-0.8746609687805176,1.7289046049118042,-0.800001323223114
2.365,0.012332968413829803,0.024706147611141205,-0.8744477033615112,1.7302578687667847,-0.8000013828277588
2.37,0.0030659509357064962,0.02055409736931324,-0.8730732202529907,1.7307329177856445,-0.8000013828277588
2.375,-0.00704825296998024,0.021521300077438354,-0.8722451329231262,1.7322688102722168,-0.8000014424324036
2.38,-0.0025020658504217863,0.01802349090576172,-0.8720327615737915,1.7329250574111938,-0.8000015020370483
2.3850000000000002,0.010992825962603092,0.0030329450964927673,-0.8724360466003418,1.7341489791870117,-0.8000015616416931
2.39,0.0017004695255309343,-0.0012111455434933305,-0.8721223473548889,1.734389305114746,-0.8000015616416931
2.395,-0.008557573892176151,-0.00018000284035224468,-0.8721662163734436,1.7355821132659912,-0.8000015616416931
2.4,-0.003970302175730467,-0.003663604613393545,-0.8723350763320923,1.7361640930175781,-0.8000015616416931
2.4050000000000002,0.009664926677942276,-0.018699152395129204,-0.8729748129844666,1.7373205423355103,-0.8000016212463379
2.41,0.00036716111935675144,-0.02291172742843628,-0.87352055311203,1.7373563051223755,-0.8000016212463379
2.415,-0.009996392764151096,-0.021760448813438416,-0.874451756477356,1.7381902933120728,-0.8000016212463379
2.42,-0.00539829395711422,-0.025219624862074852,-0.8751785755157471,1.7386587858200073,-0.8000016212463379
2.4250000000000003,0.008228128775954247,-0.04027063027024269,-0.8762896656990051,1.7397128343582153,-0.8000015616416931
2.43,-0.001103060320019722,-0.04440882429480553,-0.8778746128082275,1.7395215034484863,-0.8000015616416931
2.435,-0.0115167535841465,-0.04307464137673378,-0.8797419667243958,1.7399976253509521,-0.8000015616416931
2.44,-0.006888872012495995,-0.04643331095576286,-0.8809387683868408,1.7403724193572998,-0.8000015020370483
2.445,0.006632211152464151,-0.061380453407764435,-0.882358193397522,1.7413554191589355,-0.8000014424324036
2.45,-0.0027159873861819506,-0.06532903760671616,-0.8847999572753906,1.7409688234329224,-0.8000014424324036
2.455,-0.013115698471665382,-0.06374102085828781,-0.8874742984771729,1.741103172302246,-0.8000013828277588
2.46,-0.008461615070700645,-0.06696027517318726,-0.8891120553016663,1.741384506225586,-0.800001323223114
2.465,0.004835868254303932,-0.08174894005060196,-0.8909006118774414,1.7422840595245361,-0.8000012636184692
2.47,-0.004541358910501003,-0.08546113967895508,-0.8942544460296631,1.7416894435882568,-0.8000012636184692
2.475,-0.014876685105264187,-0.08357648551464081,-0.8977625966072083,1.7414836883544922,-0.8000010848045349
2.48,-0.010191214270889759,-0.08660755306482315,-0.8998374342918396,1.741678237915039,-0.8000010848045349
2.485,0.002792766783386469,-0.10115019232034683,-0.901957631111145,1.7424956560134888,-0.8000009059906006
2.49,-0.006597310304641724,-0.1045399010181427,-0.9061053395271301,1.7417114973068237,-0.8000009655952454
2.495,-0.01680813357234001,-0.10229939967393875,-0.9103144407272339,1.7411922216415405,-0.800000786781311
2.5,-0.012092119082808495,-0.10510002076625824,-0.9127482771873474,1.741314172744751,-0.800000786781311
2.505,0.0004928071284666657,-0.11933846771717072,-0.915185809135437,1.7420467138290405,-0.8000005483627319
2.5100000000000002,-0.008901632390916348,-0.12236230820417404,-0.9200819730758667,1.7410709857940674,-0.8000005483627319
2.515,-0.018941039219498634,-0.11973296105861664,-0.9249479174613953,1.740249752998352,-0.8000003695487976
2.52,-0.014194098301231861,-0.12226610630750656,-0.927729070186615,1.7403088808059692,-0.8000003695487976
2.525,-0.002067726105451584,-0.1361362636089325,-0.9304822087287903,1.740952491760254,-0.8000001311302185
2.5300000000000002,-0.01144091971218586,-0.13873840868473053,-0.9360373020172119,1.7397956848144531,-0.8000001311302185
2.535,-0.021257326006889343,-0.13567982614040375,-0.9414786100387573,1.7386927604675293,-0.7983021140098572
2.54,-0.016542136669158936,-0.13788099586963654,-0.9444807171821594,1.7386335134506226,-0.7973400950431824
2.545,-0.004989986307919025,-0.15131770074367523,-0.9475201964378357,1.7390531301498413,-0.7885581851005554
2.5500000000000003,-0.014697323553264141,-0.15333391726016998,-0.9531066417694092,1.7374393939971924,-0.789750874042511
2.555,-0.024525901302695274,-0.14985737204551697,-0.958539605140686,1.7358825206756592,-0.7791847586631775
2.56,-0.02011219412088394,-0.15174490213394165,-0.96101975440979,1.735750436782837,-0.778510332107544
2.565,-0.009319665841758251,-0.16474241018295288,-0.963644802570343,1.7358845472335815,-0.7688420414924622
2.57,-0.019050512462854385,-0.16637848317623138,-0.9694170355796814,1.7342417240142822,-0.7701375484466553
2.575,-0.028666114434599876,-0.16246458888053894,-0.975336492061615,1.7324566841125488,-0.7586684226989746
2.58,-0.024216243997216225,-0.1639147698879242,-0.978340744972229,1.7321314811706543,-0.7579593658447266
2.585,-0.013829916715621948,-0.17630116641521454,-0.98161381483078,1.7320647239685059,-0.7475308179855347
2.59,-0.02346825785934925,-0.17732176184654236,-0.9880691766738892,1.7302813529968262,-0.748890221118927
2.595,-0.032885562628507614,-0.1728462129831314,-0.9943372011184692,1.72825026512146,-0.7366435527801514
2.6,-0.028508733958005905,-0.17392723262310028,-0.997310221195221,1.727903962135315,-0.7358934283256531
2.605,-0.01869313232600689,-0.18585573136806488,-1.000483751296997,1.727784276008606,-0.7248646020889282
2.61,-0.02835756540298462,-0.18640001118183136,-1.0069293975830078,1.725932002067566,-0.7262965440750122
2.615,-0.03761458769440651,-0.18145373463630676,-1.013206958770752,1.723705530166626,-0.7134594917297363
2.62,-0.03323075920343399,-0.1821647584438324,-1.0162352323532104,1.7233132123947144,-0.7126915454864502
2.625,-0.023805469274520874,-0.19354361295700073,-1.0196646451950073,1.7230786085128784,-0.701215386390686
2.63,-0.033321067690849304,-0.19347989559173584,-1.0264755487442017,1.7211089134216309,-0.7026971578598022
2.6350000000000002,-0.042295414954423904,-0.187938392162323,-1.0330018997192383,1.7186697721481323,-0.6894223690032959
2.64,-0.03786347806453705,-0.18823298811912537,-1.0361336469650269,1.718245506286621,-0.688630998134613
2.645,-0.028844188898801804,-0.19910182058811188,-1.0396363735198975,1.7179421186447144,-0.6768450736999512
2.65,-0.03826913237571716,-0.1985049545764923,-1.0464423894882202,1.7159260511398315,-0.6783636808395386
2.6550000000000002,-0.04703113064169884,-0.1924630105495453,-1.0528531074523926,1.7133554220199585,-0.664818286895752
2.66,-0.04257575422525406,-0.19242066144943237,-1.0558725595474243,1.712932825088501,-0.6640221476554871
2.665,-0.033891960978507996,-0.20281291007995605,-1.0593880414962769,1.7125740051269531,-0.6520792841911316
2.67,-0.04313334822654724,-0.20165839791297913,-1.0662330389022827,1.7105088233947754,-0.6536270380020142
2.6750000000000003,-0.05158562585711479,-0.19505612552165985,-1.0726449489593506,1.7078049182891846,-0.6399685740470886
2.68,-0.047012604773044586,-0.1946311593055725,-1.0756858587265015,1.70736563205719,-0.6391686797142029
2.685,-0.03857796639204025,-0.20454192161560059,-1.0792622566223145,1.7069576978683472,-0.6272009611129761
2.69,-0.04762094095349312,-0.20284567773342133,-1.086058497428894,1.7048739194869995,-0.6287615895271301
2.695,-0.05579368397593498,-0.19573308527469635,-1.0923123359680176,1.7020949125289917,-0.6151353716850281
2.7,-0.05113188922405243,-0.19500388205051422,-1.0952163934707642,1.701673984527588,-0.6143404841423035
2.705,-0.04292440041899681,-0.20451101660728455,-1.098707675933838,1.7012512683868408,-0.6024802923202515
2.71,-0.05174969881772995,-0.20230969786643982,-1.1053428649902344,1.6991767883300781,-0.6040486693382263
2.715,-0.059609223157167435,-0.1946951448917389,-1.111402988433838,1.6963540315628052,-0.5905952453613281
2.72,-0.05479363352060318,-0.19366249442100525,-1.1142091751098633,1.695945382118225,-0.5898123979568481
2.725,-0.046716634184122086,-0.20277509093284607,-1.1176621913909912,1.6955140829086304,-0.5781790018081665
2.73,-0.055282752960920334,-0.2000730037689209,-1.124144434928894,1.6934617757797241,-0.5797431468963623
2.735,-0.06282321363687515,-0.19197925925254822,-1.129988670349121,1.690629243850708,-0.5665860772132874
2.74,-0.05785435810685158,-0.19069498777389526,-1.1326543092727661,1.6902470588684082,-0.5658172965049744
2.745,-0.049885280430316925,-0.1994832158088684,-1.1359856128692627,1.6898361444473267,-0.5545174479484558
2.75,-0.05820097029209137,-0.19632971286773682,-1.142209768295288,1.6878365278244019,-0.5560687780380249
2.755,-0.06543034315109253,-0.18779778480529785,-1.147762417793274,1.685039758682251,-0.5433217287063599
2.7600000000000002,-0.0602865107357502,-0.18629899621009827,-1.1502604484558105,1.6846939325332642,-0.5425742864608765
2.765,-0.05236343666911125,-0.19479946792125702,-1.1534637212753296,1.6843199729919434,-0.5317054986953735
2.77,-0.06040312349796295,-0.1912134736776352,-1.1594295501708984,1.6823848485946655,-0.5332350730895996
2.775,-0.06731213629245758,-0.18226511776447296,-1.1647024154663086,1.6796516180038452,-0.5209962129592896
2.7800000000000002,-0.061979785561561584,-0.18058717250823975,-1.1670459508895874,1.6793453693389893,-0.5202708840370178
2.785,-0.05407223105430603,-0.18885214626789093,-1.1701031923294067,1.6790260076522827,-0.5099140405654907
2.79,-0.061846133321523666,-0.18487633764743805,-1.1757633686065674,1.6771773099899292,-0.5114113092422485
2.795,-0.0684555172920227,-0.17555628716945648,-1.1807122230529785,1.674550175666809,-0.499765545129776
2.8000000000000003,-0.0629381313920021,-0.17374509572982788,-1.182870626449585,1.6742942333221436,-0.4990667402744293
2.805,-0.055018167942762375,-0.18182404339313507,-1.1857538223266602,1.6740494966506958,-0.48929300904273987
2.81,-0.06252642720937729,-0.17749197781085968,-1.191089391708374,1.6723026037216187,-0.4907490015029907
2.815,-0.06884153932332993,-0.1678314208984375,-1.19571852684021,1.6698116064071655,-0.4797685742378235
2.82,-0.06313242763280869,-0.16591788828372955,-1.197709560394287,1.6696062088012695,-0.4790973961353302
2.825,-0.05517454445362091,-0.17385223507881165,-1.200425386428833,1.6694480180740356,-0.4699620306491852
2.83,-0.0624273382127285,-0.1691993772983551,-1.205428957939148,1.6678153276443481,-0.471366286277771
2.835,-0.06846947968006134,-0.15923674404621124,-1.2097316980361938,1.6654917001724243,-0.4611062705516815
2.84,-0.06258063018321991,-0.1572587937116623,-1.2115490436553955,1.6653457880020142,-0.46046513319015503
2.845,-0.05457550659775734,-0.16509488224983215,-1.214081883430481,1.665290355682373,-0.45201197266578674
2.85,-0.06158902123570442,-0.16015958786010742,-1.2187367677688599,1.663785696029663,-0.45335692167282104
2.855,-0.06737732887268066,-0.14993055164813995,-1.2227119207382202,1.661655068397522,-0.4438614249229431
2.86,-0.06131540238857269,-0.14791591465473175,-1.2243642807006836,1.661569595336914,-0.4432518482208252
2.865,-0.05325066298246384,-0.15568971633911133,-1.2267216444015503,1.6616288423538208,-0.4355125427246094
2.87,-0.06004004552960396,-0.1505046933889389,-1.2310338020324707,1.6602603197097778,-0.4367884695529938
2.875,-0.06559646129608154,-0.14004258811473846,-1.2346932888031006,1.6583454608917236,-0.4280901253223419
2.88,-0.059375688433647156,-0.13801869750022888,-1.2361910343170166,1.6583236455917358,-0.42751240730285645
2.8850000000000002,-0.05125058814883232,-0.14576737582683563,-1.2383745908737183,1.658507227897644,-0.42050790786743164
2.89,-0.05783848837018013,-0.14036798477172852,-1.242341160774231,1.6572835445404053,-0.42170700430870056
2.895,-0.06318871676921844,-0.1297062784433365,-1.245688557624817,1.6556029319763184,-0.4138261377811432
2.9,-0.056825242936611176,-0.12769527733325958,-1.2470389604568481,1.6556466817855835,-0.41328173875808716
2.9050000000000002,-0.04863912612199783,-0.13544994592666626,-1.249054193496704,1.6559616327285767,-0.40702199935913086
2.91,-0.055045999586582184,-0.12986712157726288,-1.2526828050613403,1.6548875570297241,-0.40813684463500977
2.915,-0.06021358072757721,-0.11903487890958786,-1.2557343244552612,1.6534572839736938,-0.4010835289955139
2.92,-0.053723592311143875,-0.11705469340085983,-1.2569527626037598,1.6535683870315552,-0.40057387948036194
2.9250000000000003,-0.04548010602593422,-0.12484389543533325,-1.25881028175354,1.6540188789367676,-0.39505988359451294
2.93,-0.051730331033468246,-0.119108185172081,-1.2621092796325684,1.653097152709961,-0.3960839807987213
2.935,-0.056742314249277115,-0.10813380777835846,-1.2648760080337524,1.65192711353302,-0.38985979557037354
2.94,-0.05014491453766823,-0.10620000958442688,-1.2659709453582764,1.6521052122116089,-0.38938426971435547
2.945,-0.04184980317950249,-0.11404906958341599,-1.267676591873169,1.6526954174041748,-0.38461029529571533
2.95,-0.04796692728996277,-0.1081879585981369,-1.2706549167633057,1.6519291400909424,-0.3855382204055786
2.955,-0.052847784012556076,-0.0970965325832367,-1.2731515169143677,1.6510275602340698,-0.38013678789138794
2.96,-0.046160489320755005,-0.09522059559822083,-1.2741373777389526,1.6512718200683594,-0.3796963393688202
2.965,-0.03782040998339653,-0.10315152257680893,-1.275704264640808,1.6519982814788818,-0.37564706802368164
2.97,-0.043828435242176056,-0.09719064086675644,-1.2783749103546143,1.6513855457305908,-0.37647509574890137
2.975,-0.048603348433971405,-0.08600474148988724,-1.2806167602539062,1.6507564783096313,-0.37188056111335754
2.98,-0.04184475913643837,-0.08419539779424667,-1.2815046310424805,1.6510655879974365,-0.3714759349822998
2.985,-0.0334676094353199,-0.0922282412648201,-1.2829411029815674,1.6519283056259155,-0.3681321144104004
2.99,-0.0393902063369751,-0.08619174361228943,-1.2853151559829712,1.6514697074890137,-0.3688566982746124
2.995,-0.04408346861600876,-0.07493192702531815,-1.287315845489502,1.6511133909225464,-0.36504921317100525
3.0,-0.03727087378501892,-0.07319585978984833,-1.2881176471710205,1.651484489440918,-0.3646804690361023
3.005,-0.028864048421382904,-0.08134780824184418,-1.2894355058670044,1.6524782180786133,-0.3620171844959259
3.0100000000000002,-0.034723587334156036,-0.0752568319439888,-1.2915265560150146,1.6521697044372559,-0.36263537406921387
3.015,-0.03935792297124863,-0.06394080072641373,-1.293300747871399,1.6520825624465942,-0.35958895087242126
3.02,-0.03250772878527641,-0.062282584607601166,-1.2940270900726318,1.6525126695632935,-0.3592568635940552
3.025,-0.024079203605651855,-0.07056897133588791,-1.2952356338500977,1.6536316871643066,-0.3572438359260559
3.0300000000000002,-0.02989739179611206,-0.06444358080625534,-1.2970561981201172,1.6534706354141235,-0.35775500535964966
3.035,-0.03449444845318794,-0.05308782309293747,-1.2986174821853638,1.6536474227905273,-0.3554387092590332
3.04,-0.027622384950518608,-0.05151036009192467,-1.2992788553237915,1.6541332006454468,-0.35514387488365173
3.045,-0.01917930878698826,-0.0599447563290596,-1.300389051437378,1.6553705930709839,-0.35374823212623596
3.0500000000000003,-0.024976322427392006,-0.053802717477083206,-1.301953673362732,1.6553515195846558,-0.35415223240852356
3.055,-0.029556237161159515,-0.042420756071805954,-1.30331552028656,1.6557824611663818,-0.3525311052799225
3.06,-0.022675924003124237,-0.04092574864625931,-1.3039216995239258,1.6563209295272827,-0.3522739112377167
3.065,-0.014224640093743801,-0.04952001944184303,-1.3049428462982178,1.6576675176620483,-0.3514597415924072
3.0700000000000003,-0.020018937066197395,-0.04337739199399948,-1.306262731552124,1.6577831506729126,-0.3517569601535797
3.075,-0.024600232020020485,-0.03198130428791046,-1.3074373006820679,1.6584596633911133,-0.3507941663265228
3.08,-0.01772448793053627,-0.030569516122341156,-1.307997226715088,1.6590467691421509,-0.3505750298500061
3.085,-0.009271003305912018,-0.039334386587142944,-1.3089385032653809,1.6604931354522705,-0.35030463337898254
3.09,-0.015080137178301811,-0.033205997198820114,-1.3100275993347168,1.6607377529144287,-0.35049641132354736
3.095,-0.01968006230890751,-0.021806400269269943,-1.3110274076461792,1.6616463661193848,-0.3501516878604889
3.1,-0.01281974371522665,-0.020477954298257828,-1.3115501403808594,1.6622767448425293,-0.3499701917171478
3.105,-0.004368515219539404,-0.029422348365187645,-1.31242036819458,1.6638110876083374,-0.3502035439014435
3.11,-0.0102072823792696,-0.02332085743546486,-1.3132911920547485,1.6641783714294434,-0.3502923846244812
3.115,-0.014840509742498398,-0.011926505714654922,-1.314127802848816,1.6653072834014893,-0.35052379965782166
3.12,-0.008005146868526936,-0.01068083941936493,-1.3146202564239502,1.6659756898880005,-0.3503809869289398
3.125,0.0004396530566737056,-0.01981315203011036,-1.315428376197815,1.6675877571105957,-0.35107743740081787
3.13,-0.00544309988617897,-0.013750435784459114,-1.3160934448242188,1.6680691242218018,-0.3510655164718628
3.1350000000000002,-0.010123403742909431,-0.0023695509880781174,-1.3167777061462402,1.6694029569625854,-0.3518299162387848
3.14,-0.0033211333211511374,-0.0012061326997354627,-1.317247748374939,1.6701058149337769,-0.3517264425754547
3.145,0.005114299710839987,-0.010533041320741177,-1.318001389503479,1.6717842817306519,-0.35284480452537537
3.15,-0.0008241826435551047,-0.004519027657806873,-1.3184726238250732,1.672371745109558,-0.35273537039756775
3.1550000000000002,-0.00556342676281929,0.0068424479104578495,-1.3190152645111084,1.6738955974578857,-0.35398927330970764
3.16,0.00119928945787251,0.007924553006887436,-1.3194702863693237,1.6746277809143066,-0.3539247214794159
3.165,0.009623452089726925,-0.0016036472516134381,-1.3201777935028076,1.67635977268219,-0.35542356967926025
3.17,0.0036186454817652702,0.004352247808128595,-1.3204673528671265,1.6770457029342651,-0.35522016882896423
3.1750000000000003,-0.0011901090620085597,0.01568911038339138,-1.320878505706787,1.6787443161010742,-0.356919527053833
3.18,0.005527853034436703,0.016691235825419426,-1.3213242292404175,1.6795008182525635,-0.3568943738937378
3.185,0.013940061442553997,0.006956615950912237,-1.3219932317733765,1.681276798248291,-0.35873231291770935
3.19,0.007860468700528145,0.012846863828599453,-1.322112798690796,1.682052493095398,-0.3584395945072174
3.1950000000000003,0.002973610535264015,0.024154674261808395,-1.322402000427246,1.6839083433151245,-0.36053982377052307
3.2,0.009642604738473892,0.025077547878026962,-1.3228449821472168,1.6846846342086792,-0.3605539798736572
3.205,0.018041932955384254,0.015131939202547073,-1.3234829902648926,1.686493158340454,-0.36269059777259827
3.21,0.011879786849021912,0.020949851721525192,-1.3234448432922363,1.6873506307601929,-0.3623121380805969
3.215,0.006907669827342033,0.03222527354955673,-1.3236221075057983,1.6893492937088013,-0.3647707998752594
3.22,0.013525419868528843,0.03307018801569939,-1.3240675926208496,1.6901404857635498,-0.36482366919517517
3.225,0.021913055330514908,0.022909557446837425,-1.3246814012527466,1.6919701099395752,-0.36721986532211304
3.23,0.01566273532807827,0.028649402782320976,-1.3244961500167847,1.692900538444519,-0.36675959825515747
3.235,0.010598976165056229,0.03988989442586899,-1.324570655822754,1.6950277090072632,-0.3695337772369385
3.24,0.017163287848234177,0.04065753147006035,-1.3250242471694946,1.6958292722702026,-0.3696253001689911
3.245,0.025540143251419067,0.03027857095003128,-1.3256211280822754,1.6976691484451294,-0.3722420632839203
3.25,0.01919686235487461,0.03593650460243225,-1.3253012895584106,1.698665738105774,-0.37170547246932983
3.255,0.014037259854376316,0.047140803188085556,-1.3252830505371094,1.700905442237854,-0.3747537434101105
3.2600000000000002,0.020548159256577492,0.047832176089286804,-1.325749397277832,1.7017112970352173,-0.37488308548927307
3.265,0.028916241601109505,0.037232380360364914,-1.3263354301452637,1.7035530805587769,-0.3776831328868866
3.27,0.02247665263712406,0.04280455783009529,-1.3258910179138184,1.704607605934143,-0.37707415223121643
3.275,0.01721743308007717,0.053971339017152786,-1.3257875442504883,1.7069447040557861,-0.38035666942596436
3.2800000000000002,0.023674597963690758,0.05458718165755272,-1.3262717723846436,1.7077538967132568,-0.380523681640625
3.285,0.03203613683581352,0.043764300644397736,-1.3268541097640991,1.7095887660980225,-0.3834715187549591
3.29,0.025498010218143463,0.049248192459344864,-1.326297402381897,1.7106925249099731,-0.3827953338623047
3.295,0.020136766135692596,0.06037743389606476,-1.326119303703308,1.7131125926971436,-0.3862728774547577
3.3000000000000003,0.026541434228420258,0.06091849133372307,-1.326625943183899,1.7139196395874023,-0.3864763379096985
3.305,0.034899190068244934,0.04987124353647232,-1.3272109031677246,1.7157399654388428,-0.38953831791877747
3.31,0.028261426836252213,0.0552654005587101,-1.3265520334243774,1.7168867588043213,-0.3887995481491089
3.315,0.022797081619501114,0.06635745614767075,-1.3263064622879028,1.7193771600723267,-0.39243584871292114
3.3200000000000003,0.02915053442120552,0.06682480871677399,-1.3268388509750366,1.7201781272888184,-0.3926745057106018
3.325,0.037507571280002594,0.0555519238114357,-1.3274322748184204,1.7219769954681396,-0.3958190977573395
3.33,0.030769972130656242,0.06085537001490593,-1.326682448387146,1.7231605052947998,-0.39502182602882385
3.335,0.025201555341482162,0.07191147655248642,-1.326378345489502,1.7257076501846313,-0.3987824618816376
3.34,0.03150596469640732,0.07230513542890549,-1.3269411325454712,1.726500153541565,-0.3990558385848999
3.345,0.039865437895059586,0.06080562621355057,-1.327548861503601,1.7282700538635254,-0.40225136280059814
3.35,0.03302793949842453,0.06601884961128235,-1.3267184495925903,1.7294820547103882,-0.40140125155448914
3.355,0.027355793863534927,0.07704054564237595,-1.3263648748397827,1.7320753335952759,-0.40525245666503906
3.36,0.0336138941347599,0.07736131548881531,-1.3269612789154053,1.73285710811615,-0.40555912256240845
3.365,0.04197936877608299,0.06563545763492584,-1.3275877237319946,1.7345921993255615,-0.4087789058685303
3.37,0.03504369780421257,0.07075930386781693,-1.326686143875122,1.7358272075653076,-0.40787920355796814
3.375,0.0292690210044384,0.08174854516983032,-1.3262901306152344,1.7384556531906128,-0.41179102659225464
3.38,0.0354834645986557,0.0819968730211258,-1.32692289352417,1.7392231225967407,-0.41212937235832214
3.3850000000000002,0.04385816305875778,0.07004405558109283,-1.3275742530822754,1.740920066833496,-0.4153468906879425
3.39,0.03682524338364601,0.07507983595132828,-1.3266130685806274,1.7421724796295166,-0.4144032895565033
3.395,0.0309487022459507,0.08603928983211517,-1.3261833190917969,1.7448238134384155,-0.4183461368083954
3.4,0.03712250292301178,0.08621533215045929,-1.3268558979034424,1.7455757856369019,-0.41871505975723267
3.4050000000000002,0.045509740710258484,0.07403641939163208,-1.3275361061096191,1.7472310066223145,-0.4219070076942444
3.41,0.03838237747550011,0.0789867490530014,-1.3265230655670166,1.7484945058822632,-0.42092329263687134
3.415,0.03240678086876869,0.08991944044828415,-1.326066017150879,1.7511600255966187,-0.424871027469635
3.42,0.03854333981871605,0.09002390503883362,-1.3267804384231567,1.7518943548202515,-0.42526906728744507
3.4250000000000003,0.04694637283682823,0.07761915773153305,-1.3274939060211182,1.7535032033920288,-0.4284133315086365
3.43,0.039726633578538895,0.08248638361692429,-1.3264397382736206,1.754773497581482,-0.42739352583885193
3.435,0.033653393387794495,0.0933956727385521,-1.3259631395339966,1.7574453353881836,-0.4313226342201233
3.44,0.03975565731525421,0.09342869371175766,-1.3267210721969604,1.7581596374511719,-0.43174779415130615
3.4450000000000003,0.048177506774663925,0.08079896867275238,-1.3274707794189453,1.7597196102142334,-0.4348248541355133
3.45,0.04086856171488762,0.08558641374111176,-1.3263837099075317,1.7609915733337402,-0.4337732195854187
3.455,0.0347009152173996,0.09647578746080399,-1.3258939981460571,1.7636606693267822,-0.43766096234321594
3.46,0.040772177278995514,0.09643791615962982,-1.3266971111297607,1.7643553018569946,-0.43811190128326416
3.465,0.04921542480587959,0.0835842713713646,-1.3274869918823242,1.7658660411834717,-0.44110485911369324
3.47,0.04182010143995285,0.08829542249441147,-1.326375961303711,1.767135500907898,-0.44002577662467957
3.475,0.03556044399738312,0.09916891157627106,-1.3258801698684692,1.7697949409484863,-0.4438525438308716
3.48,0.04160371050238609,0.09906042367219925,-1.3267292976379395,1.770466923713684,-0.44432735443115234
3.485,0.050070811063051224,0.08598384261131287,-1.327561378479004,1.7719255685806274,-0.44722098112106323
3.49,0.04259238392114639,0.09062247723340988,-1.3264340162277222,1.773188829421997,-0.4461171627044678
3.495,0.036243803799152374,0.10148391872644424,-1.3259376287460327,1.7758328914642334,-0.44986623525619507
3.5,0.042262036353349686,0.10130514204502106,-1.3268334865570068,1.7764835357666016,-0.4503632187843323
3.505,0.05075514316558838,0.08800701797008514,-1.3277087211608887,1.7778884172439575,-0.4531448185443878
3.5100000000000002,0.043197013437747955,0.09257753193378448,-1.3265719413757324,1.7791411876678467,-0.45202013850212097
3.515,0.03676285222172737,0.10343113541603088,-1.326080560684204,1.781765341758728,-0.45567601919174194
3.52,0.0427589975297451,0.10318226367235184,-1.3270241022109985,1.782393217086792,-0.45619311928749084
3.525,0.05127909034490585,0.08966424316167831,-1.3279454708099365,1.7837438583374023,-0.45885103940963745
3.5300000000000002,0.043644074350595474,0.0941707044839859,-1.3268077373504639,1.7849833965301514,-0.45770952105522156
3.535,0.03712720796465874,0.10502023994922638,-1.3263262510299683,1.7875802516937256,-0.46125802397727966
3.54,0.04310355708003044,0.1047012209892273,-1.3273155689239502,1.7881847620010376,-0.4617936611175537
3.545,0.051652390509843826,0.09096450358629227,-1.328282356262207,1.7894835472106934,-0.4643200635910034
3.5500000000000003,0.043944284319877625,0.09541181474924088,-1.3271492719650269,1.790708065032959,-0.4631648063659668
3.555,0.03734825178980827,0.10626201331615448,-1.3266818523406982,1.7932735681533813,-0.4665957987308502
3.56,0.04330733045935631,0.10587349534034729,-1.3277168273925781,1.7938543558120728,-0.467147558927536
3.565,0.051885683089494705,0.09191950410604477,-1.328730821609497,1.795101523399353,-0.4695347547531128
3.5700000000000003,0.04410739988088608,0.09631174802780151,-1.3276091814041138,1.7963074445724487,-0.4683695137500763
3.575,0.037434812635183334,0.1071663424372673,-1.3271602392196655,1.7988368272781372,-0.471672922372818
3.58,0.04337836056947708,0.10670780390501022,-1.3282396793365479,1.7993957996368408,-0.47223958373069763
3.585,0.05198623612523079,0.09253831207752228,-1.3292990922927856,1.8005915880203247,-0.47448304295539856
3.59,0.04414111003279686,0.09688036888837814,-1.328193187713623,1.801776647567749,-0.47331032156944275
3.595,0.03739583492279053,0.10774346441030502,-1.3277658224105835,1.8042677640914917,-0.47647953033447266
3.6,0.04332592338323593,0.10721559822559357,-1.3288872241973877,1.804803729057312,-0.47705867886543274
3.605,0.05196351185441017,0.09283199161291122,-1.3299909830093384,1.8059494495391846,-0.47915515303611755
3.61,0.04405437409877777,0.09712785482406616,-1.3289066553115845,1.807112693786621,-0.4779784679412842
3.615,0.03723873943090439,0.10800333321094513,-1.3285046815872192,1.8095628023147583,-0.4810083508491516
3.62,0.04315635934472084,0.10740618407726288,-1.3296669721603394,1.8100775480270386,-0.481598436832428
3.625,0.051823269575834274,0.09280997514724731,-1.3308143615722656,1.811174988746643,-0.48354604840278625
3.63,0.0438532717525959,0.09706434607505798,-1.3297553062438965,1.8123128414154053,-0.48236846923828125
3.6350000000000002,0.036970607936382294,0.10795604437589645,-1.329379677772522,1.814719319343567,-0.4852551221847534
3.64,0.0428772047162056,0.10728946328163147,-1.3305789232254028,1.815213918685913,-0.485853910446167
3.645,0.05157248675823212,0.09248228371143341,-1.3317667245864868,1.8162647485733032,-0.4876539409160614
3.65,0.043544188141822815,0.0966993197798729,-1.3307368755340576,1.8173770904541016,-0.4864780902862549
3.6550000000000002,0.03659725934267044,0.10761075466871262,-1.3303906917572021,1.8197380304336548,-0.48921987414360046
3.66,0.042493678629398346,0.10687485337257385,-1.3316245079040527,1.8202122449874878,-0.48982489109039307
3.665,0.051216140389442444,0.09185825288295746,-1.332850694656372,1.8212190866470337,-0.49147945642471313
3.67,0.04313192889094353,0.09604207426309586,-1.3318533897399902,1.8223044872283936,-0.4903079569339752
3.6750000000000003,0.03612327203154564,0.10697650164365768,-1.331536889076233,1.824617624282837,-0.49290481209754944
3.68,0.04201019927859306,0.10617116093635559,-1.3328009843826294,1.8250739574432373,-0.4935149848461151
3.685,0.05075870454311371,0.09094663709402084,-1.334062099456787,1.826041340827942,-0.4950275421142578
3.69,0.0426211804151535,0.09510146081447601,-1.3331001996994019,1.8270986080169678,-0.4938632845878601
3.6950000000000003,0.03555352985858917,0.10606229305267334,-1.3328146934509277,1.8293620347976685,-0.4963167905807495
3.7,0.041431326419115067,0.10518770664930344,-1.3341056108474731,1.829801082611084,-0.49692898988723755
3.705,0.05020394176244736,0.08975674957036972,-1.3353984355926514,1.8307303190231323,-0.49830493330955505
3.71,0.04201512783765793,0.09388577193021774,-1.3344734907150269,1.831757664680481,-0.4971507787704468
3.715,0.03489052876830101,0.1048755869269371,-1.334218978881836,1.833972454071045,-0.4994639754295349
3.72,0.04075925797224045,0.10393164306879044,-1.33553147315979,1.8343974351882935,-0.5000770092010498
3.725,0.04955429583787918,0.08829599618911743,-1.3368507623672485,1.8352919816970825,-0.5013235807418823
3.73,0.041316449642181396,0.0924033373594284,-1.3359650373458862,1.8362901210784912,-0.500181257724762
3.735,0.03413750231266022,0.10342524945735931,-1.335741639137268,1.8384546041488647,-0.50235915184021
3.74,0.039997395128011703,0.10241212695837021,-1.337071418762207,1.8388653993606567,-0.5029704570770264
3.745,0.0488128662109375,0.08657314628362656,-1.3384132385253906,1.839728832244873,-0.5040951371192932
3.75,0.04052746295928955,0.09066177904605865,-1.3375680446624756,1.8406974077224731,-0.5029681921005249
3.755,0.03329569846391678,0.10171797126531601,-1.3373745679855347,1.8428117036819458,-0.5050161480903625
3.7600000000000002,0.03914608806371689,0.10063580423593521,-1.33871591091156,1.843209981918335,-0.505623459815979
3.765,0.04797980934381485,0.08459538221359253,-1.3400747776031494,1.844045877456665,-0.5066366195678711
3.77,0.03964907303452492,0.08866863697767258,-1.3392704725265503,1.8449844121932983,-0.5055267214775085
3.775,0.032366931438446045,0.09976191073656082,-1.3391060829162598,1.8470492362976074,-0.5074530839920044
3.7800000000000002,0.03820817172527313,0.0986110270023346,-1.3404536247253418,1.8474382162094116,-0.5080540180206299
3.785,0.04705820977687836,0.08237079530954361,-1.3418242931365967,1.8482491970062256,-0.5089660286903381
3.79,0.038683004677295685,0.08643165975809097,-1.3410612344741821,1.849157691001892,-0.5078761577606201
3.795,0.03135162964463234,0.09756360948085785,-1.3409242630004883,1.8511747121810913,-0.509688675403595
3.8000000000000003,0.03718296438455582,0.09634385257959366,-1.3422720432281494,1.8515560626983643,-0.5102816820144653
3.805,0.04604720324277878,0.07990575581789017,-1.343648076057434,1.8523470163345337,-0.5111053586006165
3.81,0.03762931004166603,0.08395737409591675,-1.342925786972046,1.8532251119613647,-0.5100370049476624
3.815,0.03025064989924431,0.09513066709041595,-1.342813491821289,1.85519278049469,-0.5117462277412415
3.8200000000000003,0.03607217222452164,0.09384263306856155,-1.3441553115844727,1.8555690050125122,-0.5123284459114075
3.825,0.04494864493608475,0.07720880210399628,-1.3455314636230469,1.8563454151153564,-0.5130768418312073
3.83,0.03648911044001579,0.08125340938568115,-1.3448500633239746,1.8571937084197998,-0.5120325684547424
3.835,0.029064221307635307,0.09246958047151566,-1.3447601795196533,1.859114408493042,-0.5136497616767883
3.84,0.034875061362981796,0.09111413359642029,-1.346089243888855,1.859487771987915,-0.5142191648483276
3.845,0.04376226291060448,0.07428648322820663,-1.3474586009979248,1.8602535724639893,-0.5149065852165222
3.85,0.03526254743337631,0.07832672446966171,-1.3468167781829834,1.8610730171203613,-0.5138887763023376
3.855,0.027793025597929955,0.08958796411752701,-1.3467462062835693,1.8629462718963623,-0.5154252648353577
3.86,0.033593203872442245,0.08816585689783096,-1.3480561971664429,1.8633188009262085,-0.5159792900085449
3.865,0.042489394545555115,0.07114697247743607,-1.349412202835083,1.864079236984253,-0.5166213512420654
3.87,0.03395039960741997,0.07518499344587326,-1.3488081693649292,1.8648689985275269,-0.5156317353248596
3.875,0.026437101885676384,0.08649306744337082,-1.3487536907196045,1.866697907447815,-0.5171014666557312
3.88,0.032226283103227615,0.08500563353300095,-1.3500372171401978,1.8670728206634521,-0.5176378488540649
3.8850000000000002,0.04113040864467621,0.06779835373163223,-1.3513729572296143,1.867832064628601,-0.5182504653930664
3.89,0.03255302831530571,0.07183683663606644,-1.3508058786392212,1.8685942888259888,-0.5172920823097229
3.895,0.024997131898999214,0.08319339156150818,-1.3507637977600098,1.8703800439834595,-0.5187088847160339
3.9,0.030775388702750206,0.0816415473818779,-1.352013349533081,1.870759129524231,-0.5192254185676575
3.9050000000000002,0.03968656808137894,0.06424865126609802,-1.3533211946487427,1.8715219497680664,-0.51982581615448
3.91,0.031071901321411133,0.06828969717025757,-1.3527883291244507,1.8722573518753052,-0.5188994407653809
3.915,0.023474330082535744,0.07969704270362854,-1.3527549505233765,1.8740023374557495,-0.5202780961990356
3.92,0.029242098331451416,0.07808277010917664,-1.3539642095565796,1.8743876218795776,-0.5207721590995789
3.9250000000000003,0.03816014155745506,0.06050769239664078,-1.3552378416061401,1.8751598596572876,-0.5213791131973267
3.93,0.02950899302959442,0.06455358862876892,-1.3547371625900269,1.875869870185852,-0.5204869508743286
3.935,0.021870438009500504,0.07601351290941238,-1.3547080755233765,1.8775768280029297,-0.5218437910079956
3.94,0.027627816423773766,0.07433875650167465,-1.3558685779571533,1.8779714107513428,-0.522313117980957
3.9450000000000003,0.03655269369482994,0.05658522620797157,-1.3570996522903442,1.8787561655044556,-0.5229439735412598
3.95,0.02786622941493988,0.06063823029398918,-1.3566285371780396,1.8794409036636353,-0.522087037563324
3.955,0.020187849178910255,0.0721530020236969,-1.35659921169281,1.8811116218566895,-0.5234383344650269
3.96,0.025936095044016838,0.07041995227336884,-1.3577046394348145,1.8815195560455322,-0.5238805413246155
3.9650000000000003,0.03486841917037964,0.052492253482341766,-1.3588865995407104,1.8823248147964478,-0.5245550274848938
3.97,0.026147235184907913,0.05655471608042717,-1.3584421873092651,1.882985234260559,-0.5237360000610352
3.975,0.018429389223456383,0.06812670826911926,-1.3584074974060059,1.8846200704574585,-0.5250972509384155
3.98,0.024169517681002617,0.06633824855089188,-1.3594504594802856,1.885043978691101,-0.5255094766616821
3.985,0.03311067074537277,0.04824119061231613,-1.360575795173645,1.8858730792999268,-0.5262470841407776
3.99,0.024356301873922348,0.05231562256813049,-1.3601542711257935,1.8865100145339966,-0.5254663825035095
3.995,0.01660022884607315,0.06394752860069275,-1.360109567642212,1.8881139755249023,-0.5268549919128418
4.0,0.022333966568112373,0.06210697442293167,-1.361081838607788,1.8885551691055298,-0.5272356271743774
4.005,0.031285885721445084,0.04384540766477585,-1.36214280128479,1.889414668083191,-0.528055727481842
4.01,0.022498885169625282,0.04793398827314377,-1.361741542816162,1.8900307416915894,-0.5273151993751526
4.015,0.014704732224345207,0.059628553688526154,-1.3616821765899658,1.8916053771972656,-0.5287486910820007
4.0200000000000005,0.020434023812413216,0.057739417999982834,-1.3625777959823608,1.8920670747756958,-0.5290958881378174
4.025,0.02939935401082039,0.039319608360528946,-1.3635680675506592,1.8929601907730103,-0.5300164222717285
4.03,0.020581476390361786,0.043425463140010834,-1.3631832599639893,1.893555998802185,-0.5293172001838684
4.035,0.012750609777867794,0.05518631637096405,-1.3631031513214111,1.8951034545898438,-0.5308123826980591
4.04,0.0184783898293972,0.05325285717844963,-1.3639132976531982,1.8955879211425781,-0.5311229825019836
4.045,0.02746061235666275,0.03468075767159462,-1.3648245334625244,1.8965201377868652,-0.5321637988090515
4.05,0.018612734973430634,0.03880644217133522,-1.3644529581069946,1.8970979452133179,-0.5315070152282715
4.055,0.010745225474238396,0.05063716694712639,-1.3643485307693481,1.8986215591430664,-0.5330815315246582
4.0600000000000005,0.016474008560180664,0.04866412281990051,-1.3650683164596558,1.89913010597229,-0.5333537459373474
4.065,0.0254772137850523,0.02994677424430847,-1.3658947944641113,1.9001051187515259,-0.5345328450202942
4.07,0.016601253300905228,0.034095726907253265,-1.3655325174331665,1.9006661176681519,-0.5339191555976868
4.075,0.008698657155036926,0.04600050672888756,-1.365397334098816,1.90216863155365,-0.5355880260467529
4.08,0.014432589523494244,0.04399310424923897,-1.366018533706665,1.9027042388916016,-0.5358206629753113
4.085,0.023461729288101196,0.025138307362794876,-1.3667521476745605,1.9037258625030518,-0.5371564030647278
4.09,0.014558923430740833,0.02931395173072815,-1.366395115852356,1.9042712450027466,-0.5365856289863586
4.095,0.006621482316404581,0.04129745438694954,-1.3662253618240356,1.905754566192627,-0.5383657217025757
4.1,0.012364516034722328,0.039261117577552795,-1.366744041442871,1.9063191413879395,-0.5385566353797913
4.105,0.021424999460577965,0.02027723751962185,-1.3673797845840454,1.9073902368545532,-0.5400646328926086
4.11,0.012497293762862682,0.02448316290974617,-1.367024540901184,1.9079210758209229,-0.5395381450653076
4.115,0.004526001401245594,0.036550555378198624,-1.3668144941329956,1.9093886613845825,-0.5414441227912903
4.12,0.01028287410736084,0.034491781145334244,-1.3672231435775757,1.9099841117858887,-0.5415917634963989
4.125,0.01938163861632347,0.015387666411697865,-1.367754578590393,1.9111089706420898,-0.5432877540588379
4.13,0.010431070812046528,0.019628172740340233,-1.367397427558899,1.9116262197494507,-0.5428048968315125
4.135,0.002426749560981989,0.031785376369953156,-1.3671435117721558,1.9130772352218628,-0.544849693775177
4.14,0.008202635683119297,0.029710965231060982,-1.3674386739730835,1.9137039184570312,-0.5449530482292175
4.1450000000000005,0.017346452921628952,0.010496575385332108,-1.3678604364395142,1.9148836135864258,-0.5468501448631287
4.15,0.008374840021133423,0.014776206575334072,-1.3674968481063843,1.9153897762298584,-0.5464114546775818
4.155,0.00033826957223936915,0.02702929638326168,-1.367193579673767,1.9168281555175781,-0.548606276512146
4.16,0.006138910073786974,0.024946371093392372,-1.3673702478408813,1.9174878597259521,-0.5486654043197632
4.165,0.015335628762841225,0.005632409825921059,-1.3676784038543701,1.9187241792678833,-0.5507749915122986
4.17,0.006345255766063929,0.009956201538443565,-1.367305874824524,1.9192191362380981,-0.5503800511360168
4.175,-0.0017227759817615151,0.022311994805932045,-1.3669500350952148,1.9206446409225464,-0.5527359247207642
4.18,0.004108326509594917,0.020228581503033638,-1.3670048713684082,1.9213377237319946,-0.5527493953704834
4.1850000000000005,0.013366424478590488,0.0008259920869022608,-1.367194414138794,1.9226305484771729,-0.5550803542137146
4.19,0.004359818994998932,0.00519938487559557,-1.3668088912963867,1.9231152534484863,-0.5547277927398682
4.195,-0.0037387304473668337,0.017665565013885498,-1.3663971424102783,1.9245296716690063,-0.5572527050971985
4.2,0.0021294737234711647,0.015590040944516659,-1.3663281202316284,1.9252560138702393,-0.5572202801704407
4.205,0.01145744789391756,-0.003888999344781041,-1.3663972616195679,1.9266059398651123,-0.5597792267799377
4.21,0.0024366104044020176,0.0005395107436925173,-1.36599600315094,1.9270813465118408,-0.5594690442085266
4.215,-0.0056920903734862804,0.013123782351613045,-1.3655256032943726,1.9284847974777222,-0.5621680021286011
4.22,0.00021980551537126303,0.011065025813877583,-1.3653303384780884,1.9292436838150024,-0.5620906352996826
4.225,0.009627217426896095,-0.00847755279392004,-1.365275263786316,1.930647373199463,-0.5648801326751709
4.23,0.0005950551712885499,-0.003987499512732029,-1.3648546934127808,1.9311140775680542,-0.5646100640296936
4.235,-0.007563269231468439,0.008723374456167221,-1.364323377609253,1.9325066804885864,-0.5674859285354614
4.24,-0.001601253286935389,0.006690563168376684,-1.3640027046203613,1.9332971572875977,-0.5673640370368958
4.245,0.007894759997725487,-0.012902554124593735,-1.363824725151062,1.9347527027130127,-0.5703836679458618
4.25,-0.0011469828896224499,-0.008344152010977268,-1.3633843660354614,1.9352104663848877,-0.570152997970581
4.255,-0.009334881789982319,0.0045024254359304905,-1.3627914190292358,1.936590552330017,-0.573204517364502
4.26,-0.003315562382340431,0.002505167154595256,-1.3623453378677368,1.9374102354049683,-0.5730389952659607
4.265,0.006279041990637779,-0.01712450385093689,-1.3620426654815674,1.9389142990112305,-0.5762851238250732
4.2700000000000005,-0.002769647864624858,-0.012490634806454182,-1.3615787029266357,1.9393647909164429,-0.5760921835899353
4.275,-0.010987106710672379,0.0005004910635761917,-1.360922932624817,1.9407309293746948,-0.5793148875236511
4.28,-0.00490415096282959,-0.0014517238596454263,-1.3603549003601074,1.9415771961212158,-0.5791085362434387
4.285,0.004798051901161671,-0.02110351249575615,-1.3599313497543335,1.943123459815979,-0.5825716853141785
4.29,-0.004255509935319424,-0.01638653501868248,-1.3594443798065186,1.9435642957687378,-0.5824130177497864
4.295,-0.012502724304795265,-0.003240990685299039,-1.3587276935577393,1.9449154138565063,-0.585799515247345
4.3,-0.006349613890051842,-0.00513818021863699,-1.358041763305664,1.9457865953445435,-0.5855540037155151
4.305,0.0034692452754825354,-0.024797534570097923,-1.3574994802474976,1.947368860244751,-0.5892221331596375
4.3100000000000005,-0.005587462801486254,-0.019989965483546257,-1.3569871187210083,1.9478003978729248,-0.5890964269638062
4.315,-0.013865480199456215,-0.006680665072053671,-1.3562109470367432,1.9491331577301025,-0.5926336646080017
4.32,-0.0076363785192370415,-0.008512815460562706,-1.3554133176803589,1.9500230550765991,-0.5923519730567932
4.325,0.0023079058155417442,-0.028164653107523918,-1.354758620262146,1.9516335725784302,-0.5962069630622864
4.33,-0.006749965716153383,-0.023258347064256668,-1.3542226552963257,1.9520543813705444,-0.5961099863052368
4.335,-0.01505953911691904,-0.00977556686848402,-1.3533897399902344,1.953364610671997,-0.5997825860977173
4.34,-0.008748862892389297,-0.011533115059137344,-1.3524879217147827,1.9542707204818726,-0.5994681715965271
4.345,0.0013286096509546041,-0.03116292878985405,-1.351728081703186,1.9559003114700317,-0.6034867763519287
4.3500000000000005,-0.007729286327958107,-0.0261504165828228,-1.3511686325073242,1.9563090801239014,-0.6034167408943176
4.355,-0.0160724688321352,-0.012484952807426453,-1.3502843379974365,1.9575936794281006,-0.6072025299072266
4.36,-0.009676099754869938,-0.01415841095149517,-1.3492894172668457,1.9585092067718506,-0.6068587303161621
4.365,0.0005411856109276414,-0.03375153988599777,-1.348434567451477,1.9601470232009888,-0.6110134720802307
4.37,-0.008515661582350731,-0.02862503007054329,-1.347854495048523,1.9605423212051392,-0.6109663844108582
4.375,-0.016893848776817322,-0.0147683871909976,-1.3469244241714478,1.9617950916290283,-0.614838719367981
4.38,-0.010407579131424427,-0.016348984092473984,-1.3458473682403564,1.9627141952514648,-0.614471435546875
4.385,-4.475371679291129e-05,-0.035891156643629074,-1.3449089527130127,1.964349389076233,-0.6187283396720886
4.39,-0.009099802933633327,-0.030643431469798088,-1.344310998916626,1.9647291898727417,-0.6187009215354919
4.3950000000000005,-0.017515312880277634,-0.01658766344189644,-1.3433423042297363,1.9659444093704224,-0.6226303577423096
4.4,-0.010936694219708443,-0.01806715689599514,-1.342198133468628,1.966860294342041,-0.6222435235977173
4.405,-0.0004243398434482515,-0.03754526004195213,-1.3411906957626343,1.9684797525405884,-0.6265638470649719
4.41,-0.009477436542510986,-0.03217016160488129,-1.3405792713165283,1.9688408374786377,-0.6265516877174377
4.415,-0.017932996153831482,-0.017908640205860138,-1.339582085609436,1.97001314163208,-0.6305026412010193
4.42,-0.011260478757321835,-0.019279975444078445,-1.3383876085281372,1.97091805934906,-0.630102276802063
4.425,-0.0005959937698207796,-0.038681965321302414,-1.3373280763626099,1.9725079536437988,-0.6344420909881592
4.43,-0.009646962396800518,-0.03317415714263916,-1.3367078304290771,1.972847819328308,-0.6344412565231323
4.4350000000000005,-0.01814497634768486,-0.018701797351241112,-1.3356913328170776,1.9739699363708496,-0.6383743286132812
4.44,-0.011378324590623379,-0.019958924502134323,-1.3344645500183105,1.9748555421829224,-0.6379660964012146
4.445,-0.0005610571824945509,-0.039273981004953384,-1.333371877670288,1.9764020442962646,-0.6422770023345947
4.45,-0.009610251523554325,-0.033629000186920166,-1.332749843597412,1.9767179489135742,-0.6422839760780334
4.455,-0.018153199926018715,-0.018942667171359062,-1.3317267894744873,1.9777822494506836,-0.6461545825004578
4.46,-0.011293300427496433,-0.020081624388694763,-1.3304884433746338,1.9786391258239746,-0.6457452178001404
4.465,-0.0003248279681429267,-0.03930094465613365,-1.3293838500976562,1.9801260232925415,-0.6499738097190857
4.47,-0.009373017586767673,-0.03351637348532677,-1.3287668228149414,1.980413794517517,-0.6499837636947632
4.4750000000000005,-0.017963051795959473,-0.01861548237502575,-1.3277499675750732,1.9814133644104004,-0.6537443995475769
4.48,-0.011012150906026363,-0.019633525982499123,-1.3265225887298584,1.9822332859039307,-0.6533405780792236
4.485,0.00010417390149086714,-0.03875014930963516,-1.3254295587539673,1.9836454391479492,-0.6574305891990662
4.49,-0.008943496271967888,-0.03282523527741432,-1.3248252868652344,1.9839006662368774,-0.6574394106864929
4.495,-0.017582202330231667,-0.01771189086139202,-1.3238283395767212,1.9848268032073975,-0.6610385775566101
4.5,-0.01054403930902481,-0.01860875077545643,-1.3226356506347656,1.985600233078003,-0.660647988319397
4.505,0.0007139853551052511,-0.03761838376522064,-1.3215794563293457,1.986922025680542,-0.6645395159721375
4.51,-0.008334274403750896,-0.031554993242025375,-1.3209980726242065,1.987141728401184,-0.6645432710647583
4.515,-0.017022207379341125,-0.01623462699353695,-1.3200364112854004,1.9879862070083618,-0.6679283380508423
4.5200000000000005,-0.009901170618832111,-0.01701195538043976,-1.3189029693603516,1.988702654838562,-0.6675571203231812
4.525,0.0014910321915522218,-0.035913024097681046,-1.3179092407226562,1.9899181127548218,-0.671188473701477
4.53,-0.007558482699096203,-0.02971530705690384,-1.3173595666885376,1.9900977611541748,-0.6711826920509338
4.535,-0.016295665875077248,-0.01419682428240776,-1.316448450088501,1.990851640701294,-0.6742991209030151
4.54,-0.009098201990127563,-0.01485903188586235,-1.3154001235961914,1.9915027618408203,-0.6739550828933716
4.545,0.0024178149178624153,-0.03365325927734375,-1.3144960403442383,1.9925966262817383,-0.6772633790969849
4.55,-0.0066336072050035,-0.027328187599778175,-1.3139885663986206,1.992730736732483,-0.6772451996803284
4.555,-0.015418102033436298,-0.011624372564256191,-1.3131442070007324,1.9933873414993286,-0.6800377368927002
4.5600000000000005,-0.00815092958509922,-0.012178127653896809,-1.3122056722640991,1.9939631223678589,-0.6797277927398682
4.565,0.0034768860787153244,-0.030869776383042336,-1.3114176988601685,1.9949190616607666,-0.6826513409614563
4.57,-0.0055765872821211815,-0.024427562952041626,-1.3109626770019531,1.9950038194656372,-0.682616651058197
4.575,-0.014405407011508942,-0.008555594831705093,-1.3101998567581177,1.9955534934997559,-0.6850305199623108
4.58,-0.007077117450535297,-0.009010699577629566,-1.3093950748443604,1.9960447549819946,-0.6847618818283081
4.585,0.004648107569664717,-0.027608243748545647,-1.3087488412857056,1.9968491792678833,-0.6872404217720032
4.59,-0.004407788626849651,-0.02106156013906002,-1.3083561658859253,1.9968806505203247,-0.6871870160102844
4.595,-0.013275817036628723,-0.005042748525738716,-1.3076907396316528,1.9973171949386597,-0.6891706585884094
4.6000000000000005,-0.005894995294511318,-0.005411897785961628,-1.3070439100265503,1.9977152347564697,-0.6889485716819763
4.605,0.005911422893404961,-0.02392643690109253,-1.3065645694732666,1.9983552694320679,-0.6909263134002686
4.61,-0.0031466479413211346,-0.01729132980108261,-1.306244969367981,1.9983280897140503,-0.6908511519432068
4.615,-0.012047169730067253,-0.0011515457881614566,-1.3056894540786743,1.9986435174942017,-0.6923559904098511
4.62,-0.004624034743756056,-0.001449893694370985,-1.3052200078964233,1.998940348625183,-0.692186713218689
4.625,0.007245431654155254,-0.01989608258008957,-1.3049284219741821,1.9994044303894043,-0.6936118602752686
4.63,-0.0018141447799280286,-0.013192160986363888,-1.3046902418136597,1.999314785003662,-0.6935142874717712
4.635,-0.010738829150795937,0.0030383109115064144,-1.3042583465576172,1.999502420425415,-0.6944959759712219
